; generated by PrusaSlicer 2.4.2 on 2022-08-27 at 09:28:30 UTC

; 

; external perimeters extrusion width = 0.45mm
; perimeters extrusion width = 0.45mm
; infill extrusion width = 0.45mm
; solid infill extrusion width = 0.45mm
; top infill extrusion width = 0.45mm
; support material extrusion width = 0.38mm
; first layer extrusion width = 0.42mm

M107
;TYPE:Custom
G90 ; use absolute coordinates
M83 ; extruder relative mode
M140 S50 ; set final bed temp
M104 S150 ; set temporary nozzle temp to prevent oozing during homing and auto bed leveling
G4 S10 ; allow partial nozzle warmup
G28 ; home all axis
G29 ; auto bed levelling
G1 Z30 F240
G1 X2 Y10 F3000
M104 S210 ; set final nozzle temp
M190 S50 ; wait for bed temp to stabilize
M109 S210 ; wait for nozzle temp to stabilize
G1 Z0.28 F240
G92 E0
G1 Y100 E11 F1500 ; prime the nozzle
G1 X2.3 F5000
G92 E0
G1 Y10 E11 F1000 ; prime the nozzle
G92 E0
G21 ; set units to millimeters
G90 ; use absolute coordinates
M83 ; use relative distances for extrusion
; Filament gcode
M107
;LAYER_CHANGE
;Z:0.2
;HEIGHT:0.2
;BEFORE_LAYER_CHANGE
G92 E0
;0.2


G1 E-5 F3600
G1 Z.2 F9000
;AFTER_LAYER_CHANGE
;0.2
G1 X102.13 Y88.33
G1 E5 F2400
M204 S500
;TYPE:Skirt/Brim
;WIDTH:0.42
G1 F900
G1 X107.049 Y83.441 E.21743
G1 X118.648 Y74.162 E.46576
G1 X120.758 Y73.422 E.0701
G1 X166.096 Y73.422 E1.42155
G1 X167.679 Y73.816 E.05115
G1 X168.484 Y74.411 E.03138
G1 X173.124 Y79.051 E.20574
G1 X173.965 Y80.449 E.05115
G1 X174.113 Y81.439 E.03138
G1 X174.113 Y138.376 E1.78524
G1 X173.719 Y139.959 E.05115
G1 X173.124 Y140.764 E.03138
G1 X168.484 Y145.404 E.20574
G1 X167.086 Y146.245 E.05115
G1 X166.096 Y146.393 E.03138
G1 X120.758 Y146.393 E1.42155
G1 X118.648 Y145.653 E.0701
G1 X107.049 Y136.374 E.46576
G1 X102.13 Y131.485 E.21743
G1 X101.29 Y130.087 E.05115
G1 X101.141 Y129.097 E.03138
G1 X101.141 Y90.718 E1.20333
G1 X101.535 Y89.135 E.05115
G1 X102.095 Y88.378 E.0295
; printing object 01.R_Bumper_Extra_Stif.stl id:0 copy 0
G1 E-3.5 F3600
;WIPE_START
G1 F7200
G1 X104.22 Y86.261 E-1.425
;WIPE_END
G1 E-.075 F3600
G1 X128.909 Y79.749 F9000
G1 E5 F2400
;TYPE:Support material interface
;WIDTH:0.38
G1 F900
G1 X129.135 Y79.749 E.00633
G1 X129.124 Y86.628 E.19281
G1 X129.153 Y100.628 E.3924
G1 X128.749 Y100.628 E.01131
G1 X128.749 Y79.749 E.58521
G1 X128.347 Y79.749 E.01126
G1 X128.347 Y100.628 E.58521
G1 X128.589 Y100.628 E.00678
G1 E-3.5 F3600
;WIPE_START
G1 F7200
G1 X128.347 Y100.628 E-.11487
G1 X128.347 Y97.87 E-1.31013
;WIPE_END
G1 E-.075 F3600
G1 X128.909 Y119.187 F9000
G1 E5 F2400
G1 F900
G1 X129.153 Y119.187 E.00683
G1 X129.124 Y133.186 E.39238
G1 X129.135 Y140.066 E.19283
G1 X128.749 Y140.066 E.01081
G1 X128.749 Y119.187 E.58521
G1 X128.347 Y119.187 E.01126
G1 X128.347 Y140.066 E.58521
G1 X128.589 Y140.066 E.00678
G1 E-3.5 F3600
;WIPE_START
G1 F7200
G1 X128.347 Y140.066 E-.11487
G1 X128.347 Y137.308 E-1.31013
;WIPE_END
G1 E-.075 F3600
G1 X130.304 Y119.907 F9000
G1 E5 F2400
;TYPE:Support material
;WIDTH:0.42
G1 F900
G1 X130.284 Y127.174 E.22786
G1 X130.304 Y140.107 E.40549
G1 X130.585 Y140.387 E.01245
G1 X133.617 Y140.387 E.09507
G1 X133.617 Y143.016 E.08242
G1 X120.758 Y143.016 E.4032
G1 X120.758 Y140.696 E.07274
G1 X118.438 Y140.696 E.07274
G1 X118.438 Y138.376 E.07274
G1 X116.118 Y138.376 E.07274
G1 X116.118 Y136.056 E.07274
G1 X113.798 Y136.056 E.07274
G1 X113.798 Y133.737 E.07274
G1 X109.158 Y133.737 E.14548
G1 X109.158 Y131.417 E.07274
G1 X106.838 Y131.417 E.07274
G1 X106.838 Y129.097 E.07274
G1 X104.518 Y129.097 E.07274
G1 X104.518 Y116.237 E.4032
G1 X106.838 Y116.237 E.07274
G1 X106.838 Y113.917 E.07274
G1 X130.304 Y113.917 E.73576
G1 X130.304 Y119.85 E.18602
G1 E-3.5 F3600
;WIPE_START
G1 F7200
G1 X130.304 Y116.85 E-1.425
;WIPE_END
G1 E-.075 F3600
G1 X127.977 Y140.436 F9000
G1 E5 F2400
G1 F900
G1 X130.043 Y140.436 E.06477
G1 X130.043 Y139.967 E.01471
G1 X129.54 Y139.967 E.01578
G1 X129.505 Y139.932 E.00155
G1 X129.494 Y133.187 E.21149
G1 X129.523 Y118.817 E.45057
G1 X127.977 Y118.817 E.04846
G1 X127.977 Y140.38 E.67609
G1 X132.84 Y142.846 F9000
G1 F900
G1 X132.84 Y140.727 E.06646
G1 X131.897 Y140.727 E.02956
G1 X131.897 Y142.677 E.06114
G1 X130.954 Y142.677 E.02956
G1 X130.954 Y140.727 E.06114
G1 X130.445 Y140.727 E.01598
G1 X130.382 Y140.665 E.00276
G1 X130.382 Y140.776 E.00348
G1 X130.012 Y140.776 E.01162
G1 X130.012 Y142.677 E.05961
G1 X129.069 Y142.677 E.02956
G1 X129.069 Y140.776 E.05961
G1 X128.126 Y140.776 E.02956
G1 X128.126 Y142.677 E.05961
G1 X127.184 Y142.677 E.02956
G1 X127.184 Y114.257 E.89109
G1 X128.126 Y114.257 E.02956
G1 X128.126 Y118.478 E.13235
G1 X129.069 Y118.478 E.02956
G1 X129.069 Y114.087 E.13767
G1 E-3.5 F3600
;WIPE_START
G1 F7200
G1 X129.069 Y117.087 E-1.425
;WIPE_END
G1 E-.075 F3600
G1 X126.241 Y142.846 F9000
G1 E5 F2400
G1 F900
G1 X126.241 Y114.257 E.89641
G1 X125.298 Y114.257 E.02956
G1 X125.298 Y142.677 E.89109
G1 X124.356 Y142.677 E.02956
G1 X124.356 Y114.257 E.89109
G1 X123.413 Y114.257 E.02956
G1 X123.413 Y142.677 E.89109
G1 X122.47 Y142.677 E.02956
G1 X122.47 Y114.257 E.89109
G1 X121.527 Y114.257 E.02956
G1 X121.527 Y142.677 E.89109
G1 X121.097 Y142.677 E.01349
G1 X121.097 Y140.357 E.07274
G1 X120.585 Y140.357 E.01606
G1 X120.585 Y114.257 E.81835
G1 X119.642 Y114.257 E.02956
G1 X119.642 Y140.357 E.81835
G1 X118.777 Y140.357 E.02712
G1 X118.777 Y138.037 E.07274
G1 X118.699 Y138.037 E.00244
G1 X118.699 Y114.257 E.74561
G1 X117.757 Y114.257 E.02956
G1 X117.757 Y138.037 E.74561
G1 X116.814 Y138.037 E.02956
G1 X116.814 Y114.257 E.74561
G1 X115.871 Y114.257 E.02956
G1 X115.871 Y135.717 E.67287
G1 X114.929 Y135.717 E.02956
G1 X114.929 Y114.257 E.67287
G1 X113.986 Y114.257 E.02956
G1 X113.986 Y133.397 E.60014
G1 X113.043 Y133.397 E.02956
G1 X113.043 Y114.257 E.60014
G1 X112.1 Y114.257 E.02956
G1 X112.1 Y133.397 E.60014
G1 X111.158 Y133.397 E.02956
G1 X111.158 Y114.257 E.60014
G1 X110.215 Y114.257 E.02956
G1 X110.215 Y133.397 E.60014
G1 X109.498 Y133.397 E.0225
G1 X109.498 Y131.077 E.07274
G1 X109.272 Y131.077 E.00706
G1 X109.272 Y114.257 E.5274
G1 X108.33 Y114.257 E.02956
G1 X108.33 Y131.077 E.5274
G1 X107.387 Y131.077 E.02956
G1 X107.387 Y114.257 E.5274
G1 X107.178 Y114.257 E.00657
G1 X107.178 Y116.577 E.07274
G1 X106.444 Y116.577 E.02299
G1 X106.444 Y128.757 E.38192
G1 X105.502 Y128.757 E.02956
G1 X105.502 Y116.407 E.38724
G1 E-3.5 F3600
;WIPE_START
G1 F7200
G1 X105.502 Y119.407 E-1.425
;WIPE_END
G1 E-.075 F3600
G1 X133.617 Y79.427 F9000
G1 E5 F2400
G1 F900
G1 X130.585 Y79.427 E.09507
G1 X130.304 Y79.708 E.01245
G1 X130.284 Y92.64 E.40548
G1 X130.304 Y103.578 E.34294
G1 X104.518 Y103.578 E.8085
G1 X104.518 Y90.718 E.4032
G1 X106.838 Y90.718 E.07274
G1 X106.838 Y88.398 E.07274
G1 X109.158 Y88.398 E.07274
G1 X109.158 Y86.078 E.07274
G1 X113.798 Y86.078 E.14548
G1 X113.798 Y83.758 E.07274
G1 X116.118 Y83.758 E.07274
G1 X116.118 Y81.439 E.07274
G1 X118.438 Y81.439 E.07274
G1 X118.438 Y79.119 E.07274
G1 X120.758 Y79.119 E.07274
G1 X120.758 Y76.799 E.07274
G1 X133.617 Y76.799 E.4032
G1 X133.617 Y79.371 E.08065
G1 E-3.5 F3600
;WIPE_START
G1 F7200
G1 X133.617 Y76.799 E-1.22177
G1 X133.189 Y76.799 E-.20323
;WIPE_END
G1 E-.075 F3600
G1 X127.977 Y100.998 F9000
G1 E5 F2400
G1 F900
G1 X129.523 Y100.998 E.04846
G1 X129.494 Y86.628 E.45054
G1 X129.505 Y79.883 E.21151
G1 X129.54 Y79.848 E.00155
G1 X130.043 Y79.848 E.01578
G1 X130.043 Y79.379 E.01471
G1 X127.977 Y79.379 E.06477
G1 X127.977 Y100.941 E.67609
G1 E-3.5 F3600
;WIPE_START
G1 F7200
G1 X127.977 Y97.941 E-1.425
;WIPE_END
G1 E-.075 F3600
G1 X132.84 Y79.258 F9000
G1 E5 F2400
G1 F900
G1 X132.84 Y77.138 E.06646
G1 X131.897 Y77.138 E.02956
G1 X131.897 Y79.088 E.06114
G1 X130.954 Y79.088 E.02956
G1 X130.954 Y77.138 E.06114
G1 X130.012 Y77.138 E.02956
G1 X130.012 Y79.039 E.05961
G1 X129.069 Y79.039 E.02956
G1 X129.069 Y77.138 E.05961
G1 X128.126 Y77.138 E.02956
G1 X128.126 Y79.039 E.05961
G1 X127.638 Y79.039 E.01531
G1 X127.638 Y101.337 E.69914
G1 X128.126 Y101.337 E.01531
G1 X128.126 Y103.238 E.05961
G1 X129.069 Y103.238 E.02956
G1 X129.069 Y101.168 E.06493
G1 X127.184 Y103.408 F9000
G1 F900
G1 X127.184 Y77.138 E.82367
G1 X126.241 Y77.138 E.02956
G1 X126.241 Y103.238 E.81835
G1 X125.298 Y103.238 E.02956
G1 X125.298 Y77.138 E.81835
G1 X124.356 Y77.138 E.02956
G1 X124.356 Y103.238 E.81835
G1 X123.413 Y103.238 E.02956
G1 X123.413 Y77.138 E.81835
G1 X122.47 Y77.138 E.02956
G1 X122.47 Y103.238 E.81835
G1 X121.527 Y103.238 E.02956
G1 X121.527 Y77.138 E.81835
G1 X121.097 Y77.138 E.0135
G1 X121.097 Y79.458 E.07274
G1 X120.585 Y79.458 E.01606
G1 X120.585 Y103.238 E.74561
G1 X119.642 Y103.238 E.02956
G1 X119.642 Y79.458 E.74561
G1 X118.777 Y79.458 E.02712
G1 X118.777 Y81.778 E.07274
G1 X118.699 Y81.778 E.00244
G1 X118.699 Y103.238 E.67287
G1 X117.757 Y103.238 E.02956
G1 X117.757 Y81.778 E.67287
G1 X116.814 Y81.778 E.02956
G1 X116.814 Y103.238 E.67287
G1 X115.871 Y103.238 E.02956
G1 X115.871 Y84.098 E.60014
G1 X114.929 Y84.098 E.02956
G1 X114.929 Y103.238 E.60014
G1 X113.986 Y103.238 E.02956
G1 X113.986 Y86.418 E.5274
G1 X113.043 Y86.418 E.02956
G1 X113.043 Y103.238 E.5274
G1 X112.1 Y103.238 E.02956
G1 X112.1 Y86.418 E.5274
G1 X111.158 Y86.418 E.02956
G1 X111.158 Y103.238 E.5274
G1 X110.215 Y103.238 E.02956
G1 X110.215 Y86.418 E.5274
G1 X109.498 Y86.418 E.0225
G1 X109.498 Y88.738 E.07274
G1 X109.272 Y88.738 E.00706
G1 X109.272 Y103.238 E.45466
G1 X108.33 Y103.238 E.02956
G1 X108.33 Y88.738 E.45466
G1 X107.387 Y88.738 E.02956
G1 X107.387 Y103.238 E.45466
G1 X106.444 Y103.238 E.02956
G1 X106.444 Y91.058 E.38192
G1 X105.502 Y91.058 E.02956
G1 X105.502 Y103.408 E.38724
G1 E-3.5 F3600
;WIPE_START
G1 F7200
G1 X105.502 Y100.408 E-1.425
;WIPE_END
G1 E-.075 F3600
G1 X155.945 Y79.749 F9000
G1 E5 F2400
;TYPE:Support material interface
;WIDTH:0.38
G1 F900
G1 X156.186 Y79.749 E.00678
G1 X156.186 Y140.066 E1.6906
G1 X155.785 Y140.066 E.01126
G1 X155.785 Y79.749 E1.6906
G1 X155.403 Y79.749 E.01069
G1 X155.403 Y140.066 E1.6906
G1 X155.625 Y140.066 E.0062
G1 E-3.5 F3600
;WIPE_START
G1 F7200
G1 X155.403 Y140.066 E-.10514
G1 X155.403 Y137.288 E-1.31986
;WIPE_END
G1 E-.075 F3600
G1 X166.096 Y81.439 F9000
G1 E5 F2400
;TYPE:Support material
;WIDTH:0.42
G1 F900
G1 X170.736 Y81.439 E.14548
G1 X170.736 Y91.978 E.33046
G1 X166.096 Y91.978 E.14548
G1 X166.096 Y93.038 E.03324
G1 X170.736 Y93.038 E.14548
G1 X170.736 Y103.578 E.33046
G1 X166.096 Y103.578 E.14548
G1 X166.096 Y116.237 E.39693
G1 X170.736 Y116.237 E.14548
G1 X170.736 Y126.777 E.33046
G1 X166.096 Y126.777 E.14548
G1 X166.096 Y127.837 E.03324
G1 X170.736 Y127.837 E.14548
G1 X170.736 Y138.376 E.33046
G1 X166.096 Y138.376 E.14548
G1 X166.096 Y143.016 E.14548
G1 X150.917 Y143.016 E.47594
G1 X150.917 Y140.387 E.08242
G1 X153.746 Y140.387 E.08872
G1 X154.027 Y140.106 E.01247
G1 X154.027 Y79.709 E1.89373
G1 X153.746 Y79.427 E.01247
G1 X150.917 Y79.427 E.08872
G1 X150.917 Y76.799 E.08242
G1 X166.096 Y76.799 E.47594
G1 X166.096 Y81.382 E.1437
G1 E-3.5 F3600
;WIPE_START
G1 F7200
G1 X166.096 Y78.382 E-1.425
;WIPE_END
G1 E-.075 F3600
G1 X154.491 Y79.848 F9000
G1 E5 F2400
G1 F900
G1 X154.998 Y79.848 E.01591
G1 X155.033 Y79.883 E.00156
G1 X155.033 Y139.887 E1.88141
G1 X155.033 Y139.932 E.0014
G1 X154.998 Y139.967 E.00156
G1 X154.491 Y139.967 E.01591
G1 X154.491 Y140.436 E.01471
G1 X156.556 Y140.436 E.06477
G1 X156.556 Y79.379 E1.91442
G1 X154.491 Y79.379 E.06477
G1 X154.491 Y79.791 E.01293
G1 E-3.5 F3600
;WIPE_START
G1 F7200
G1 X154.491 Y79.379 E-.19591
G1 X156.556 Y79.379 E-.98124
G1 X156.556 Y79.9 E-.24785
;WIPE_END
G1 E-.075 F3600
G1 X169.605 Y138.207 F9000
G1 E5 F2400
G1 F900
G1 X169.605 Y128.176 E.3145
G1 X168.662 Y128.176 E.02956
G1 X168.662 Y138.037 E.30918
G1 X167.72 Y138.037 E.02956
G1 X167.72 Y128.176 E.30918
G1 X166.777 Y128.176 E.02956
G1 X166.777 Y138.037 E.30918
G1 X165.834 Y138.037 E.02956
G1 X165.834 Y81.778 E1.76396
G1 X166.777 Y81.778 E.02956
G1 X166.777 Y91.639 E.30918
G1 X167.72 Y91.639 E.02956
G1 X167.72 Y81.778 E.30918
G1 X168.662 Y81.778 E.02956
G1 X168.662 Y91.639 E.30918
G1 X169.605 Y91.639 E.02956
G1 X169.605 Y81.608 E.3145
G1 E-3.5 F3600
;WIPE_START
G1 F7200
G1 X169.605 Y84.608 E-1.425
;WIPE_END
G1 E-.075 F3600
G1 X169.605 Y126.607 F9000
G1 E5 F2400
G1 F900
G1 X169.605 Y116.577 E.3145
G1 X168.662 Y116.577 E.02956
G1 X168.662 Y126.437 E.30918
G1 X167.72 Y126.437 E.02956
G1 X167.72 Y116.577 E.30918
G1 X166.777 Y116.577 E.02956
G1 X166.777 Y126.607 E.3145
G1 E-3.5 F3600
;WIPE_START
G1 F7200
G1 X166.777 Y123.607 E-1.425
;WIPE_END
G1 E-.075 F3600
G1 X169.605 Y103.408 F9000
G1 E5 F2400
G1 F900
G1 X169.605 Y93.377 E.3145
G1 X168.662 Y93.377 E.02956
G1 X168.662 Y103.238 E.30918
G1 X167.72 Y103.238 E.02956
G1 X167.72 Y93.377 E.30918
G1 X166.777 Y93.377 E.02956
G1 X166.777 Y103.408 E.3145
G1 E-3.5 F3600
;WIPE_START
G1 F7200
G1 X166.777 Y100.408 E-1.425
;WIPE_END
G1 E-.075 F3600
G1 X164.892 Y142.846 F9000
G1 E5 F2400
G1 F900
G1 X164.892 Y77.138 E2.06024
G1 X163.949 Y77.138 E.02956
G1 X163.949 Y142.677 E2.05492
G1 X163.006 Y142.677 E.02956
G1 X163.006 Y77.138 E2.05492
G1 X162.064 Y77.138 E.02956
G1 X162.064 Y142.677 E2.05492
G1 X161.121 Y142.677 E.02956
G1 X161.121 Y77.138 E2.05492
G1 X160.178 Y77.138 E.02956
G1 X160.178 Y142.677 E2.05492
G1 X159.235 Y142.677 E.02956
G1 X159.235 Y77.138 E2.05492
G1 X158.293 Y77.138 E.02956
G1 X158.293 Y142.677 E2.05492
G1 X157.35 Y142.677 E.02956
G1 X157.35 Y77.138 E2.05492
G1 X156.407 Y77.138 E.02956
G1 X156.407 Y79.039 E.05961
G1 X155.465 Y79.039 E.02956
G1 X155.465 Y77.138 E.05961
G1 X154.522 Y77.138 E.02956
G1 X154.522 Y79.039 E.05961
G1 X154.151 Y79.039 E.01162
G1 X154.151 Y79.353 E.00983
G1 X153.887 Y79.088 E.01173
G1 X153.579 Y79.088 E.00964
G1 X153.579 Y77.138 E.06114
G1 X152.637 Y77.138 E.02956
G1 X152.637 Y79.088 E.06114
G1 X151.694 Y79.088 E.02956
G1 X151.694 Y76.968 E.06646
G1 E-3.5 F3600
;WIPE_START
G1 F7200
G1 X151.694 Y79.088 E-1.00683
G1 X152.574 Y79.088 E-.41817
;WIPE_END
G1 E-.075 F3600
G1 X156.407 Y142.846 F9000
G1 E5 F2400
G1 F900
G1 X156.407 Y140.776 E.06493
G1 X155.465 Y140.776 E.02956
G1 X155.465 Y142.677 E.05961
G1 X154.522 Y142.677 E.02956
G1 X154.522 Y140.776 E.05961
G1 X154.151 Y140.776 E.01162
G1 X154.151 Y140.462 E.00983
G1 X153.887 Y140.727 E.01173
G1 X153.579 Y140.727 E.00964
G1 X153.579 Y142.677 E.06114
G1 X152.637 Y142.677 E.02956
G1 X152.637 Y140.727 E.06114
G1 X151.694 Y140.727 E.02956
G1 X151.694 Y142.846 E.06646
G1 X154.522 Y139.798 F9000
G1 F900
G1 X154.522 Y80.017 E1.87437
G1 E-3.5 F3600
;WIPE_START
G1 F7200
G1 X154.522 Y83.017 E-1.425
;WIPE_END
G1 E-.075 F3600
G1 X143.956 Y127.435 F9000
G1 E5 F2400
;TYPE:Perimeter
G1 F900
G1 X144.665 Y127.72 E.02393
G1 X145.342 Y128.137 E.02494
G1 X145.942 Y128.665 E.02505
G1 X146.465 Y129.329 E.02651
G1 X146.827 Y129.976 E.02324
G1 X147.092 Y130.726 E.02494
G1 X147.226 Y131.51 E.02494
G1 X147.226 Y132.309 E.02505
G1 X147.074 Y133.14 E.02651
G1 X146.827 Y133.839 E.02324
G1 X146.439 Y134.533 E.02494
G1 X145.939 Y135.152 E.02494
G1 X145.342 Y135.678 E.02494
G1 X144.665 Y136.095 E.02494
G1 X143.927 Y136.391 E.02494
G1 X143.149 Y136.559 E.02494
G1 X142.354 Y136.593 E.02494
G1 X141.565 Y136.492 E.02494
G1 X140.805 Y136.259 E.02494
G1 X140.095 Y135.901 E.02494
G1 X139.455 Y135.428 E.02494
G1 X138.905 Y134.854 E.02494
G1 X138.459 Y134.195 E.02494
G1 X138.132 Y133.47 E.02494
G1 X137.931 Y132.7 E.02494
G1 X137.864 Y131.907 E.02494
G1 X137.931 Y131.115 E.02494
G1 X138.132 Y130.345 E.02494
G1 X138.459 Y129.62 E.02494
G1 X138.905 Y128.961 E.02494
G1 X139.455 Y128.387 E.02494
G1 X140.095 Y127.914 E.02494
G1 X140.805 Y127.556 E.02494
G1 X141.565 Y127.323 E.02494
G1 X142.354 Y127.222 E.02494
G1 X143.149 Y127.256 E.02494
G1 X143.899 Y127.418 E.02406
G1 X143.816 Y127.785 F9000
;TYPE:External perimeter
G1 F900
G1 X144.494 Y128.058 E.02293
G1 X145.117 Y128.441 E.02293
G1 X145.667 Y128.925 E.02297
G1 X146.151 Y129.539 E.0245
G1 X146.482 Y130.132 E.02129
G1 X146.725 Y130.821 E.02293
G1 X146.849 Y131.542 E.02293
G1 X146.849 Y132.274 E.02297
G1 X146.708 Y133.043 E.0245
G1 X146.482 Y133.683 E.02129
G1 X146.125 Y134.322 E.02293
G1 X145.666 Y134.89 E.02293
G1 X145.117 Y135.374 E.02293
