; generated by PrusaSlicer 2.4.0+linux-x64-GTK3 on 2022-07-04 at 17:57:36 UTC

; 

; external perimeters extrusion width = 0.45mm
; perimeters extrusion width = 0.45mm
; infill extrusion width = 0.45mm
; solid infill extrusion width = 0.45mm
; top infill extrusion width = 0.40mm
; first layer extrusion width = 0.42mm

; external perimeters extrusion width = 0.45mm
; perimeters extrusion width = 0.45mm
; infill extrusion width = 0.45mm
; solid infill extrusion width = 0.45mm
; top infill extrusion width = 0.40mm
; first layer extrusion width = 0.42mm

M201 X500 Y500 Z100 E5000 ; sets maximum accelerations, mm/sec^2
M203 X500 Y500 Z10 E60 ; sets maximum feedrates, mm/sec
M204 P500 R1000 T500 ; sets acceleration (P, T) and retract acceleration (R), mm/sec^2
M205 X8.00 Y8.00 Z0.40 E5.00 ; sets the jerk limits, mm/sec
M205 S0 T0 ; sets the minimum extruding and travel feed rate, mm/sec
M107
;TYPE:Custom
G90 ; use absolute coordinates
M83 ; extruder relative mode
M140 S50 ; set final bed temp
M104 S150 ; set temporary nozzle temp to prevent oozing during homing and auto bed leveling
G4 S10 ; allow partial nozzle warmup
G28 ; home all axis
G29 ; auto bed levelling
G1 Z50 F240
G1 X2 Y10 F3000
M104 S205 ; set final nozzle temp
M190 S50 ; wait for bed temp to stabilize
M109 S205 ; wait for nozzle temp to stabilize
G1 Z0.28 F240
G92 E0
G1 Y140 E10 F1500 ; prime the nozzle
G1 X2.3 F5000
G92 E0
G1 Y10 E10 F1200 ; prime the nozzle
G92 E0
G21 ; set units to millimeters
G90 ; use absolute coordinates
M83 ; use relative distances for extrusion
; Filament gcode
M107
;LAYER_CHANGE
;Z:0.2
;HEIGHT:0.2
;BEFORE_LAYER_CHANGE
G92 E0
;0.2


G1 E-5 F3600
G1 Z.2 F9000
;AFTER_LAYER_CHANGE
;0.2
G1 X70.847 Y102.929
G1 E5 F2400
M204 S500
;TYPE:Skirt/Brim
;WIDTH:0.42
G1 F1200
G1 X72.311 Y102.146 E.04997
G1 X73.19 Y101.828 E.02816
G1 X74.192 Y101.587 E.03101
G1 X132.393 Y92.245 E1.77427
G1 X155.691 Y92.202 E.7013
G1 X157.274 Y92.596 E.04911
G1 X158.488 Y93.686 E.04911
G1 X159.068 Y95.579 E.05959
G1 X159.068 Y155.579 E1.80601
G1 X158.674 Y157.162 E.04911
G1 X157.584 Y158.376 E.04911
G1 X155.691 Y158.956 E.05959
G1 X132.928 Y158.956 E.68519
G1 X131.666 Y158.712 E.0387
G1 X72.159 Y134.727 E1.93117
G1 X70.847 Y134.012 E.04499
G1 X69.553 Y132.972 E.04997
G1 X68.761 Y131.882 E.04053
G1 X67.856 Y129.895 E.06573
G1 X67.35 Y128.275 E.05108
G1 X67.17 Y126.562 E.05186
G1 X67.168 Y110.497 E.48356
G1 X67.288 Y108.997 E.04529
G1 X67.472 Y108.155 E.02596
G1 X67.856 Y107.045 E.03533
G1 X68.761 Y105.058 E.06573
G1 X69.553 Y103.969 E.04053
G1 X70.8 Y102.967 E.04816
; printing object 01.R_Bumper_210807.stl id:1 copy 0
G1 E-3.5 F3600
;WIPE_START
G1 F7200
G1 X72.311 Y102.146 E-.81656
G1 X73.19 Y101.828 E-.44435
G1 X73.526 Y101.747 E-.1641
;WIPE_END
G1 E-.075 F3600
G1 X140.758 Y144.392 F9000
G1 E5 F2400
;TYPE:Perimeter
G1 F1200
G1 X141.349 Y143.775 E.02574
G1 X142.04 Y143.264 E.02587
G1 X142.808 Y142.877 E.02587
G1 X143.63 Y142.625 E.02587
G1 X144.482 Y142.516 E.02587
G1 X145.341 Y142.552 E.02587
G1 X146.181 Y142.733 E.02587
G1 X146.979 Y143.054 E.02587
G1 X147.711 Y143.505 E.02587
G1 X148.361 Y144.076 E.02604
G1 X148.924 Y144.791 E.02739
G1 X149.316 Y145.492 E.02417
G1 X149.602 Y146.302 E.02587
G1 X149.747 Y147.149 E.02587
G1 X149.747 Y148.009 E.02587
G1 X149.601 Y148.862 E.02604
G1 X149.288 Y149.716 E.02739
G1 X148.896 Y150.417 E.02417
G1 X148.356 Y151.086 E.02587
G1 X147.711 Y151.654 E.02587
G1 X146.979 Y152.105 E.02587
G1 X146.181 Y152.425 E.02587
G1 X145.341 Y152.606 E.02587
G1 X144.482 Y152.643 E.02587
G1 X143.63 Y152.533 E.02587
G1 X142.808 Y152.282 E.02587
G1 X142.04 Y151.895 E.02587
G1 X141.349 Y151.384 E.02587
G1 X140.754 Y150.763 E.02587
G1 X140.273 Y150.051 E.02587
G1 X139.919 Y149.268 E.02587
G1 X139.702 Y148.436 E.02587
G1 X139.629 Y147.579 E.02587
G1 X139.702 Y146.723 E.02587
G1 X139.919 Y145.891 E.02587
G1 X140.273 Y145.108 E.02587
G1 X140.723 Y144.441 E.02421
G1 X140.845 Y144.934 F9000
G1 F1200
G1 X141.049 Y144.633 E.01094
G1 X141.599 Y144.059 E.02394
G1 X142.239 Y143.586 E.02394
G1 X142.949 Y143.228 E.02394
G1 X143.709 Y142.995 E.02394
G1 X144.498 Y142.894 E.02394
G1 X145.293 Y142.928 E.02394
G1 X146.071 Y143.095 E.02394
G1 X146.809 Y143.392 E.02394
G1 X147.486 Y143.809 E.02394
G1 X148.086 Y144.337 E.02404
G1 X148.609 Y145.001 E.02545
G1 X148.971 Y145.648 E.02231
G1 X149.236 Y146.398 E.02394
G1 X149.37 Y147.182 E.02394
G1 X149.37 Y147.977 E.02394
G1 X149.235 Y148.764 E.02404
G1 X148.944 Y149.558 E.02545
G1 X148.583 Y150.205 E.02231
G1 X148.083 Y150.824 E.02394
G1 X147.486 Y151.35 E.02394
G1 X146.809 Y151.767 E.02394
G1 X146.071 Y152.063 E.02394
G1 X145.293 Y152.231 E.02394
G1 X144.498 Y152.265 E.02394
G1 X143.709 Y152.164 E.02394
G1 X142.949 Y151.931 E.02394
G1 X142.239 Y151.573 E.02394
G1 X141.599 Y151.1 E.02394
G1 X141.049 Y150.525 E.02394
G1 X140.603 Y149.866 E.02394
G1 X140.276 Y149.142 E.02394
G1 X140.075 Y148.372 E.02394
G1 X140.008 Y147.579 E.02394
G1 X140.075 Y146.787 E.02394
G1 X140.276 Y146.017 E.02394
G1 X140.603 Y145.292 E.02394
G1 X140.812 Y144.984 E.0112
G1 X140.934 Y145.477 F9000
;TYPE:External perimeter
G1 F1200
G1 X141.343 Y144.871 E.02201
G1 X141.849 Y144.343 E.02201
G1 X142.437 Y143.908 E.02201
G1 X143.09 Y143.579 E.02201
G1 X143.789 Y143.365 E.02201
G1 X144.514 Y143.272 E.02201
G1 X145.245 Y143.303 E.02201
G1 X145.96 Y143.457 E.02201
G1 X146.638 Y143.73 E.02201
G1 X147.261 Y144.113 E.02201
G1 X147.811 Y144.597 E.02205
G1 X148.295 Y145.211 E.02352
G1 X148.626 Y145.803 E.02044
G1 X148.869 Y146.493 E.02201
G1 X148.993 Y147.214 E.02201
G1 X148.993 Y147.945 E.02201
G1 X148.869 Y148.667 E.02205
G1 X148.6 Y149.4 E.02352
G1 X148.269 Y149.993 E.02044
G1 X147.81 Y150.562 E.02201
G1 X147.261 Y151.045 E.02201
G1 X146.638 Y151.429 E.02201
G1 X145.96 Y151.701 E.02201
G1 X145.245 Y151.855 E.02201
G1 X144.514 Y151.886 E.02201
G1 X143.789 Y151.794 E.02201
G1 X143.09 Y151.579 E.02201
G1 X142.437 Y151.25 E.02201
G1 X141.849 Y150.815 E.02201
G1 X141.343 Y150.288 E.02201
G1 X140.934 Y149.682 E.02201
G1 X140.633 Y149.015 E.02201
G1 X140.448 Y148.308 E.02201
G1 X140.386 Y147.579 E.02201
G1 X140.448 Y146.851 E.02201
G1 X140.633 Y146.143 E.02201
G1 X140.909 Y145.531 E.0202
G1 X140.729 Y145.133 F9000
G1 E-3.5 F3600
;WIPE_START
G1 F7200
G1 X141.343 Y144.871 E-.37545
G1 X141.849 Y144.343 E-.34733
G1 X142.437 Y143.908 E-.34733
G1 X143.09 Y143.579 E-.34733
G1 X143.105 Y143.574 E-.00757
;WIPE_END
G1 E-.075 F3600
G1 X143.753 Y108.549 F9000
G1 E5 F2400
;TYPE:Perimeter
G1 F1200
G1 X143.63 Y108.533 E.00373
G1 X142.808 Y108.282 E.02587
G1 X142.04 Y107.895 E.02587
G1 X141.349 Y107.384 E.02587
G1 X140.754 Y106.763 E.02587
G1 X140.273 Y106.051 E.02587
G1 X139.919 Y105.268 E.02587
G1 X139.702 Y104.436 E.02587
G1 X139.629 Y103.579 E.02587
G1 X139.702 Y102.723 E.02587
G1 X139.919 Y101.891 E.02587
G1 X140.273 Y101.108 E.02587
G1 X140.754 Y100.395 E.02587
G1 X141.349 Y99.775 E.02587
G1 X142.04 Y99.264 E.02587
G1 X142.808 Y98.877 E.02587
G1 X143.63 Y98.625 E.02587
G1 X144.077 Y98.568 E.01358
G1 X144.482 Y98.516 E.0123
G1 X145.341 Y98.552 E.02587
G1 X146.181 Y98.733 E.02587
G1 X146.979 Y99.054 E.02587
G1 X147.711 Y99.505 E.02587
G1 X148.356 Y100.072 E.02587
G1 X148.896 Y100.741 E.02587
G1 X149.316 Y101.492 E.02587
G1 X149.602 Y102.302 E.02587
G1 X149.747 Y103.149 E.02587
G1 X149.747 Y104.009 E.02587
G1 X149.601 Y104.862 E.02604
G1 X149.288 Y105.716 E.02739
G1 X148.896 Y106.417 E.02417
G1 X148.356 Y107.086 E.02587
G1 X147.711 Y107.654 E.02587
G1 X146.979 Y108.105 E.02587
G1 X146.181 Y108.425 E.02587
G1 X145.341 Y108.606 E.02587
G1 X144.482 Y108.643 E.02587
G1 X143.812 Y108.557 E.02034
G1 X144.134 Y108.218 F9000
G1 F1200
G1 X143.709 Y108.164 E.01287
G1 X142.949 Y107.931 E.02394
G1 X142.239 Y107.573 E.02394
G1 X141.599 Y107.1 E.02394
G1 X141.049 Y106.525 E.02394
G1 X140.603 Y105.866 E.02394
G1 X140.276 Y105.142 E.02394
G1 X140.075 Y104.372 E.02394
G1 X140.008 Y103.579 E.02394
G1 X140.075 Y102.787 E.02394
G1 X140.276 Y102.017 E.02394
G1 X140.603 Y101.292 E.02394
G1 X141.049 Y100.633 E.02394
G1 X141.599 Y100.059 E.02394
G1 X142.239 Y99.586 E.02394
G1 X142.949 Y99.228 E.02394
G1 X143.709 Y98.995 E.02394
G1 X144.125 Y98.942 E.01261
G1 X144.498 Y98.894 E.01133
G1 X145.293 Y98.928 E.02394
G1 X146.071 Y99.095 E.02394
G1 X146.809 Y99.392 E.02394
G1 X147.486 Y99.809 E.02394
G1 X148.083 Y100.334 E.02394
G1 X148.583 Y100.953 E.02394
G1 X148.971 Y101.648 E.02394
G1 X149.236 Y102.398 E.02394
G1 X149.37 Y103.182 E.02394
G1 X149.37 Y103.977 E.02394
G1 X149.235 Y104.764 E.02404
G1 X148.944 Y105.558 E.02545
G1 X148.583 Y106.205 E.02231
G1 X148.083 Y106.824 E.02394
G1 X147.486 Y107.35 E.02394
G1 X146.809 Y107.767 E.02394
G1 X146.071 Y108.063 E.02394
G1 X145.293 Y108.231 E.02394
G1 X144.498 Y108.265 E.02394
G1 X144.193 Y108.225 E.00927
G1 X144.514 Y107.886 F9000
;TYPE:External perimeter
G1 F1200
G1 X143.789 Y107.794 E.02201
G1 X143.09 Y107.579 E.02201
G1 X142.437 Y107.25 E.02201
G1 X141.849 Y106.815 E.02201
G1 X141.343 Y106.288 E.02201
G1 X140.934 Y105.682 E.02201
G1 X140.633 Y105.015 E.02201
G1 X140.448 Y104.308 E.02201
G1 X140.386 Y103.579 E.02201
G1 X140.448 Y102.851 E.02201
G1 X140.633 Y102.143 E.02201
G1 X140.934 Y101.477 E.02201
G1 X141.343 Y100.871 E.02201
G1 X141.849 Y100.343 E.02201
G1 X142.437 Y99.908 E.02201
G1 X143.09 Y99.579 E.02201
G1 X143.789 Y99.365 E.02201
G1 X144.514 Y99.272 E.02201
G1 X145.245 Y99.303 E.02201
G1 X145.96 Y99.457 E.02201
G1 X146.638 Y99.73 E.02201
G1 X147.261 Y100.113 E.02201
G1 X147.81 Y100.596 E.02201
G1 X148.269 Y101.165 E.02201
G1 X148.626 Y101.803 E.02201
G1 X148.869 Y102.493 E.02201
G1 X148.993 Y103.214 E.02201
G1 X148.993 Y103.945 E.02201
G1 X148.869 Y104.667 E.02205
G1 X148.6 Y105.4 E.02352
G1 X148.269 Y105.993 E.02044
G1 X147.81 Y106.562 E.02201
G1 X147.261 Y107.045 E.02201
G1 X146.638 Y107.429 E.02201
G1 X145.96 Y107.701 E.02201
G1 X145.245 Y107.855 E.02201
G1 X144.574 Y107.884 E.0202
G1 X144.3 Y108.224 F9000
G1 E-3.5 F3600
;WIPE_START
G1 F7200
G1 X143.789 Y107.794 E-.37545
G1 X143.09 Y107.579 E-.34733
G1 X142.437 Y107.25 E-.34733
G1 X141.849 Y106.815 E-.34733
G1 X141.838 Y106.804 E-.00756
;WIPE_END
G1 E-.075 F3600
G1 X154.627 Y97.443 F9000
G1 E5 F2400
;TYPE:Perimeter
G1 F1200
G1 X154.627 Y154.515 E1.71786
G1 X133.99 Y154.515 E.62117
G1 X133.973 Y142.847 E.3512
G1 X133.993 Y135.581 E.21873
G1 X133.993 Y115.578 E.60209
G1 X133.973 Y108.311 E.21873
G1 X133.99 Y96.643 E.3512
G1 X154.627 Y96.643 E.62117
G1 X154.627 Y97.383 E.02227
G1 X155.004 Y96.666 F9000
G1 F1200
G1 X155.004 Y154.892 E1.75261
G1 X133.614 Y154.892 E.64386
G1 X133.596 Y142.847 E.36256
G1 X133.615 Y135.58 E.21874
G1 X133.615 Y115.578 E.60206
G1 X133.596 Y108.311 E.21874
G1 X133.614 Y96.266 E.36256
G1 X155.004 Y96.266 E.64386
G1 X155.004 Y96.606 E.01023
G1 X155.381 Y95.889 F9000
;TYPE:External perimeter
G1 F1200
G1 X155.381 Y155.269 E1.78735
G1 X133.237 Y155.269 E.66654
G1 X133.219 Y142.847 E.37391
G1 X133.238 Y135.58 E.21875
G1 X133.238 Y115.579 E.60203
G1 X133.219 Y108.312 E.21874
G1 X133.237 Y95.889 E.37391
G1 X155.321 Y95.889 E.66473
G1 X155.243 Y96.265 F9000
G1 X154.514 Y97.522
;TYPE:Solid infill
;WIDTH:0.421326
G1 F1200
G1 X153.919 Y96.926 E.02543
G1 X153.384 Y96.926 E.01616
G1 X154.344 Y97.887 E.04105
G1 X154.344 Y98.422 E.01616
G1 X152.848 Y96.926 E.06391
G1 X152.313 Y96.926 E.01616
G1 X154.344 Y98.957 E.08677
G1 X154.344 Y99.492 E.01616
G1 X151.778 Y96.926 E.10963
G1 X151.243 Y96.926 E.01616
G1 X154.344 Y100.028 E.13249
G1 X154.344 Y100.563 E.01616
G1 X150.708 Y96.926 E.15535
G1 X150.173 Y96.926 E.01616
G1 X154.344 Y101.098 E.17821
G1 X154.344 Y101.633 E.01616
G1 X149.637 Y96.926 E.20107
G1 X149.102 Y96.926 E.01616
G1 X154.344 Y102.168 E.22393
G1 X154.344 Y102.703 E.01616
G1 X148.567 Y96.926 E.24679
G1 X148.032 Y96.926 E.01616
G1 X154.344 Y103.239 E.26965
G1 X154.344 Y103.774 E.01616
G1 X147.497 Y96.926 E.29251
G1 X146.962 Y96.926 E.01616
G1 X154.344 Y104.309 E.31537
G1 X154.344 Y104.844 E.01616
G1 X146.427 Y96.926 E.33823
G1 X145.891 Y96.926 E.01616
G1 X154.344 Y105.379 E.36109
G1 X154.344 Y105.914 E.01616
G1 X149.282 Y100.852 E.21625
G1 X149.132 Y100.582 E.00933
G1 X148.561 Y99.876 E.02742
G1 X147.88 Y99.276 E.02742
G1 X147.429 Y98.999 E.016
G1 X145.356 Y96.926 E.08853
G1 X144.821 Y96.926 E.01616
G1 X146.419 Y98.524 E.06826
G1 X146.265 Y98.462 E.00503
G1 X145.7 Y98.34 E.01744
G1 X144.286 Y96.926 E.06041
G1 X143.751 Y96.926 E.01616
G1 X145.083 Y98.258 E.0569
G1 X144.524 Y98.235 E.0169
G1 X143.216 Y96.926 E.05589
G1 X142.681 Y96.926 E.01616
G1 X144.042 Y98.287 E.05814
G1 X143.568 Y98.348 E.01444
G1 X142.145 Y96.926 E.06075
G1 X141.61 Y96.926 E.01616
G1 X143.158 Y98.474 E.06611
G1 X142.748 Y98.599 E.01294
G1 X141.075 Y96.926 E.07147
G1 X140.54 Y96.926 E.01616
G1 X142.386 Y98.772 E.07887
G1 X142.031 Y98.952 E.01204
G1 X140.005 Y96.926 E.08653
G1 X139.47 Y96.926 E.01616
G1 X141.704 Y99.161 E.09545
G1 X141.396 Y99.388 E.01156
G1 X138.935 Y96.926 E.10517
G1 X138.399 Y96.926 E.01616
G1 X141.1 Y99.626 E.11535
G1 X140.838 Y99.9 E.01143
G1 X137.864 Y96.926 E.12702
G1 X137.329 Y96.926 E.01616
G1 X140.576 Y100.173 E.13869
G1 X140.353 Y100.485 E.01159
G1 X136.794 Y96.926 E.15202
G1 X136.259 Y96.926 E.01616
G1 X140.137 Y100.804 E.16566
G1 X140.025 Y100.969 E.00602
G1 X139.945 Y101.147 E.0059
G1 X135.724 Y96.926 E.18031
G1 X135.189 Y96.926 E.01616
G1 X139.778 Y101.516 E.19606
G1 X139.651 Y101.796 E.0093
G1 X139.625 Y101.898 E.00317
G1 X134.653 Y96.926 E.21237
G1 X134.273 Y96.926 E.0115
G1 X134.272 Y97.08 E.00466
G1 X139.514 Y102.322 E.22392
G1 X139.415 Y102.759 E.01351
G1 X134.272 Y97.615 E.21973
G1 X134.271 Y98.149 E.01614
G1 X139.374 Y103.252 E.21797
G1 X139.346 Y103.579 E.00993
G1 X139.362 Y103.776 E.00596
G1 X134.27 Y98.683 E.21753
G1 X134.269 Y99.218 E.01614
G1 X139.412 Y104.361 E.21969
G1 X139.423 Y104.484 E.00373
G1 X139.571 Y105.055 E.01783
G1 X134.099 Y99.583 E.23377
G1 E-3.5 F3600
;WIPE_START
G1 F7200
G1 X136.22 Y101.704 E-1.425
;WIPE_END
G1 E-.075 F3600
G1 X154.514 Y106.619 F9000
G1 E5 F2400
G1 F1200
G1 X149.741 Y101.846 E.20392
G1 X149.877 Y102.231 E.01234
G1 X149.936 Y102.576 E.01058
G1 X154.344 Y106.985 E.18832
G1 X154.344 Y107.52 E.01616
G1 X150.03 Y103.205 E.1843
G1 X150.03 Y103.74 E.01616
G1 X154.344 Y108.055 E.1843
G1 X154.344 Y108.59 E.01616
G1 X149.995 Y104.24 E.18582
G1 X149.916 Y104.697 E.014
G1 X154.344 Y109.125 E.18916
G1 X154.344 Y109.66 E.01616
G1 X149.807 Y105.123 E.19384
G1 X149.663 Y105.514 E.0126
G1 X154.344 Y110.195 E.19997
G1 X154.344 Y110.731 E.01616
G1 X149.511 Y105.897 E.20648
G1 X149.319 Y106.24 E.01188
G1 X154.344 Y111.266 E.21467
G1 X154.344 Y111.801 E.01616
G1 X149.126 Y106.583 E.22291
G1 X148.887 Y106.879 E.01149
G1 X154.344 Y112.336 E.23312
G1 X154.344 Y112.871 E.01616
G1 X148.648 Y107.175 E.24333
G1 X148.561 Y107.282 E.00417
G1 X148.38 Y107.442 E.00729
G1 X154.344 Y113.406 E.25479
G1 X154.344 Y113.941 E.01616
G1 X148.095 Y107.692 E.26694
G1 X147.799 Y107.932 E.01149
G1 X154.344 Y114.477 E.27959
G1 X154.344 Y115.012 E.01616
G1 X147.468 Y108.136 E.29374
G1 X147.137 Y108.339 E.01175
G1 X154.344 Y115.547 E.30788
G1 X154.344 Y116.082 E.01616
G1 X146.76 Y108.497 E.324
G1 X146.378 Y108.651 E.01243
G1 X154.344 Y116.617 E.3403
G1 X154.344 Y117.152 E.01616
G1 X145.955 Y108.763 E.35837
G1 X145.515 Y108.858 E.0136
G1 X154.344 Y117.687 E.37717
G1 X154.344 Y118.223 E.01616
G1 X145.024 Y108.903 E.39813
G1 X144.511 Y108.925 E.01552
G1 X154.344 Y118.758 E.42006
G1 X154.344 Y119.293 E.01616
G1 X143.905 Y108.854 E.44593
G1 X143.57 Y108.811 E.01021
G1 X143.22 Y108.704 E.01105
G1 X154.344 Y119.828 E.4752
G1 X154.344 Y120.363 E.01616
G1 X142.348 Y108.366 E.51247
G1 X141.891 Y108.136 E.01543
G1 X141.162 Y107.597 E.02742
G1 X140.534 Y106.941 E.02742
G1 X140.025 Y106.189 E.02742
G1 X139.905 Y105.924 E.00878
G1 X134.268 Y100.286 E.24084
G1 X134.267 Y100.821 E.01614
G1 X154.344 Y120.898 E.85767
G1 X154.344 Y121.434 E.01616
G1 X134.266 Y101.355 E.8577
G1 X134.265 Y101.889 E.01614
G1 X154.344 Y121.969 E.85774
G1 X154.344 Y122.504 E.01616
G1 X134.264 Y102.424 E.85777
G1 X134.264 Y102.958 E.01614
G1 X154.344 Y123.039 E.85781
G1 X154.344 Y123.574 E.01616
