; generated by PrusaSlicer 2.4.0+linux-x64-GTK3 on 2022-07-27 at 18:17:49 UTC

; 

; external perimeters extrusion width = 0.45mm
; perimeters extrusion width = 0.45mm
; infill extrusion width = 0.45mm
; solid infill extrusion width = 0.45mm
; top infill extrusion width = 0.40mm
; support material extrusion width = 0.40mm
; first layer extrusion width = 0.70mm

M201 X500 Y500 Z100 E5000 ; sets maximum accelerations, mm/sec^2
M203 X500 Y500 Z10 E60 ; sets maximum feedrates, mm/sec
M204 P500 R1000 T500 ; sets acceleration (P, T) and retract acceleration (R), mm/sec^2
M205 X8.00 Y8.00 Z0.40 E5.00 ; sets the jerk limits, mm/sec
M205 S0 T0 ; sets the minimum extruding and travel feed rate, mm/sec
M107
;TYPE:Custom
G90 ; use absolute coordinates
M83 ; extruder relative mode
M140 S50 ; set final bed temp
M104 S150 ; set temporary nozzle temp to prevent oozing during homing and auto bed leveling
G4 S10 ; allow partial nozzle warmup
G28 ; home all axis
G29 ; auto bed levelling
G1 Z50 F240
G1 X2 Y10 F3000
M104 S205 ; set final nozzle temp
M190 S50 ; wait for bed temp to stabilize
M109 S205 ; wait for nozzle temp to stabilize
G1 Z0.28 F240
G92 E0
G1 Y140 E10 F1500 ; prime the nozzle
G1 X2.3 F5000
G92 E0
G1 Y10 E10 F1200 ; prime the nozzle
G92 E0
G21 ; set units to millimeters
G90 ; use absolute coordinates
M83 ; use relative distances for extrusion
; Filament gcode
M107
;LAYER_CHANGE
;Z:0.35
;HEIGHT:0.35
;BEFORE_LAYER_CHANGE
G92 E0
;0.35


G1 E-5 F3600
G1 Z.35 F7800
;AFTER_LAYER_CHANGE
;0.35
G1 X95.415 Y75.575
G1 E5 F2400
;TYPE:Skirt/Brim
;WIDTH:0.7
G1 F1800
G1 X96.932 Y74.046 E.18801
G1 X98.785 Y72.578 E.20641
G1 X100.56 Y71.479 E.18219
G1 X102.899 Y70.314 E.22809
G1 X104.873 Y69.671 E.18128
G1 X121.096 Y66.573 E1.44171
G1 X123.524 Y66.244 E.21388
G1 X125.245 Y66.244 E.15023
G1 X128.071 Y66.616 E.24884
G1 X130.684 Y67.546 E.24207
G1 X132.345 Y68.611 E.17226
G1 X133.975 Y69.861 E.1793
G1 X135.198 Y71.083 E.15091
G1 X136.451 Y72.714 E.17954
G1 X137.318 Y74.217 E.15149
G1 X138.104 Y76.117 E.17952
G1 X138.55 Y77.785 E.15073
G1 X138.872 Y80.513 E.23971
G1 X140.61 Y146.861 E5.79371
G1 X140.556 Y147.899 E.09074
G1 X140.03 Y151.889 E.3513
G1 X139.452 Y153.853 E.17875
G1 X138.485 Y155.898 E.19737
G1 X137.753 Y157.098 E.12277
G1 X136.126 Y159.219 E.23334
G1 X134.902 Y160.443 E.15111
G1 X132.954 Y161.937 E.21431
G1 X132.072 Y162.52 E.09226
G1 X131.147 Y162.991 E.0906
G1 X128.813 Y163.958 E.22052
G1 X127.144 Y164.406 E.15086
G1 X123.777 Y164.791 E.29584
G1 X116.306 Y164.775 E.65217
G1 X114.048 Y164.373 E.2002
G1 X111.987 Y163.161 E.20872
G1 X96.693 Y149.92 E1.76587
G1 X95.002 Y148.137 E.2145
G1 X93.551 Y146.153 E.21455
G1 X92.414 Y144.15 E.20105
G1 X91.448 Y141.67 E.23229
G1 X90.794 Y138.97 E.24252
G1 X90.616 Y137.604 E.12032
G1 X90.532 Y135.971 E.14273
G1 X90.457 Y89.094 E4.092
G1 X90.698 Y85.351 E.32739
G1 X91.053 Y83.622 E.15405
G1 X91.888 Y81.286 E.21657
G1 X92.892 Y79.146 E.20635
G1 X93.99 Y77.373 E.18205
G1 X95.377 Y75.622 E.19501
G1 E-3.5 F3600
;WIPE_START
G1 F6240
G1 X96.932 Y74.046 E-1.21314
G1 X97.235 Y73.806 E-.21186
;WIPE_END
G1 E-.075 F3600
G1 X125.91 Y73.014 F7800
G1 E5 F2400
;TYPE:Support material
G1 F1800
G1 X127.206 Y73.184 E.1141
G1 X128.076 Y73.769 E.09148
G1 X128.314 Y73.867 E.02245
G1 X129.943 Y75.117 E.1793
G1 X131.196 Y76.749 E.17954
G1 X131.982 Y78.649 E.17952
G1 X132.25 Y80.686 E.17933
G1 X131.982 Y82.723 E.17937
G1 X131.196 Y84.623 E.17943
G1 X129.944 Y86.253 E.17943
G1 X128.312 Y87.506 E.17957
G1 X128.077 Y87.603 E.02219
G1 X127.42 Y88.041 E.06894
G1 X108.903 Y88.041 E1.61646
G1 X108.455 Y88.489 E.05527
G1 X108.455 Y137.269 E4.25809
G1 X108.903 Y137.716 E.05527
G1 X123.799 Y137.725 E1.30036
G1 X126.278 Y138.052 E.21825
G1 X128.576 Y139.004 E.21712
G1 X128.893 Y139.187 E.03193
G1 X129.29 Y139.492 E.04371
G1 X129.444 Y139.544 E.01419
G1 X130.307 Y139.97 E.08398
G1 X133.055 Y143.555 E.39435
G1 X133.245 Y144.508 E.0848
G1 X133.254 Y144.655 E.0129
G1 X133.519 Y145.294 E.06035
G1 X133.609 Y145.981 E.06047
G1 X133.676 Y146.115 E.01309
G1 X133.988 Y147.035 E.08474
G1 X133.462 Y151.022 E.35107
G1 X133.147 Y151.495 E.04961
G1 X132.496 Y153.066 E.14847
G1 X130.869 Y155.187 E.23334
G1 X128.921 Y156.681 E.21431
G1 X128.612 Y156.871 E.03168
G1 X126.278 Y157.838 E.22051
G1 X123.791 Y158.166 E.21897
G1 X116.32 Y158.15 E.65217
G1 X101.51 Y145.344 E1.70906
G1 X100.748 Y144.625 E.0915
G1 X100.38 Y144.232 E.04697
G1 X99.698 Y143.402 E.09377
G1 X99.087 Y142.514 E.09406
G1 X98.672 Y141.82 E.07063
G1 X98.282 Y141.075 E.07337
G1 X97.902 Y140.077 E.09327
G1 X97.578 Y139.038 E.095
G1 X97.343 Y137.971 E.09533
G1 X97.261 Y137.431 E.04768
G1 X97.202 Y136.888 E.04769
G1 X97.155 Y135.826 E.09281
G1 X97.155 Y89.509 E4.04309
G1 X97.082 Y89.083 E.0377
G1 X97.307 Y85.81 E.28639
G1 X97.498 Y85.467 E.03428
G1 X97.637 Y84.929 E.04851
G1 X97.81 Y84.371 E.05102
G1 X98.009 Y83.821 E.05102
G1 X98.232 Y83.281 E.05101
G1 X98.481 Y82.752 E.05102
G1 X98.753 Y82.235 E.05102
G1 X99.049 Y81.732 E.05092
G1 X99.368 Y81.242 E.05109
G1 X99.709 Y80.768 E.05103
G1 X100.072 Y80.309 E.05102
G1 X100.456 Y79.869 E.05101
G1 X100.859 Y79.446 E.051
G1 X101.281 Y79.043 E.05092
G1 X101.723 Y78.659 E.05111
G1 X102.181 Y78.296 E.05104
G1 X102.655 Y77.955 E.05089
G1 X103.145 Y77.636 E.05111
G1 X103.649 Y77.339 E.05102
G1 X104.166 Y77.067 E.05101
G1 X104.942 Y76.703 E.07481
G1 X105.249 Y76.508 E.03174
G1 X105.851 Y76.351 E.05432
G1 X106.116 Y76.179 E.02762
G1 X107.48 Y75.956 E.12067
G1 X108.595 Y75.721 E.09944
G1 X108.969 Y75.76 E.03286
G1 X109.774 Y75.741 E.07023
G1 X118.332 Y75.741 E.74706
G1 X118.81 Y75.118 E.06857
G1 X120.44 Y73.867 E.17938
G1 X122.339 Y73.08 E.1794
G1 X124.381 Y72.813 E.1798
G1 X125.817 Y73.002 E.12644
G1 E-3.5 F3600
;WIPE_START
G1 F6240
G1 X124.381 Y72.813 E-.79386
G1 X123.239 Y72.962 E-.63114
;WIPE_END
G1 E-.075 F3600
G1 X122.232 Y150.027 F7800
G1 E5 F2400
G1 F1800
G1 X123.458 Y150.027 E.10701
G1 X124.16 Y149.934 E.06186
G1 X124.657 Y149.729 E.04691
G1 X125.082 Y149.402 E.04682
G1 X125.41 Y148.975 E.04703
G1 X125.616 Y148.478 E.04693
G1 X125.686 Y147.945 E.04695
G1 X125.616 Y147.412 E.04693
G1 X125.41 Y146.916 E.04689
G1 X125.083 Y146.489 E.04695
G1 X124.656 Y146.162 E.04696
G1 X124.159 Y145.956 E.04695
G1 X123.458 Y145.863 E.06177
G1 X122.232 Y145.863 E.10701
G1 X122.232 Y149.933 E.3553
G1 E-3.5 F3600
;WIPE_START
G1 F6240
G1 X122.232 Y147.333 E-1.425
;WIPE_END
G1 E-.075 F3600
G1 X124.339 Y77.21 F7800
G1 E5 F2400
G1 F1800
G1 X123.442 Y77.338 E.07914
G1 X122.672 Y77.657 E.07271
G1 X121.946 Y78.202 E.07924
G1 X121.349 Y78.981 E.08568
G1 X121.011 Y79.822 E.07916
G1 X120.902 Y80.648 E.07271
G1 X121.03 Y81.621 E.08567
G1 X121.349 Y82.391 E.0727
G1 X121.892 Y83.117 E.07914
G1 X122.673 Y83.715 E.08584
G1 X123.442 Y84.033 E.07268
G1 X124.339 Y84.161 E.0791
G1 X125.313 Y84.033 E.08574
G1 X126.147 Y83.677 E.07914
G1 X126.808 Y83.17 E.07271
G1 X127.406 Y82.39 E.0858
G1 X127.724 Y81.621 E.07268
G1 X127.852 Y80.724 E.0791
G1 X127.724 Y79.75 E.08574
G1 X127.368 Y78.916 E.07914
G1 X126.861 Y78.255 E.07271
G1 X126.082 Y77.657 E.08573
G1 X125.313 Y77.338 E.07264
G1 X124.433 Y77.212 E.07766
G1 E-3.5 F3600
;WIPE_START
G1 F6240
G1 X125.313 Y77.338 E-.48761
G1 X126.082 Y77.657 E-.45606
G1 X126.779 Y78.192 E-.48133
;WIPE_END
G1 E-.075 F3600
G1 X132.164 Y153.037 F7800
G1 E5 F2400
G1 F1800
G1 X132.164 Y143.316 E.84856
G1 X130.775 Y141.505 E.19925
G1 X130.775 Y154.386 E1.1244
G1 X130.468 Y154.786 E.04404
G1 X129.386 Y155.616 E.119
G1 X129.386 Y140.143 E1.35068
G1 X129.228 Y140.065 E.01539
G1 X129.021 Y139.994 E.01907
G1 X128.58 Y139.656 E.04858
G1 X128.327 Y139.51 E.0255
G1 X127.998 Y139.373 E.03109
G1 X127.998 Y156.517 E1.49646
G1 X126.609 Y157.092 E.13121
G1 X126.609 Y138.798 E1.59689
G1 X126.131 Y138.6 E.04517
G1 X125.22 Y138.48 E.08018
G1 X125.22 Y145.886 E.64644
G1 X124.94 Y145.67 E.03086
G1 X124.306 Y145.408 E.05986
G1 X123.832 Y145.345 E.04179
G1 X123.832 Y138.297 E.61524
G1 X122.443 Y138.288 E.12122
G1 X122.443 Y145.301 E.61217
G1 X121.67 Y145.301 E.06753
G1 X121.67 Y150.589 E.46167
G1 X122.443 Y150.589 E.06753
G1 X122.443 Y157.598 E.61182
G1 X121.055 Y157.593 E.12122
G1 X121.055 Y138.288 E1.68523
G1 X119.666 Y138.279 E.12122
G1 X119.666 Y157.588 E1.68556
G1 X118.277 Y157.588 E.12122
G1 X118.277 Y138.279 E1.68554
G1 X116.889 Y138.279 E.12122
G1 X116.889 Y157.588 E1.68552
G1 X116.529 Y157.587 E.03135
G1 X115.5 Y156.697 E.1188
G1 X115.5 Y138.279 E1.60781
G1 X114.111 Y138.279 E.12122
G1 X114.111 Y155.497 E1.503
G1 X112.723 Y154.296 E.16025
G1 X112.723 Y138.279 E1.39818
G1 X111.334 Y138.279 E.12122
G1 X111.334 Y153.095 E1.29336
G1 X109.945 Y151.894 E.16025
G1 X109.945 Y138.279 E1.18855
G1 X108.67 Y138.279 E.11136
G1 X108.557 Y138.166 E.01394
G1 X108.557 Y150.694 E1.09359
G1 X107.168 Y149.493 E.16025
G1 X107.168 Y76.577 E6.36501
G1 X107.584 Y76.509 E.03676
G1 X108.557 Y76.304 E.0868
G1 X108.557 Y87.592 E.98536
G1 X108.67 Y87.479 E.01394
G1 X109.945 Y87.479 E.11136
G1 X109.945 Y76.304 E.97551
G1 X111.334 Y76.304 E.12122
G1 X111.334 Y87.479 E.97551
G1 X112.723 Y87.479 E.12122
G1 X112.723 Y76.304 E.97551
G1 X114.111 Y76.304 E.12122
G1 X114.111 Y87.479 E.97551
G1 X115.5 Y87.479 E.12122
G1 X115.5 Y76.304 E.97551
G1 X116.889 Y76.304 E.12122
G1 X116.889 Y87.479 E.97551
G1 X118.277 Y87.479 E.12122
G1 X118.277 Y76.304 E.97551
G1 X118.609 Y76.304 E.02898
G1 X119.211 Y75.519 E.08631
G1 X119.666 Y75.17 E.05004
G1 X119.666 Y87.479 E1.07445
G1 X121.055 Y87.479 E.12122
G1 X121.055 Y82.947 E.39557
G1 X121.468 Y83.488 E.05943
G1 X121.574 Y83.594 E.01309
G1 X122.294 Y84.146 E.07919
G1 X122.443 Y84.229 E.01489
G1 X122.443 Y87.479 E.2837
G1 X123.832 Y87.479 E.12122
G1 X123.832 Y84.661 E.24594
G1 X124.302 Y84.723 E.04142
G1 X124.452 Y84.723 E.01304
G1 X125.221 Y84.622 E.0677
G1 X125.221 Y87.479 E.24937
G1 X126.609 Y87.479 E.12122
G1 X126.609 Y84.032 E.30092
G1 X127.179 Y83.594 E.06275
G1 X127.285 Y83.488 E.01303
G1 X127.837 Y82.769 E.07916
G1 X127.998 Y82.431 E.03267
G1 X127.998 Y87.027 E.40122
G1 X128.029 Y87.014 E.00295
G1 X129.386 Y85.972 E.1494
G1 X129.386 Y75.399 E.92293
G1 X127.998 Y74.345 E.15216
G1 X127.998 Y78.941 E.40116
G1 X127.837 Y78.603 E.03267
G1 X127.285 Y77.884 E.07915
G1 X127.179 Y77.778 E.01303
G1 X126.609 Y77.34 E.06274
G1 X126.609 Y73.673 E.32014
G1 X125.221 Y73.49 E.12226
G1 X125.221 Y76.749 E.28445
G1 X124.452 Y76.648 E.0677
G1 X124.302 Y76.648 E.01304
G1 X123.832 Y76.71 E.04141
G1 X123.832 Y73.452 E.28441
G1 X122.486 Y73.628 E.11851
G1 X122.443 Y73.646 E.00402
G1 X122.443 Y77.143 E.30531
G1 X122.294 Y77.226 E.01491
G1 X121.574 Y77.778 E.07916
G1 X121.468 Y77.884 E.01309
G1 X121.055 Y78.425 E.05943
G1 X121.055 Y73.917 E.39348
G1 E-3.5 F3600
;WIPE_START
G1 F6240
G1 X121.055 Y76.517 E-1.425
;WIPE_END
G1 E-.075 F3600
G1 X130.775 Y84.709 F7800
G1 E5 F2400
G1 F1800
G1 X130.775 Y76.662 E.7024
G1 E-3.5 F3600
;WIPE_START
G1 F6240
G1 X130.775 Y79.262 E-1.425
;WIPE_END
G1 E-.075 F3600
G1 X125.22 Y157.694 F7800
G1 E5 F2400
G1 F1800
G1 X125.22 Y150.005 E.67112
G1 X124.94 Y150.22 E.03081
G1 X124.307 Y150.482 E.05982
G1 X123.832 Y150.545 E.04185
G1 X123.832 Y157.877 E.64
G1 X105.779 Y148.664 F7800
G1 F1800
G1 X105.78 Y76.951 E6.25999
G1 X105.476 Y77.03 E.02741
G1 X105.213 Y77.197 E.02715
G1 X104.391 Y77.584 E.07934
G1 X104.391 Y147.091 E6.06746
G1 X103.002 Y145.891 E.16025
G1 X103.002 Y78.4 E5.89142
G1 X102.52 Y78.745 E.05173
G1 X102.082 Y79.092 E.04876
G1 X101.614 Y79.504 E.05448
G1 X101.614 Y144.68 E5.68938
G1 X101.15 Y144.232 E.05623
G1 X100.799 Y143.857 E.04488
G1 X100.225 Y143.162 E.0787
G1 X100.225 Y81.023 E5.42426
G1 X99.832 Y81.56 E.05811
G1 X99.527 Y82.029 E.04882
G1 X99.244 Y82.509 E.04866
G1 X98.836 Y83.318 E.07909
G1 X98.836 Y141.514 E5.08009
G1 E-3.5 F3600
;WIPE_START
G1 F6240
G1 X98.836 Y138.914 E-1.425
;WIPE_END
G1 E-.075 F3600
G1 X125.383 Y79.901 F7800
G1 E5 F2400
;TYPE:Perimeter
G1 F1800
G1 X125.491 Y80.042 E.01551
G1 X125.619 Y80.352 E.02928
G1 X125.663 Y80.686 E.02938
G1 X125.619 Y81.019 E.02934
G1 X125.491 Y81.33 E.02937
G1 X125.287 Y81.596 E.02925
G1 X125.021 Y81.8 E.02929
G1 X124.711 Y81.928 E.02928
G1 X124.377 Y81.972 E.02938
G1 X124.044 Y81.928 E.02934
G1 X123.733 Y81.8 E.02937
G1 X123.468 Y81.597 E.02918
G1 X123.264 Y81.33 E.02929
G1 X123.134 Y81.018 E.02948
G1 X123.091 Y80.686 E.02925
G1 X123.134 Y80.353 E.02929
G1 X123.264 Y80.042 E.02939
G1 X123.468 Y79.775 E.02932
G1 X123.734 Y79.571 E.02927
G1 X124.037 Y79.446 E.02863
G1 X124.401 Y79.402 E.03205
G1 X124.71 Y79.442 E.02717
G1 X125.02 Y79.571 E.02931
G1 X125.287 Y79.776 E.02938
G1 X125.347 Y79.854 E.00854
G1 X125.345 Y79.033 F7800
G1 F1800
G1 X125.733 Y79.33 E.04265
G1 X126.037 Y79.727 E.04368
G1 X126.228 Y80.189 E.04363
G1 X126.294 Y80.686 E.04373
G1 X126.228 Y81.182 E.04367
G1 X126.037 Y81.645 E.04372
G1 X125.733 Y82.042 E.04365
G1 X125.336 Y82.346 E.04368
G1 X124.874 Y82.537 E.04363
G1 X124.377 Y82.603 E.04373
G1 X123.881 Y82.537 E.04367
G1 X123.418 Y82.346 E.04372
G1 X123.022 Y82.042 E.04361
G1 X122.718 Y81.645 E.04365
G1 X122.526 Y81.181 E.0438
G1 X122.46 Y80.686 E.04362
G1 X122.526 Y80.19 E.04368
G1 X122.718 Y79.727 E.04371
G1 X123.022 Y79.33 E.04368
G1 X123.419 Y79.026 E.04366
G1 X123.877 Y78.836 E.04328
G1 X124.405 Y78.772 E.04642
G1 X124.873 Y78.834 E.04126
G1 X125.291 Y79.007 E.03951
G1 X125.217 Y78.3 F7800
;TYPE:External perimeter
G1 F1800
G1 X125.65 Y78.48 E.041
G1 X126.178 Y78.885 E.05808
G1 X126.583 Y79.412 E.05806
G1 X126.837 Y80.026 E.05799
G1 X126.924 Y80.686 E.05808
G1 X126.837 Y81.345 E.05801
G1 X126.583 Y81.96 E.05807
G1 X126.178 Y82.487 E.05805
G1 X125.651 Y82.892 E.05806
G1 X125.037 Y83.146 E.05799
G1 X124.377 Y83.233 E.05808
G1 X123.718 Y83.146 E.05801
G1 X123.103 Y82.892 E.05807
G1 X122.576 Y82.487 E.05804
G1 X122.172 Y81.96 E.05802
G1 X121.917 Y81.345 E.05812
G1 X121.83 Y80.686 E.05799
G1 X121.917 Y80.026 E.05807
G1 X122.172 Y79.412 E.05804
G1 X122.576 Y78.885 E.05803
G1 X123.103 Y78.48 E.05806
G1 X123.717 Y78.226 E.05793
G1 X124.408 Y78.142 E.06079
G1 X125.037 Y78.225 E.05534
G1 X125.161 Y78.277 E.01178
G1 X125.295 Y78.692 F7800
G1 E-3.5 F3600
;WIPE_START
G1 F6240
G1 X125.65 Y78.48 E-.29031
G1 X126.178 Y78.885 E-.36467
G1 X126.583 Y79.412 E-.36455
G1 X126.837 Y80.026 E-.36408
G1 X126.847 Y80.101 E-.0414
;WIPE_END
G1 E-.075 F3600
G1 X125.471 Y80.713 F7800
G1 E5 F2400
;TYPE:Solid infill
;WIDTH:0.824978
G1 F1800
G1 X124.706 Y79.948 E.11324
G1 X124.587 Y79.899 E.0135
G1 X124.399 Y79.874 E.01993
G1 X124.157 Y79.903 E.02552
G1 X123.97 Y79.981 E.02117
G1 X123.805 Y80.107 E.0218
G1 X124.956 Y81.258 E.17046
G1 X124.785 Y81.391 E.02266
G1 X124.589 Y81.472 E.02222
G1 X124.377 Y81.5 E.02233
G1 X124.166 Y81.472 E.0223
G1 X124.068 Y81.431 E.01108
G1 X123.285 Y80.648 E.11608
M106 S255
;LAYER_CHANGE
;Z:0.65
;HEIGHT:0.3
;BEFORE_LAYER_CHANGE
G92 E0
;0.65


G1 E-3.5 F3600
;WIPE_START
G1 F6240
G1 X124.068 Y81.431 E-.60738
G1 X124.166 Y81.472 E-.05796
G1 X124.377 Y81.5 E-.1167
G1 X124.589 Y81.472 E-.11685
G1 X124.785 Y81.391 E-.11625
G1 X124.956 Y81.258 E-.11858
G1 X124.58 Y80.882 E-.29129
;WIPE_END
G1 E-.075 F3600
G1 Z.65 F7800
;AFTER_LAYER_CHANGE
;0.65
M104 S200 ; set temperature
G1 X124.42 Y77.362
G1 E5 F2400
;TYPE:Support material
;WIDTH:0.4
G1 F2997
G1 X125.265 Y77.481 E.0343
G1 X126.016 Y77.792 E.03265
G1 X126.748 Y78.354 E.03711
G1 X127.243 Y78.999 E.03268
G1 X127.581 Y79.798 E.03486
G1 X127.702 Y80.714 E.03712
G1 X127.581 Y81.573 E.03484
G1 X127.271 Y82.324 E.03268
G1 X126.709 Y83.057 E.03713
G1 X126.063 Y83.552 E.03268
G1 X125.265 Y83.89 E.03486
G1 X124.349 Y84.011 E.03712
G1 X123.49 Y83.89 E.03484
G1 X122.739 Y83.58 E.03267
G1 X122.006 Y83.018 E.03715
G1 X121.512 Y82.372 E.03265
G1 X121.099 Y81.484 E.03936
G1 X121.092 Y81.015 E.01883
G1 X121.052 Y80.658 E.01444
G1 X121.158 Y79.852 E.03268
G1 X121.484 Y79.048 E.03487
G1 X122.045 Y78.315 E.03709
G1 X122.69 Y77.82 E.03268
G1 X123.49 Y77.481 E.0349
G1 X124.37 Y77.36 E.03568
G1 X125.489 Y75.833 F7800
G1 F2997
G1 X124.38 Y75.687 E.04495
G1 X123.083 Y75.857 E.05255
G1 X121.878 Y76.357 E.05244
G1 X120.843 Y77.151 E.05243
G1 X120.086 Y78.137 E.04996
G1 X119.166 Y78.591 E.04124
G1 X108.745 Y78.602 E.41876
