; generated by PrusaSlicer 2.4.2 on 2022-08-29 at 13:41:34 UTC

; 

; external perimeters extrusion width = 0.45mm
; perimeters extrusion width = 0.45mm
; infill extrusion width = 0.45mm
; solid infill extrusion width = 0.45mm
; top infill extrusion width = 0.45mm
; support material extrusion width = 0.38mm
; first layer extrusion width = 0.42mm

M107
;TYPE:Custom
G90 ; use absolute coordinates
M83 ; extruder relative mode
M140 S70 ; set final bed temp
M104 S150 ; set temporary nozzle temp to prevent oozing during homing and auto bed leveling
G4 S10 ; allow partial nozzle warmup
G28 ; home all axis
G29 ; auto bed levelling
G1 Z30 F240
G1 X2 Y10 F3000
M104 S230 ; set final nozzle temp
M190 S70 ; wait for bed temp to stabilize
M109 S230 ; wait for nozzle temp to stabilize
G1 Z0.28 F240
G92 E0
G1 Y100 E11 F1500 ; prime the nozzle
G1 X2.3 F5000
G92 E0
G1 Y10 E11 F1000 ; prime the nozzle
G92 E0
G21 ; set units to millimeters
G90 ; use absolute coordinates
M83 ; use relative distances for extrusion
; Filament gcode
M107
;LAYER_CHANGE
;Z:0.2
;HEIGHT:0.2
;BEFORE_LAYER_CHANGE
G92 E0
;0.2


G1 E-4 F2700
G1 Z.2 F9000
;AFTER_LAYER_CHANGE
;0.2
G1 X100.798 Y101.387
G1 E4 F2400
M204 S500
;TYPE:Skirt/Brim
;WIDTH:0.42
G1 F900
G1 X102.12 Y100.14 E.05698
G1 X103.553 Y99.023 E.05698
G1 X104.811 Y98.207 E.04701
G1 X106.703 Y97.218 E.06695
G1 X108.392 Y96.546 E.05698
G1 X109.827 Y96.113 E.04701
G1 X111.606 Y95.739 E.05699
G1 X113.412 Y95.535 E.05698
G1 X115.547 Y95.514 E.06696
G1 X117.357 Y95.682 E.05698
G1 X118.832 Y95.949 E.04701
G1 X123.317 Y96.963 E.14415
G1 X124.805 Y97.453 E.04913
G1 X125.978 Y98.101 E.04202
G1 X127.001 Y98.925 E.04119
G1 X127.527 Y99.481 E.02399
G1 X131.591 Y104.108 E.19309
G1 X132.645 Y105.608 E.0575
G1 X133.55 Y107.203 E.0575
G1 X134.414 Y109.181 E.06764
G1 X134.883 Y110.616 E.04735
G1 X135.291 Y112.373 E.05656
G1 X135.54 Y114.22 E.05845
G1 X135.6 Y116.377 E.06764
G1 X135.46 Y118.206 E.0575
G1 X135.145 Y120.012 E.0575
G1 X132.558 Y128.786 E.28679
G1 X131.691 Y130.478 E.05962
G1 X131.209 Y131.125 E.0253
G1 X130.267 Y132.089 E.04226
G1 X128.694 Y133.158 E.05962
G1 X127.421 Y133.689 E.04325
G1 X126.413 Y133.948 E.03263
G1 X119.903 Y135.176 E.20772
G1 X118.495 Y135.383 E.04464
G1 X116.767 Y135.493 E.05429
G1 X107.453 Y135.745 E.29212
G1 X100.951 Y135.746 E.20388
G1 X99.367 Y135.352 E.05115
G1 X98.154 Y134.262 E.05115
G1 X97.602 Y132.808 E.04877
G1 X95.485 Y116.634 E.51146
G1 X95.397 Y114.523 E.06625
G1 X95.474 Y113.025 E.04701
G1 X95.724 Y111.225 E.05698
G1 X96.142 Y109.456 E.05698
G1 X96.843 Y107.439 E.06695
G1 X97.467 Y106.076 E.04701
G1 X98.362 Y104.494 E.05698
G1 X99.599 Y102.753 E.06696
G1 X100.758 Y101.433 E.0551
; printing object Blackfoot_motor_mount.stl id:0 copy 0
G1 E-2.8 F2700
;WIPE_START
G1 F7200
G1 X102.12 Y100.14 E-.66874
G1 X103.163 Y99.327 E-.47126
;WIPE_END
G1 E-.06 F2700
G1 X123.216 Y102.315 F9000
G1 E4 F2400
;TYPE:Support material
G1 F900
G1 X124.316 Y104.694 E.08218
G1 X122.806 Y106.836 E.08218
G1 X120.195 Y106.6 E.08219
G1 X119.095 Y104.22 E.08218
G1 X120.606 Y102.078 E.08218
G1 X123.16 Y102.31 E.08041
G1 X123.042 Y106.208 F9000
G1 F900
G1 X123.042 Y102.746 E.10853
G1 X122.99 Y102.635 E.00383
G1 X122.099 Y102.554 E.02807
G1 X122.099 Y106.431 E.12156
G1 X121.156 Y106.346 E.02968
G1 X121.156 Y102.469 E.12156
G1 X120.77 Y102.434 E.01215
G1 X120.213 Y103.223 E.03029
G1 X120.213 Y106.234 E.09441
G1 E-2.8 F2700
;WIPE_START
G1 F7200
G1 X120.213 Y103.223 E-1.07269
G1 X120.322 Y103.069 E-.06731
;WIPE_END
G1 E-.06 F2700
G1 X113.81 Y125.257 F9000
G1 E4 F2400
G1 F900
G1 X113.695 Y125.25 E.00361
G1 X112.771 Y125.063 E.02956
G1 X111.884 Y124.745 E.02955
G1 X110.821 Y124.178 E.03779
G1 X110.401 Y124.352 E.01423
G1 X109.562 Y127.125 E.09083
G1 X107.009 Y127.721 E.08219
G1 X105.217 Y125.809 E.08218
G1 X105.976 Y123.3 E.08218
G1 X108.769 Y122.648 E.08991
G1 X108.966 Y122.225 E.01461
G1 X108.447 Y121.145 E.03759
G1 X108.171 Y120.243 E.02956
G1 X108.027 Y119.312 E.02956
G1 X108.018 Y118.369 E.02957
G1 X108.146 Y117.435 E.02957
G1 X108.217 Y117.19 E.00798
G1 X113.81 Y117.19 E.17537
G1 X113.81 Y125.2 E.25115
G1 X112.672 Y124.847 F9000
G1 F900
G1 X112.672 Y117.529 E.22944
G1 X111.729 Y117.529 E.02956
G1 X111.729 Y124.277 E.21158
G1 X110.838 Y123.803 E.03164
G1 X110.787 Y123.825 E.00176
G1 X110.787 Y117.529 E.19738
G1 X109.844 Y117.529 E.02956
G1 X109.844 Y125.022 E.23494
G1 X109.294 Y126.839 E.0595
G1 X108.901 Y126.93 E.01264
G1 X108.901 Y122.965 E.12433
G1 X107.958 Y123.185 E.03035
G1 X107.958 Y127.151 E.12433
G1 X107.123 Y127.346 E.0269
G1 X107.016 Y127.232 E.00491
G1 X107.016 Y123.406 E.11996
G1 X106.244 Y123.586 E.02483
G1 X106.073 Y124.152 E.01854
G1 X106.073 Y126.474 E.07281
G1 E-2.8 F2700
;WIPE_START
G1 F7200
G1 X106.073 Y124.152 E-.82729
G1 X106.244 Y123.586 E-.21067
G1 X106.523 Y123.521 E-.10203
;WIPE_END
G1 E-.06 F2700
G1 X108.901 Y121.705 F9000
G1 E4 F2400
G1 F900
G1 X108.901 Y117.36 E.13625
G1 E-2.8 F2700
;WIPE_START
G1 F7200
G1 X108.901 Y120.56 E-1.14
;WIPE_END
G1 E-.06 F2700
G1 X102.584 Y125.818 F9000
G1 E4 F2400
G1 F900
G1 X102.702 Y126.507 E.02191
G1 X102.963 Y127.275 E.02545
G1 X103.361 Y128.027 E.02667
G1 X103.876 Y128.704 E.02667
G1 X104.493 Y129.289 E.02667
G1 X105.198 Y129.766 E.02667
G1 X106.007 Y130.136 E.02789
G1 X106.828 Y130.357 E.02667
G1 X107.635 Y130.441 E.02545
G1 X107.955 Y130.425 E.01003
G1 X107.362 Y132.369 E.06374
G1 X100.951 Y132.369 E.20103
G1 X100.951 Y126.182 E.194
G1 X102.459 Y125.671 E.04994
G1 X102.547 Y125.775 E.00429
G1 E-2.8 F2700
;WIPE_START
G1 F7200
G1 X102.459 Y125.671 E-.04869
G1 X100.951 Y126.182 E-.56739
G1 X100.951 Y127.653 E-.52391
;WIPE_END
G1 E-.06 F2700
G1 X107.016 Y132.2 F9000
G1 E4 F2400
G1 F900
G1 X107.016 Y130.718 E.04647
G1 X106.714 Y130.681 E.00954
G1 X106.073 Y130.506 E.02082
G1 X106.073 Y132.03 E.04778
G1 X105.13 Y132.03 E.02956
G1 X105.13 Y130.112 E.06013
G1 X105.02 Y130.056 E.00389
G1 X104.323 Y129.588 E.02632
G1 X104.188 Y129.468 E.00568
G1 X104.188 Y132.03 E.08034
G1 X103.245 Y132.03 E.02956
G1 X103.245 Y128.439 E.1126
G1 X103.068 Y128.199 E.00933
G1 X102.646 Y127.398 E.0284
G1 X102.376 Y126.603 E.02631
G1 X102.302 Y126.193 E.01308
G1 X102.302 Y132.03 E.18302
G1 X101.36 Y132.03 E.02956
G1 X101.36 Y126.223 E.18209
G1 E-2.8 F2700
;WIPE_START
G1 F7200
G1 X101.36 Y129.423 E-1.14
;WIPE_END
G1 E-.06 F2700
G1 X119.67 Y107.345 F9000
G1 E4 F2400
;TYPE:External perimeter
G1 F900
G1 X118.187 Y104.138 E.11079
G1 X120.223 Y101.25 E.11079
G1 X123.742 Y101.569 E.11079
G1 X125.225 Y104.777 E.11079
G1 X123.189 Y107.664 E.11079
G1 X119.729 Y107.35 E.10891
G1 X119.307 Y107.513 F9000
G1 E-2.8 F2700
;WIPE_START
G1 F7200
G1 X118.344 Y104.466 E-1.14
;WIPE_END
G1 E-.06 F2700
G1 X110.483 Y128.108 F9000
G1 E4 F2400
;TYPE:Perimeter
G1 F900
G1 X106.619 Y129.011 E.12444
G1 X103.904 Y126.115 E.12444
G1 X105.055 Y122.317 E.12444
G1 X107.447 Y121.758 E.07701
G1 X107.361 Y121.577 E.00629
G1 X107.033 Y120.515 E.03484
G1 X106.862 Y119.416 E.03487
G1 X106.851 Y118.304 E.03485
G1 X107 Y117.203 E.03486
G1 X107.316 Y116.11 E.03565
G1 X107.763 Y115.124 E.03397
G1 X108.361 Y114.188 E.03483
G1 X109.089 Y113.347 E.03486
G1 X109.952 Y112.603 E.03573
G1 X110.892 Y112.008 E.03486
G1 X111.906 Y111.555 E.03484
G1 X112.975 Y111.253 E.03483
G1 X114.05 Y111.111 E.03397
G1 X115.188 Y111.124 E.03571
G1 X116.286 Y111.3 E.03487
G1 X117.347 Y111.633 E.03485
G1 X118.348 Y112.114 E.03484
G1 X119.27 Y112.735 E.03485
G1 X120.093 Y113.483 E.03485
G1 X120.799 Y114.341 E.03485
G1 X121.374 Y115.292 E.03485
G1 X121.806 Y116.316 E.03484
G1 X122.085 Y117.39 E.0348
G1 X122.205 Y118.469 E.03406
G1 X122.169 Y119.604 E.03559
G1 X121.971 Y120.699 E.03489
G1 X121.617 Y121.753 E.03486
G1 X121.114 Y122.745 E.03486
G1 X120.475 Y123.654 E.03485
G1 X119.73 Y124.441 E.03397
G1 X118.838 Y125.149 E.03571
G1 X117.874 Y125.705 E.03489
G1 X116.841 Y126.116 E.03485
G1 X115.787 Y126.367 E.03397
G1 X114.653 Y126.472 E.03572
G1 X113.542 Y126.41 E.03489
G1 X112.453 Y126.189 E.03486
G1 X111.406 Y125.813 E.03486
G1 X111.21 Y125.708 E.00697
G1 X110.501 Y128.05 E.07674
G1 X110.186 Y127.79 F9000
;TYPE:External perimeter
G1 F900
G1 X106.745 Y128.594 E.11079
G1 X104.328 Y126.016 E.11079
G1 X105.353 Y122.634 E.11079
G1 X107.988 Y122.019 E.08485
G1 X107.713 Y121.439 E.0201
G1 X107.401 Y120.43 E.03314
G1 X107.238 Y119.385 E.03316
G1 X107.228 Y118.328 E.03314
G1 X107.37 Y117.281 E.03313
G1 X107.671 Y116.241 E.03393
G1 X108.096 Y115.304 E.03227
G1 X108.664 Y114.414 E.03313
G1 X109.356 Y113.614 E.03314
G1 X110.177 Y112.907 E.03399
G1 X111.07 Y112.341 E.03314
G1 X112.035 Y111.911 E.03313
G1 X113.052 Y111.624 E.03313
G1 X114.072 Y111.488 E.03227
G1 X115.156 Y111.501 E.03399
G1 X116.2 Y111.668 E.03314
G1 X117.208 Y111.984 E.03313
G1 X118.16 Y112.442 E.03313
G1 X119.037 Y113.033 E.03313
G1 X119.819 Y113.743 E.03313
G1 X120.49 Y114.559 E.03313
G1 X121.037 Y115.463 E.03313
G1 X121.448 Y116.437 E.03313
G1 X121.714 Y117.458 E.03309
G1 X121.828 Y118.484 E.03236
G1 X121.793 Y119.564 E.03388
G1 X121.605 Y120.605 E.03316
G1 X121.268 Y121.607 E.03314
G1 X120.79 Y122.55 E.03314
G1 X120.182 Y123.414 E.03314
G1 X119.475 Y124.162 E.03228
G1 X118.625 Y124.836 E.034
G1 X117.709 Y125.365 E.03315
G1 X116.727 Y125.755 E.03314
G1 X115.726 Y125.994 E.03227
G1 X114.646 Y126.094 E.034
G1 X113.591 Y126.035 E.03315
G1 X112.555 Y125.825 E.03314
G1 X111.56 Y125.467 E.03315
G1 X110.982 Y125.159 E.02051
G1 X110.203 Y127.733 E.08431
G1 X110.176 Y128.19 F9000
G1 E-2.8 F2700
;WIPE_START
G1 F7200
G1 X107.098 Y128.506 E-1.14
;WIPE_END
G1 E-.06 F2700
G1 X122.371 Y125.954 F9000
G1 E4 F2400
;TYPE:Perimeter
G1 F900
G1 X122.497 Y125.158 E.02528
G1 X122.863 Y124.439 E.02528
G1 X123.434 Y123.869 E.02528
G1 X124.152 Y123.503 E.02528
G1 X124.949 Y123.377 E.02528
G1 X125.745 Y123.503 E.02528
G1 X126.464 Y123.869 E.02528
G1 X127.034 Y124.439 E.02528
G1 X127.4 Y125.158 E.02528
G1 X127.526 Y125.954 E.02528
G1 X127.4 Y126.751 E.02528
G1 X127.034 Y127.469 E.02528
G1 X126.464 Y128.039 E.02528
G1 X125.745 Y128.406 E.02528
G1 X124.949 Y128.532 E.02528
G1 X124.152 Y128.406 E.02528
G1 X123.434 Y128.039 E.02528
G1 X122.863 Y127.469 E.02528
G1 X122.497 Y126.751 E.02528
G1 X122.38 Y126.014 E.0234
G1 X122.753 Y125.954 F9000
G1 F900
G1 X122.86 Y125.276 E.02154
G1 X123.172 Y124.664 E.02154
G1 X123.658 Y124.178 E.02154
G1 X124.27 Y123.866 E.02154
G1 X124.949 Y123.759 E.02154
G1 X125.627 Y123.866 E.02154
G1 X126.239 Y124.178 E.02154
G1 X126.725 Y124.664 E.02154
G1 X127.037 Y125.276 E.02154
G1 X127.144 Y125.954 E.02154
G1 X127.037 Y126.633 E.02154
G1 X126.725 Y127.245 E.02154
G1 X126.239 Y127.731 E.02154
G1 X125.627 Y128.042 E.02154
G1 X124.949 Y128.15 E.02154
G1 X124.27 Y128.042 E.02154
G1 X123.658 Y127.731 E.02154
G1 X123.172 Y127.245 E.02154
G1 X122.86 Y126.633 E.02154
G1 X122.762 Y126.014 E.01966
G1 X123.135 Y125.954 F9000
;TYPE:External perimeter
G1 F900
G1 X123.223 Y125.394 E.01779
G1 X123.481 Y124.888 E.01779
G1 X123.882 Y124.487 E.01779
G1 X124.388 Y124.229 E.01779
G1 X124.949 Y124.14 E.01779
G1 X125.509 Y124.229 E.01779
G1 X126.015 Y124.487 E.01779
G1 X126.416 Y124.888 E.01779
G1 X126.674 Y125.394 E.01779
G1 X126.762 Y125.954 E.01779
G1 X126.674 Y126.515 E.01779
G1 X126.416 Y127.02 E.01779
G1 X126.015 Y127.422 E.01779
G1 X125.509 Y127.679 E.01779
G1 X124.949 Y127.768 E.01779
G1 X124.388 Y127.679 E.01779
G1 X123.882 Y127.422 E.01779
G1 X123.481 Y127.02 E.01779
G1 X123.223 Y126.515 E.01779
G1 X123.144 Y126.014 E.01591
G1 X122.788 Y125.754 F9000
G1 E-2.8 F2700
;WIPE_START
G1 F7200
G1 X123.223 Y125.394 E-.2226
G1 X123.481 Y124.888 E-.20217
G1 X123.882 Y124.487 E-.20217
G1 X124.388 Y124.229 E-.20217
G1 X124.949 Y124.14 E-.20217
G1 X125.25 Y124.188 E-.10871
;WIPE_END
G1 E-.06 F2700
G1 X106.392 Y113.365 F9000
G1 E4 F2400
;TYPE:Perimeter
G1 F900
G1 X105.822 Y113.935 E.02528
G1 X105.104 Y114.301 E.02528
G1 X104.307 Y114.427 E.02528
G1 X103.511 Y114.301 E.02528
G1 X102.792 Y113.935 E.02528
G1 X102.222 Y113.365 E.02528
G1 X101.856 Y112.646 E.02528
G1 X101.73 Y111.85 E.02528
G1 X101.856 Y111.053 E.02528
G1 X102.222 Y110.335 E.02528
G1 X102.792 Y109.765 E.02528
G1 X103.511 Y109.399 E.02528
G1 X104.307 Y109.273 E.02528
G1 X105.104 Y109.399 E.02528
G1 X105.822 Y109.765 E.02528
G1 X106.392 Y110.335 E.02528
G1 X106.758 Y111.053 E.02528
G1 X106.885 Y111.85 E.02528
G1 X106.758 Y112.646 E.02528
G1 X106.42 Y113.311 E.0234
G1 X106.083 Y113.141 F9000
G1 F900
G1 X105.598 Y113.626 E.02154
G1 X104.986 Y113.938 E.02154
G1 X104.307 Y114.046 E.02154
G1 X103.629 Y113.938 E.02154
G1 X103.017 Y113.626 E.02154
G1 X102.531 Y113.141 E.02154
G1 X102.219 Y112.528 E.02154
G1 X102.111 Y111.85 E.02154
G1 X102.219 Y111.171 E.02154
G1 X102.531 Y110.559 E.02154
G1 X103.017 Y110.074 E.02154
G1 X103.629 Y109.762 E.02154
G1 X104.307 Y109.654 E.02154
G1 X104.986 Y109.762 E.02154
G1 X105.598 Y110.074 E.02154
G1 X106.083 Y110.559 E.02154
G1 X106.395 Y111.171 E.02154
G1 X106.503 Y111.85 E.02154
G1 X106.395 Y112.528 E.02154
G1 X106.111 Y113.087 E.01966
G1 X105.775 Y112.916 F9000
;TYPE:External perimeter
G1 F900
G1 X105.373 Y113.317 E.01779
G1 X104.868 Y113.575 E.01779
G1 X104.307 Y113.664 E.01779
G1 X103.747 Y113.575 E.01779
G1 X103.241 Y113.317 E.01779
G1 X102.84 Y112.916 E.01779
G1 X102.582 Y112.41 E.01779
G1 X102.493 Y111.85 E.01779
G1 X102.582 Y111.289 E.01779
G1 X102.84 Y110.784 E.01779
G1 X103.241 Y110.382 E.01779
G1 X103.747 Y110.125 E.01779
G1 X104.307 Y110.036 E.01779
G1 X104.868 Y110.125 E.01779
G1 X105.373 Y110.382 E.01779
G1 X105.775 Y110.784 E.01779
G1 X106.032 Y111.289 E.01779
G1 X106.121 Y111.85 E.01779
G1 X106.032 Y112.41 E.01779
G1 X105.802 Y112.863 E.01591
G1 X105.937 Y113.282 F9000
G1 E-2.8 F2700
;WIPE_START
G1 F7200
G1 X105.373 Y113.317 E-.2226
G1 X104.868 Y113.575 E-.20217
G1 X104.307 Y113.664 E-.20217
G1 X103.747 Y113.575 E-.20217
G1 X103.241 Y113.317 E-.20217
G1 X103.025 Y113.102 E-.10871
;WIPE_END
G1 E-.06 F2700
G1 X119.168 Y108.057 F9000
G1 E4 F2400
;TYPE:Perimeter
G1 F900
G1 X123.554 Y108.455 E.13809
G1 X126.092 Y104.855 E.13809
G1 X126.007 Y104.671 E.00638
G1 X126.248 Y104.866 E.00973
G1 X127.254 Y105.851 E.04415
G1 X128.161 Y106.928 E.04415
G1 X128.96 Y108.088 E.04415
G1 X129.645 Y109.318 E.04415
G1 X130.208 Y110.608 E.04415
G1 X130.645 Y111.947 E.04415
G1 X130.947 Y113.297 E.04338
G1 X131.126 Y114.719 E.04494
G1 X131.166 Y116.126 E.04413
G1 X131.07 Y117.531 E.04415
G1 X130.84 Y118.92 E.04415
G1 X130.478 Y120.281 E.04415
G1 X129.987 Y121.601 E.04415
G1 X129.372 Y122.867 E.04415
G1 X128.398 Y124.465 E.05867
G1 X128.609 Y125.559 E.03494
G1 X128.624 Y126.172 E.01923
G1 X128.537 Y126.779 E.01923
G1 X128.35 Y127.364 E.01923
G1 X128.069 Y127.909 E.01923
G1 X127.701 Y128.4 E.01923
G1 X127.257 Y128.823 E.01923
G1 X126.749 Y129.166 E.01923
G1 X126.19 Y129.421 E.01923
G1 X125.598 Y129.579 E.01923
G1 X124.987 Y129.636 E.01923
G1 X124.375 Y129.591 E.01924
G1 X123.339 Y129.338 E.03345
G1 X121.751 Y130.048 E.05454
G1 X120.496 Y130.477 E.04158
G1 X119.207 Y130.789 E.04158
G1 X117.895 Y130.982 E.04158
G1 X116.57 Y131.056 E.04158
G1 X115.245 Y131.008 E.04158
G1 X113.93 Y130.839 E.04158
G1 X112.635 Y130.551 E.04158
G1 X111.372 Y130.146 E.04158
G1 X110.151 Y129.628 E.04158
G1 X108.782 Y128.892 E.04874
G1 X110.781 Y128.425 E.06438
G1 X111.447 Y126.228 E.072
G1 X112.351 Y126.553 E.03013
G1 X113.494 Y126.785 E.03657
G1 X114.66 Y126.85 E.03662
G1 X115.849 Y126.74 E.03743
G1 X116.955 Y126.476 E.03566
G1 X118.039 Y126.045 E.03656
G1 X119.051 Y125.462 E.03662
G1 X119.986 Y124.719 E.03743
G1 X120.767 Y123.893 E.03566
G1 X121.439 Y122.939 E.03656
G1 X121.965 Y121.899 E.03657
G1 X122.337 Y120.793 E.03657
G1 X122.545 Y119.644 E.03662
G1 X122.583 Y118.455 E.03731
G1 X122.457 Y117.321 E.03576
G1 X122.164 Y116.194 E.03651
G1 X121.711 Y115.12 E.03656
G1 X121.107 Y114.122 E.03656
G1 X120.366 Y113.222 E.03656
G1 X119.503 Y112.438 E.03656
G1 X118.536 Y111.786 E.03656
G1 X117.486 Y111.281 E.03656
G1 X116.373 Y110.932 E.03656
G1 X115.221 Y110.748 E.03659
G1 X114.027 Y110.733 E.03743
G1 X112.899 Y110.883 E.03567
G1 X111.778 Y111.2 E.03653
G1 X110.713 Y111.675 E.03656
G1 X109.727 Y112.299 E.03659
G1 X108.822 Y113.079 E.03746
