; generated by PrusaSlicer 2.4.2 on 2022-08-27 at 09:40:11 UTC

; 

; external perimeters extrusion width = 0.45mm
; perimeters extrusion width = 0.45mm
; infill extrusion width = 0.45mm
; solid infill extrusion width = 0.45mm
; top infill extrusion width = 0.45mm
; first layer extrusion width = 0.42mm

; external perimeters extrusion width = 0.45mm
; perimeters extrusion width = 0.45mm
; infill extrusion width = 0.45mm
; solid infill extrusion width = 0.45mm
; top infill extrusion width = 0.45mm
; first layer extrusion width = 0.42mm

M107
;TYPE:Custom
G90 ; use absolute coordinates
M83 ; extruder relative mode
M140 S50 ; set final bed temp
M104 S150 ; set temporary nozzle temp to prevent oozing during homing and auto bed leveling
G4 S10 ; allow partial nozzle warmup
G28 ; home all axis
G29 ; auto bed levelling
G1 Z30 F240
G1 X2 Y10 F3000
M104 S210 ; set final nozzle temp
M190 S50 ; wait for bed temp to stabilize
M109 S210 ; wait for nozzle temp to stabilize
G1 Z0.28 F240
G92 E0
G1 Y100 E11 F1500 ; prime the nozzle
G1 X2.3 F5000
G92 E0
G1 Y10 E11 F1000 ; prime the nozzle
G92 E0
G21 ; set units to millimeters
G90 ; use absolute coordinates
M83 ; use relative distances for extrusion
; Filament gcode
M107
;LAYER_CHANGE
;Z:0.2
;HEIGHT:0.2
;BEFORE_LAYER_CHANGE
G92 E0
;0.2


G1 E-5 F3600
G1 Z.2 F9000
;AFTER_LAYER_CHANGE
;0.2
G1 X95.816 Y85.486
G1 E5 F2400
M204 S500
;TYPE:Skirt/Brim
;WIDTH:0.42
G1 F900
G1 X96.654 Y84.579 E.03873
G1 X98.619 Y82.858 E.0819
G1 X99.603 Y82.162 E.03778
G1 X101.501 Y81.067 E.0687
G1 X103.917 Y80.068 E.08197
G1 X106.008 Y79.507 E.06789
G1 X107.219 Y79.299 E.03853
G1 X109.829 Y79.129 E.08202
G1 X111.035 Y79.176 E.03783
G1 X113.216 Y79.465 E.06898
G1 X114.584 Y79.785 E.04405
G1 X116.666 Y80.493 E.06895
G1 X117.947 Y81.076 E.04413
G1 X119.824 Y82.16 E.06798
G1 X121.92 Y83.767 E.08278
G1 X123.528 Y85.383 E.07151
G1 X137.555 Y101.264 E.66433
G1 X138.285 Y102.27 E.03899
G1 X138.74 Y103.089 E.02938
G1 X139.105 Y103.952 E.02938
G1 X139.499 Y105.416 E.04751
G1 X139.634 Y106.693 E.04027
G1 X139.658 Y133.624 E.84442
G1 X139.611 Y134.83 E.03783
G1 X139.327 Y136.975 E.06783
G1 X138.718 Y139.3 E.07538
G1 X137.735 Y141.682 E.0808
G1 X136.525 Y143.761 E.07541
G1 X135.057 Y145.662 E.07531
G1 X133.35 Y147.356 E.07541
G1 X131.44 Y148.811 E.07528
G1 X129.358 Y150.004 E.07524
G1 X127.133 Y150.917 E.07539
G1 X124.972 Y151.498 E.07017
G1 X123.549 Y151.731 E.04523
G1 X121.271 Y151.873 E.07156
G1 X99.425 Y151.857 E.68497
G1 X98.512 Y151.73 E.02891
G1 X97.277 Y151.359 E.04043
G1 X96.114 Y150.849 E.03981
G1 X94.835 Y150.03 E.04762
G1 X93.865 Y149.165 E.04076
G1 X92.906 Y147.987 E.04763
G1 X92.268 Y146.89 E.03976
G1 X91.895 Y146.013 E.02991
G1 X91.501 Y144.549 E.04751
G1 X91.366 Y143.271 E.04032
G1 X91.34 Y97.525 E1.43434
G1 X91.488 Y95.178 E.07373
G1 X91.996 Y92.642 E.08107
G1 X92.692 Y90.59 E.06795
G1 X93.195 Y89.46 E.03879
G1 X94.5 Y87.203 E.08176
G1 X95.779 Y85.534 E.06592
; printing object Right_ORV_Pivot_Cover.stl id:1 copy 0
G1 E-3.5 F3600
;WIPE_START
G1 F7200
G1 X96.654 Y84.579 E-.61516
G1 X97.937 Y83.456 E-.80984
;WIPE_END
G1 E-.075 F3600
G1 X108.843 Y134.901 F9000
G1 E5 F2400
;TYPE:Perimeter
G1 F900
G1 X109.493 Y134.797 E.02066
G1 X110.172 Y134.905 E.02156
G1 X110.785 Y135.217 E.02155
G1 X111.272 Y135.704 E.02161
G1 X111.584 Y136.317 E.02157
G1 X111.691 Y136.996 E.02153
G1 X111.584 Y137.674 E.02153
G1 X111.272 Y138.287 E.02157
G1 X110.785 Y138.775 E.02161
G1 X110.172 Y139.087 E.02157
G1 X109.493 Y139.193 E.02153
G1 X108.815 Y139.087 E.02153
G1 X108.202 Y138.775 E.02157
G1 X107.714 Y138.287 E.02161
G1 X107.403 Y137.675 E.02155
G1 X107.295 Y136.996 E.02156
G1 X107.403 Y136.317 E.02156
G1 X107.714 Y135.704 E.02155
G1 X108.205 Y135.214 E.02175
G1 X108.789 Y134.927 E.0204
G1 X108.958 Y135.264 F9000
;TYPE:External perimeter
G1 F900
G1 X109.493 Y135.179 E.017
G1 X110.054 Y135.268 E.01781
G1 X110.561 Y135.526 E.01781
G1 X110.963 Y135.928 E.01785
G1 X111.221 Y136.435 E.01782
G1 X111.309 Y136.996 E.0178
G1 X111.221 Y137.557 E.0178
G1 X110.963 Y138.063 E.01782
G1 X110.561 Y138.466 E.01785
G1 X110.054 Y138.723 E.01782
G1 X109.493 Y138.812 E.0178
G1 X108.933 Y138.723 E.0178
G1 X108.426 Y138.466 E.01782
G1 X108.023 Y138.063 E.01785
G1 X107.766 Y137.557 E.01781
G1 X107.676 Y136.996 E.01781
G1 X107.766 Y136.435 E.01781
G1 X108.023 Y135.928 E.01781
G1 X108.427 Y135.525 E.0179
G1 X108.904 Y135.291 E.01666
G1 X109.042 Y134.873 F9000
G1 E-3.5 F3600
;WIPE_START
G1 F7200
G1 X109.493 Y135.179 E-.28494
G1 X110.054 Y135.268 E-.26984
G1 X110.561 Y135.526 E-.26983
G1 X110.963 Y135.928 E-.27048
G1 X111.221 Y136.435 E-.26998
G1 X111.241 Y136.56 E-.05993
;WIPE_END
G1 E-.075 F3600
G1 X102.285 Y143.717 F9000
G1 E5 F2400
;TYPE:Perimeter
G1 F900
G1 X102.772 Y144.204 E.02161
G1 X103.084 Y144.817 E.02155
G1 X103.192 Y145.496 E.02156
G1 X103.084 Y146.175 E.02156
G1 X102.772 Y146.787 E.02155
G1 X102.285 Y147.275 E.02161
G1 X101.672 Y147.587 E.02157
G1 X100.993 Y147.693 E.02153
G1 X100.315 Y147.587 E.02153
G1 X99.702 Y147.275 E.02157
G1 X99.214 Y146.787 E.02161
G1 X98.903 Y146.174 E.02157
G1 X98.796 Y145.496 E.02153
G1 X98.903 Y144.817 E.02153
G1 X99.214 Y144.204 E.02157
G1 X99.702 Y143.717 E.02161
G1 X100.314 Y143.405 E.02155
G1 X100.965 Y143.302 E.02065
G1 X101.668 Y143.403 E.02229
G1 X102.232 Y143.69 E.01981
G1 X102.061 Y144.026 F9000
;TYPE:External perimeter
G1 F900
G1 X102.463 Y144.428 E.01785
G1 X102.721 Y144.935 E.01781
G1 X102.81 Y145.496 E.01781
G1 X102.721 Y146.057 E.01781
G1 X102.463 Y146.563 E.01781
G1 X102.061 Y146.966 E.01785
G1 X101.554 Y147.223 E.01782
G1 X100.993 Y147.312 E.0178
G1 X100.433 Y147.223 E.0178
G1 X99.926 Y146.966 E.01782
G1 X99.523 Y146.563 E.01785
G1 X99.266 Y146.057 E.01782
G1 X99.178 Y145.496 E.0178
G1 X99.266 Y144.935 E.0178
G1 X99.523 Y144.428 E.01782
G1 X99.926 Y144.026 E.01785
G1 X100.432 Y143.768 E.01781
G1 X100.968 Y143.683 E.01699
G1 X101.553 Y143.768 E.01854
G1 X102.007 Y143.999 E.01598
G1 X102.426 Y143.862 F9000
G1 E-3.5 F3600
;WIPE_START
G1 F7200
G1 X102.463 Y144.428 E-.29771
G1 X102.721 Y144.935 E-.26982
G1 X102.81 Y145.496 E-.26984
G1 X102.721 Y146.057 E-.26985
G1 X102.463 Y146.563 E-.26983
G1 X102.392 Y146.635 E-.04796
;WIPE_END
G1 E-.075 F3600
G1 X118.795 Y145.496 F9000
G1 E5 F2400
;TYPE:Perimeter
G1 F900
G1 X118.903 Y144.817 E.02156
G1 X119.214 Y144.204 E.02155
G1 X119.705 Y143.714 E.02174
G1 X120.343 Y143.401 E.02228
G1 X120.993 Y143.297 E.02066
G1 X121.672 Y143.405 E.02156
G1 X122.285 Y143.717 E.02155
G1 X122.772 Y144.204 E.02161
G1 X123.084 Y144.817 E.02157
G1 X123.191 Y145.496 E.02153
G1 X123.084 Y146.174 E.02153
G1 X122.772 Y146.787 E.02157
G1 X122.285 Y147.275 E.02161
G1 X121.668 Y147.588 E.02169
G1 X120.965 Y147.69 E.02229
G1 X120.314 Y147.586 E.02066
G1 X119.702 Y147.275 E.02155
G1 X119.214 Y146.787 E.02161
G1 X118.903 Y146.175 E.02155
G1 X118.804 Y145.555 E.01968
G1 X119.176 Y145.496 F9000
;TYPE:External perimeter
G1 F900
G1 X119.266 Y144.935 E.01781
G1 X119.523 Y144.428 E.01781
G1 X119.927 Y144.025 E.0179
G1 X120.458 Y143.764 E.01854
G1 X120.993 Y143.679 E.017
G1 X121.554 Y143.768 E.01781
G1 X122.061 Y144.026 E.01781
G1 X122.463 Y144.428 E.01785
G1 X122.721 Y144.935 E.01782
G1 X122.809 Y145.496 E.0178
G1 X122.721 Y146.057 E.0178
G1 X122.463 Y146.563 E.01782
G1 X122.061 Y146.966 E.01785
G1 X121.553 Y147.224 E.01786
G1 X120.968 Y147.309 E.01854
G1 X120.432 Y147.223 E.017
G1 X119.926 Y146.966 E.01781
G1 X119.523 Y146.563 E.01785
G1 X119.266 Y146.057 E.01781
G1 X119.186 Y145.555 E.01593
G1 X118.83 Y145.296 F9000
G1 E-3.5 F3600
;WIPE_START
G1 F7200
G1 X119.266 Y144.935 E-.29706
G1 X119.523 Y144.428 E-.26983
G1 X119.927 Y144.025 E-.27121
G1 X120.458 Y143.764 E-.28082
G1 X120.993 Y143.679 E-.25759
G1 X121.094 Y143.695 E-.04849
;WIPE_END
G1 E-.075 F3600
G1 X103.458 Y138.169 F9000
G1 E5 F2400
;TYPE:Perimeter
G1 F900
G1 X104.062 Y137.941 E.02026
G1 X104.559 Y137.685 E.01753
G1 X105.024 Y137.373 E.01755
G1 X105.451 Y137.011 E.01754
G1 X105.833 Y136.603 E.01755
G1 X106.168 Y136.153 E.01757
G1 X106.447 Y135.668 E.01755
G1 X106.67 Y135.156 E.01751
G1 X106.834 Y134.621 E.01755
G1 X106.937 Y134.064 E.01777
G1 X107.002 Y132.572 E.04681
G1 X107.094 Y131.636 E.02948
G1 X107.246 Y130.712 E.02937
G1 X107.458 Y129.799 E.0294
G1 X107.729 Y128.903 E.02934
G1 X108.06 Y128.026 E.02938
G1 X108.445 Y127.172 E.02937
G1 X108.894 Y126.334 E.02983
G1 X109.381 Y125.55 E.02893
G1 X109.926 Y124.788 E.02935
G1 X110.52 Y124.063 E.0294
G1 X111.16 Y123.379 E.02938
G1 X111.843 Y122.739 E.02934
G1 X112.579 Y122.136 E.02982
G1 X113.329 Y121.599 E.02894
G1 X114.124 Y121.104 E.02936
G1 X114.95 Y120.662 E.02938
G1 X115.803 Y120.274 E.02937
G1 X116.679 Y119.944 E.02937
G1 X117.575 Y119.672 E.02935
G1 X118.488 Y119.459 E.0294
G1 X119.412 Y119.307 E.02936
G1 X120.344 Y119.214 E.02937
G1 X121.295 Y119.184 E.02984
G1 X122.217 Y119.214 E.02892
G1 X123.149 Y119.305 E.02937
G1 X124.074 Y119.458 E.02937
G1 X124.986 Y119.67 E.02937
G1 X125.882 Y119.942 E.02936
G1 X126.759 Y120.272 E.02938
G1 X127.612 Y120.659 E.02936
G1 X128.438 Y121.1 E.02938
G1 X129.234 Y121.594 E.02937
G1 X129.995 Y122.14 E.02937
G1 X130.72 Y122.734 E.02938
G1 X131.404 Y123.374 E.02937
G1 X132.053 Y124.069 E.02982
G1 X132.638 Y124.782 E.02892
G1 X133.184 Y125.544 E.02938
G1 X133.679 Y126.34 E.02938
G1 X134.12 Y127.166 E.02936
G1 X134.506 Y128.019 E.02937
G1 X134.837 Y128.896 E.02938
G1 X135.109 Y129.792 E.02937
G1 X135.321 Y130.704 E.02935
G1 X135.475 Y131.643 E.02984
G1 X135.566 Y132.572 E.02928
G1 X135.596 Y133.514 E.02954
G1 X135.566 Y134.434 E.02886
G1 X135.473 Y135.366 E.02937
G1 X135.321 Y136.291 E.02938
G1 X135.107 Y137.203 E.02937
G1 X134.835 Y138.099 E.02937
G1 X134.505 Y138.976 E.02937
G1 X134.118 Y139.829 E.02937
G1 X133.677 Y140.655 E.02938
G1 X133.182 Y141.45 E.02936
G1 X132.636 Y142.212 E.02938
G1 X132.042 Y142.936 E.02937
G1 X131.401 Y143.619 E.02937
G1 X130.717 Y144.26 E.02938
G1 X129.993 Y144.853 E.02936
G1 X129.219 Y145.407 E.02983
G1 X128.436 Y145.893 E.02891
G1 X127.61 Y146.335 E.02937
G1 X126.756 Y146.721 E.02938
G1 X125.866 Y147.055 E.02981
G1 X124.982 Y147.322 E.02894
G1 X124.07 Y147.535 E.02936
G1 X123.132 Y147.688 E.02983
G1 X122.215 Y147.778 E.02889
G1 X121.262 Y147.809 E.02988
G1 X99.707 Y147.793 E.67585
G1 X99.034 Y147.654 E.02155
G1 X98.55 Y147.499 E.01594
G1 X98.084 Y147.295 E.01595
G1 X97.643 Y147.043 E.01592
G1 X97.23 Y146.746 E.01593
G1 X96.851 Y146.408 E.01594
G1 X96.51 Y146.031 E.01592
G1 X96.21 Y145.621 E.01594
G1 X95.955 Y145.181 E.01596
G1 X95.747 Y144.718 E.01589
G1 X95.59 Y144.235 E.01593
G1 X95.484 Y143.738 E.01595
G1 X95.43 Y143.233 E.01593
G1 X95.43 Y142.724 E.01595
G1 X95.484 Y142.219 E.01593
G1 X95.59 Y141.721 E.01595
G1 X95.747 Y141.238 E.01593
G1 X95.955 Y140.776 E.01589
G1 X96.21 Y140.336 E.01596
G1 X96.51 Y139.925 E.01594
G1 X96.851 Y139.549 E.01592
G1 X97.23 Y139.21 E.01594
G1 X97.643 Y138.913 E.01593
G1 X98.084 Y138.661 E.01592
G1 X98.55 Y138.457 E.01595
G1 X99.034 Y138.302 E.01594
G1 X99.691 Y138.167 E.02104
G1 X103.398 Y138.169 E.11621
G1 X103.389 Y137.792 F9000
;TYPE:External perimeter
G1 F900
G1 X103.909 Y137.596 E.01742
G1 X104.367 Y137.359 E.01618
G1 X104.796 Y137.072 E.0162
G1 X105.19 Y136.738 E.01619
G1 X105.544 Y136.361 E.0162
G1 X105.852 Y135.946 E.0162
G1 X106.11 Y135.498 E.0162
G1 X106.316 Y135.025 E.01617
G1 X106.467 Y134.532 E.0162
G1 X106.561 Y134.021 E.01627
G1 X106.626 Y132.545 E.04632
G1 X106.72 Y131.587 E.03018
G1 X106.876 Y130.638 E.03015
G1 X107.094 Y129.701 E.03017
G1 X107.372 Y128.782 E.03012
G1 X107.711 Y127.882 E.03015
G1 X108.106 Y127.005 E.03015
G1 X108.567 Y126.145 E.03061
G1 X109.067 Y125.34 E.02969
G1 X109.626 Y124.559 E.03013
G1 X110.236 Y123.815 E.03017
G1 X110.893 Y123.113 E.03015
G1 X111.594 Y122.456 E.03012
G1 X112.349 Y121.837 E.0306
G1 X113.119 Y121.285 E.0297
G1 X113.935 Y120.777 E.03013
G1 X114.783 Y120.323 E.03015
G1 X115.658 Y119.926 E.03015
G1 X116.558 Y119.587 E.03015
G1 X117.477 Y119.308 E.03013
G1 X118.415 Y119.089 E.03017
G1 X119.363 Y118.932 E.03013
G1 X120.319 Y118.837 E.03015
G1 X121.296 Y118.806 E.03062
G1 X122.242 Y118.837 E.02968
G1 X123.199 Y118.931 E.03014
G1 X124.147 Y119.088 E.03015
G1 X125.084 Y119.306 E.03014
G1 X126.003 Y119.585 E.03013
G1 X126.903 Y119.924 E.03015
G1 X127.779 Y120.32 E.03013
G1 X128.627 Y120.774 E.03015
G1 X129.444 Y121.281 E.03015
G1 X130.225 Y121.841 E.03014
G1 X130.968 Y122.451 E.03015
G1 X131.671 Y123.108 E.03015
G1 X132.337 Y123.821 E.0306
G1 X132.937 Y124.553 E.02968
G1 X133.497 Y125.334 E.03015
G1 X134.006 Y126.151 E.03016
G1 X134.458 Y126.999 E.03013
G1 X134.855 Y127.874 E.03014
G1 X135.194 Y128.774 E.03015
G1 X135.473 Y129.695 E.03015
G1 X135.691 Y130.631 E.03013
G1 X135.849 Y131.594 E.03061
G1 X135.942 Y132.548 E.03006
G1 X135.973 Y133.514 E.03031
G1 X135.942 Y134.459 E.02963
G1 X135.847 Y135.415 E.03014
G1 X135.691 Y136.364 E.03016
G1 X135.472 Y137.301 E.03015
G1 X135.193 Y138.22 E.03014
G1 X134.854 Y139.12 E.03015
G1 X134.457 Y139.996 E.03015
G1 X134.003 Y140.844 E.03015
G1 X133.495 Y141.66 E.03013
G1 X132.935 Y142.441 E.03015
G1 X132.325 Y143.185 E.03015
G1 X131.668 Y143.886 E.03015
G1 X130.966 Y144.543 E.03015
G1 X130.222 Y145.153 E.03013
G1 X129.429 Y145.721 E.0306
G1 X128.625 Y146.22 E.02969
G1 X127.777 Y146.673 E.03014
G1 X126.9 Y147.07 E.03016
G1 X125.987 Y147.412 E.03059
G1 X125.08 Y147.686 E.0297
G1 X124.144 Y147.905 E.03014
G1 X123.181 Y148.062 E.0306
G1 X122.239 Y148.155 E.02966
G1 X121.268 Y148.186 E.03046
G1 X99.669 Y148.17 E.67724
G1 X98.938 Y148.02 E.02338
G1 X98.416 Y147.852 E.01718
G1 X97.914 Y147.632 E.01719
G1 X97.438 Y147.361 E.01717
G1 X96.994 Y147.041 E.01717
G1 X96.585 Y146.676 E.01719
G1 X96.217 Y146.27 E.01717
G1 X95.894 Y145.827 E.01718
G1 X95.619 Y145.353 E.01719
G1 X95.395 Y144.854 E.01715
G1 X95.225 Y144.333 E.01718
G1 X95.111 Y143.797 E.01719
G1 X95.053 Y143.252 E.01717
G1 X95.053 Y142.704 E.01719
G1 X95.111 Y142.16 E.01717
G1 X95.225 Y141.623 E.01719
G1 X95.395 Y141.103 E.01718
G1 X95.619 Y140.604 E.01715
G1 X95.894 Y140.13 E.01719
G1 X96.217 Y139.687 E.01718
G1 X96.585 Y139.281 E.01717
G1 X96.994 Y138.916 E.01719
G1 X97.438 Y138.596 E.01717
G1 X97.914 Y138.324 E.01717
G1 X98.416 Y138.104 E.01719
G1 X98.938 Y137.937 E.01719
G1 X99.653 Y137.79 E.02288
G1 X103.329 Y137.792 E.11526
G1 X103.669 Y138.078 F9000
G1 E-3.5 F3600
;WIPE_START
G1 F7200
G1 X103.909 Y137.596 E-.2907
G1 X104.367 Y137.359 E-.24504
G1 X104.796 Y137.072 E-.24545
G1 X105.19 Y136.738 E-.24526
G1 X105.544 Y136.361 E-.24536
G1 X105.736 Y136.102 E-.15319
;WIPE_END
G1 E-.075 F3600
G1 X102.288 Y147.509 F9000
G1 E5 F2400
;TYPE:Gap fill
;WIDTH:0.117495
G1 F900
G1 X102.154 Y147.606 E.00103
G1 E-3.5 F3600
;WIPE_START
G1 F7200
G1 X102.288 Y147.509 E-.07869
;WIPE_END
G1 E-1.42131 F3600
G1 X99.851 Y147.598 F9000
G1 E5 F2400
;WIDTH:0.189388
G1 F900
G1 X99.556 Y147.495 E.00379
;WIDTH:0.199709
G1 X99.355 Y147.405 E.00287
G1 E-3.5 F3600
;WIPE_START
G1 F7200
G1 X99.556 Y147.495 E-.10455
;WIPE_END
G1 E-1.39545 F3600
G1 X119.699 Y147.509 F9000
G1 E5 F2400
;WIDTH:0.122922
G1 F900
G1 X119.851 Y147.619 E.00125
G1 E-3.5 F3600
;WIPE_START
G1 F7200
G1 X119.699 Y147.509 E-.08916
;WIPE_END
G1 E-1.41084 F3600
G1 X122.16 Y147.572 F9000
G1 E5 F2400
;WIDTH:0.100396
G1 F900
G1 X122.201 Y147.561 E.0002
;WIDTH:0.10974
G1 X122.225 Y147.554 E.00014
;WIDTH:0.109739
G1 X122.288 Y147.509 E.00043
G1 E-3.5 F3600
;WIPE_START
G1 F7200
G1 X122.225 Y147.554 E-.03682
;WIPE_END
G1 E-1.46318 F3600
G1 X129.684 Y122.056 F9000
G1 E5 F2400
;TYPE:Solid infill
;WIDTH:0.42171
G1 F900
G1 X131.22 Y123.592 E.06839
G1 X131.84 Y124.256 E.02862
G1 X132.413 Y124.955 E.02847
G1 X132.949 Y125.701 E.02894
G1 X133.204 Y126.111 E.01521
G1 X128.669 Y121.576 E.20201
G1 X128.297 Y121.345 E.01378
G1 X127.454 Y120.898 E.03005
G1 X133.881 Y127.325 E.28627
G1 X134.304 Y128.283 E.03297
G1 X126.497 Y120.476 E.34773
G1 X125.654 Y120.169 E.02826
G1 X134.611 Y129.126 E.39897
G1 X134.842 Y129.892 E.0252
G1 X124.887 Y119.938 E.44338
G1 X124.189 Y119.775 E.02259
G1 X135.004 Y130.59 E.48172
G1 X135.123 Y131.245 E.02097
G1 X123.533 Y119.655 E.51623
G1 X122.908 Y119.566 E.01989
G1 X135.213 Y131.871 E.54809
