; generated by PrusaSlicer 2.4.0+linux-x64-GTK3 on 2022-07-04 at 17:59:40 UTC

; 

; external perimeters extrusion width = 0.45mm
; perimeters extrusion width = 0.45mm
; infill extrusion width = 0.45mm
; solid infill extrusion width = 0.45mm
; top infill extrusion width = 0.40mm
; support material extrusion width = 0.38mm
; first layer extrusion width = 0.42mm

M201 X500 Y500 Z100 E5000 ; sets maximum accelerations, mm/sec^2
M203 X500 Y500 Z10 E60 ; sets maximum feedrates, mm/sec
M204 P500 R1000 T500 ; sets acceleration (P, T) and retract acceleration (R), mm/sec^2
M205 X8.00 Y8.00 Z0.40 E5.00 ; sets the jerk limits, mm/sec
M205 S0 T0 ; sets the minimum extruding and travel feed rate, mm/sec
M107
;TYPE:Custom
G90 ; use absolute coordinates
M83 ; extruder relative mode
M140 S50 ; set final bed temp
M104 S150 ; set temporary nozzle temp to prevent oozing during homing and auto bed leveling
G4 S10 ; allow partial nozzle warmup
G28 ; home all axis
G29 ; auto bed levelling
G1 Z50 F240
G1 X2 Y10 F3000
M104 S205 ; set final nozzle temp
M190 S50 ; wait for bed temp to stabilize
M109 S205 ; wait for nozzle temp to stabilize
G1 Z0.28 F240
G92 E0
G1 Y140 E10 F1500 ; prime the nozzle
G1 X2.3 F5000
G92 E0
G1 Y10 E10 F1200 ; prime the nozzle
G92 E0
G21 ; set units to millimeters
G90 ; use absolute coordinates
M83 ; use relative distances for extrusion
; Filament gcode
M107
;LAYER_CHANGE
;Z:0.2
;HEIGHT:0.2
;BEFORE_LAYER_CHANGE
G92 E0
;0.2


G1 E-5 F3600
G1 Z.2 F9000
;AFTER_LAYER_CHANGE
;0.2
G1 X64.285 Y93.247
G1 E5 F2400
M204 S500
;TYPE:Skirt/Brim
;WIDTH:0.42
G1 F1200
G1 X66.478 Y92.419 E.07057
G1 X150.255 Y92.384 E2.52169
G1 X164.522 Y92.419 E.42944
G1 X166.715 Y93.247 E.07057
G1 X204.809 Y126.352 E1.51911
G1 X205.745 Y127.688 E.04911
G1 X205.97 Y128.901 E.03714
G1 X205.97 Y139.492 E.31879
G1 X205.576 Y141.075 E.04911
G1 X204.486 Y142.289 E.04911
G1 X202.593 Y142.869 E.05959
G1 X28.407 Y142.869 E5.24304
G1 X26.824 Y142.475 E.04911
G1 X25.61 Y141.385 E.04911
G1 X25.03 Y139.492 E.05959
G1 X25.03 Y128.901 E.31879
G1 X25.424 Y127.318 E.04911
G1 X26.191 Y126.352 E.03714
G1 X64.239 Y93.286 E1.5173
; printing object monsterBeetle.stl id:0 copy 0
G1 E-3.5 F3600
;WIPE_START
G1 F7200
G1 X66.478 Y92.419 E-1.1404
G1 X67.077 Y92.418 E-.2846
;WIPE_END
G1 E-.075 F3600
G1 X43.672 Y132.803 F9000
G1 E5 F2400
;TYPE:Support material
G1 F1200
G1 X40.301 Y132.803 E.10146
G1 X40.02 Y133.084 E.01197
G1 X40.02 Y135.416 E.07021
G1 X40.301 Y135.697 E.01197
G1 X43.672 Y135.697 E.10146
G1 X43.672 Y139.492 E.11422
G1 X28.407 Y139.492 E.45948
G1 X28.407 Y128.901 E.31879
G1 X43.672 Y128.901 E.45948
G1 X43.672 Y132.746 E.11573
G1 E-3.5 F3600
;WIPE_START
G1 F7200
G1 X43.672 Y129.746 E-1.425
;WIPE_END
G1 E-.075 F3600
G1 X43.101 Y139.322 F9000
G1 E5 F2400
G1 F1200
G1 X43.101 Y136.037 E.0989
G1 X42.347 Y136.037 E.0227
G1 X42.347 Y139.153 E.09379
G1 X41.592 Y139.153 E.0227
G1 X41.592 Y136.037 E.09379
G1 X40.838 Y136.037 E.0227
G1 X40.838 Y139.153 E.09379
G1 X40.084 Y139.153 E.0227
G1 X40.084 Y135.96 E.0961
G1 X39.681 Y135.557 E.01717
G1 X39.681 Y132.943 E.07867
G1 X40.084 Y132.54 E.01717
G1 X40.084 Y129.24 E.09931
G1 X40.838 Y129.24 E.0227
G1 X40.838 Y132.463 E.097
G1 X41.592 Y132.463 E.0227
G1 X41.592 Y129.24 E.097
G1 X42.347 Y129.24 E.0227
G1 X42.347 Y132.463 E.097
G1 X43.101 Y132.463 E.0227
G1 X43.101 Y129.071 E.10211
G1 E-3.5 F3600
;WIPE_START
G1 F7200
G1 X43.101 Y132.071 E-1.425
;WIPE_END
G1 E-.075 F3600
G1 X39.33 Y139.322 F9000
G1 E5 F2400
G1 F1200
G1 X39.33 Y129.24 E.30347
G1 X38.576 Y129.24 E.0227
G1 X38.576 Y139.153 E.29836
G1 X37.822 Y139.153 E.0227
G1 X37.822 Y129.24 E.29836
G1 X37.067 Y129.24 E.0227
G1 X37.067 Y139.153 E.29836
G1 X36.313 Y139.153 E.0227
G1 X36.313 Y129.24 E.29836
G1 X35.559 Y129.24 E.0227
G1 X35.559 Y139.153 E.29836
G1 X34.805 Y139.153 E.0227
G1 X34.805 Y129.24 E.29836
G1 X34.051 Y129.24 E.0227
G1 X34.051 Y139.153 E.29836
G1 X33.297 Y139.153 E.0227
G1 X33.297 Y129.24 E.29836
G1 X32.543 Y129.24 E.0227
G1 X32.543 Y139.153 E.29836
G1 X31.788 Y139.153 E.0227
G1 X31.788 Y129.24 E.29836
G1 X31.034 Y129.24 E.0227
G1 X31.034 Y139.153 E.29836
G1 X30.28 Y139.153 E.0227
G1 X30.28 Y129.24 E.29836
G1 X29.526 Y129.24 E.0227
G1 X29.526 Y139.153 E.29836
G1 X28.772 Y139.153 E.0227
G1 X28.772 Y129.071 E.30347
G1 E-3.5 F3600
;WIPE_START
G1 F7200
G1 X28.772 Y132.071 E-1.425
;WIPE_END
G1 E-.075 F3600
G1 X202.593 Y139.492 F9000
G1 E5 F2400
G1 F1200
G1 X187.328 Y139.492 E.45948
G1 X187.328 Y135.697 E.11422
G1 X190.699 Y135.697 E.10146
G1 X190.98 Y135.416 E.01197
G1 X190.98 Y133.084 E.07021
G1 X190.699 Y132.803 E.01197
G1 X187.328 Y132.803 E.10146
G1 X187.328 Y128.901 E.11744
G1 X202.593 Y128.901 E.45948
G1 X202.593 Y139.436 E.31709
G1 X202.228 Y139.322 F9000
G1 F1200
G1 X202.228 Y129.24 E.30347
G1 X201.474 Y129.24 E.0227
G1 X201.474 Y139.153 E.29836
G1 X200.72 Y139.153 E.0227
G1 X200.72 Y129.24 E.29836
G1 X199.966 Y129.24 E.0227
G1 X199.966 Y139.153 E.29836
G1 X199.212 Y139.153 E.0227
G1 X199.212 Y129.24 E.29836
G1 X198.457 Y129.24 E.0227
G1 X198.457 Y139.153 E.29836
G1 X197.703 Y139.153 E.0227
G1 X197.703 Y129.24 E.29836
G1 X196.949 Y129.24 E.0227
G1 X196.949 Y139.153 E.29836
G1 X196.195 Y139.153 E.0227
G1 X196.195 Y129.24 E.29836
G1 X195.441 Y129.24 E.0227
G1 X195.441 Y139.153 E.29836
G1 X194.687 Y139.153 E.0227
G1 X194.687 Y129.24 E.29836
G1 X193.933 Y129.24 E.0227
G1 X193.933 Y139.153 E.29836
G1 X193.178 Y139.153 E.0227
G1 X193.178 Y129.24 E.29836
G1 X192.424 Y129.24 E.0227
G1 X192.424 Y139.153 E.29836
G1 X191.67 Y139.153 E.0227
G1 X191.67 Y129.24 E.29836
G1 X190.916 Y129.24 E.0227
G1 X190.916 Y132.54 E.09931
G1 X190.839 Y132.463 E.00326
G1 X190.162 Y132.463 E.0204
G1 X190.162 Y129.24 E.097
G1 X189.408 Y129.24 E.0227
G1 X189.408 Y132.463 E.097
G1 X188.653 Y132.463 E.0227
G1 X188.653 Y129.24 E.097
G1 X187.899 Y129.24 E.0227
G1 X187.899 Y132.633 E.10211
G1 E-3.5 F3600
;WIPE_START
G1 F7200
G1 X187.899 Y129.633 E-1.425
;WIPE_END
G1 E-.075 F3600
G1 X190.916 Y139.322 F9000
G1 E5 F2400
G1 F1200
G1 X190.916 Y135.96 E.1012
G1 X190.839 Y136.037 E.00326
G1 X190.162 Y136.037 E.0204
G1 X190.162 Y139.153 E.09379
G1 X189.408 Y139.153 E.0227
G1 X189.408 Y136.037 E.09379
G1 X188.653 Y136.037 E.0227
G1 X188.653 Y139.153 E.09379
G1 X187.899 Y139.153 E.0227
G1 X187.899 Y135.867 E.0989
G1 E-3.5 F3600
;WIPE_START
G1 F7200
G1 X187.899 Y138.867 E-1.425
;WIPE_END
G1 E-.075 F3600
G1 X119.607 Y130.725 F9000
G1 E5 F2400
;TYPE:Perimeter
G1 F1200
G1 X119.46 Y131.109 E.01239
G1 X119.158 Y131.655 E.01878
G1 X118.777 Y132.157 E.01896
G1 X118.331 Y132.594 E.01881
G1 X117.931 Y132.894 E.01506
G1 X117.272 Y133.262 E.02269
G1 X116.669 Y133.477 E.01928
G1 X116.06 Y133.599 E.01871
G1 X115.559 Y133.635 E.01512
G1 X114.814 Y133.581 E.02249
G1 X114.324 Y133.474 E.0151
G1 X113.738 Y133.265 E.01873
G1 X113.171 Y132.965 E.01929
G1 X112.574 Y132.506 E.02267
G1 X112.22 Y132.153 E.01505
G1 X111.842 Y131.655 E.01883
G1 X111.537 Y131.104 E.01896
G1 X111.315 Y130.518 E.01885
G1 X111.178 Y129.898 E.01911
G1 X111.133 Y129.271 E.01892
G1 X111.179 Y128.642 E.01896
G1 X111.314 Y128.029 E.0189
G1 X111.54 Y127.432 E.01921
G1 X111.842 Y126.886 E.01878
G1 X112.223 Y126.385 E.01896
G1 X112.669 Y125.947 E.01881
G1 X113.069 Y125.647 E.01506
G1 X113.728 Y125.28 E.02269
G1 X114.331 Y125.064 E.01928
G1 X114.94 Y124.942 E.01871
G1 X115.441 Y124.906 E.01512
G1 X116.186 Y124.96 E.02249
G1 X116.676 Y125.067 E.0151
G1 X117.262 Y125.276 E.01873
G1 X117.829 Y125.576 E.01929
G1 X118.426 Y126.035 E.02267
G1 X118.78 Y126.388 E.01505
G1 X119.158 Y126.886 E.01883
G1 X119.463 Y127.438 E.01896
G1 X119.685 Y128.024 E.01885
G1 X119.727 Y128.209 E.00572
G1 X119.822 Y128.644 E.01339
G1 X119.867 Y129.271 E.01892
G1 X119.821 Y129.899 E.01896
G1 X119.686 Y130.512 E.0189
G1 X119.628 Y130.668 E.00501
G1 X119.355 Y130.262 F9000
G1 F1200
G1 X119.324 Y130.405 E.00442
G1 X119.118 Y130.948 E.01747
G1 X118.842 Y131.448 E.01721
G1 X118.493 Y131.907 E.01732
G1 X118.085 Y132.308 E.01723
G1 X117.725 Y132.577 E.01354
G1 X117.116 Y132.917 E.02099
G1 X116.568 Y133.113 E.01751
G1 X116.009 Y133.225 E.01716
G1 X115.559 Y133.257 E.01358
G1 X114.868 Y133.207 E.02086
G1 X114.428 Y133.111 E.01357
G1 X113.89 Y132.919 E.01718
G1 X113.376 Y132.646 E.01752
G1 X112.823 Y132.222 E.02097
G1 X112.505 Y131.904 E.01353
G1 X112.158 Y131.448 E.01724
G1 X111.88 Y130.945 E.01732
G1 X111.677 Y130.409 E.01725
G1 X111.553 Y129.844 E.01741
G1 X111.511 Y129.271 E.0173
G1 X111.553 Y128.697 E.01732
G1 X111.676 Y128.136 E.01729
G1 X111.882 Y127.593 E.01747
G1 X112.158 Y127.093 E.01721
G1 X112.507 Y126.635 E.01732
G1 X112.915 Y126.234 E.01723
G1 X113.275 Y125.964 E.01354
G1 X113.884 Y125.624 E.02099
G1 X114.432 Y125.429 E.01751
G1 X114.991 Y125.316 E.01716
G1 X115.441 Y125.284 E.01358
G1 X116.132 Y125.335 E.02086
G1 X116.572 Y125.43 E.01357
G1 X117.11 Y125.622 E.01718
G1 X117.624 Y125.895 E.01752
G1 X118.177 Y126.319 E.02097
G1 X118.495 Y126.637 E.01353
G1 X118.842 Y127.093 E.01724
G1 X119.12 Y127.596 E.01732
G1 X119.323 Y128.133 E.01725
G1 X119.447 Y128.698 E.01741
G1 X119.489 Y129.271 E.0173
G1 X119.447 Y129.845 E.01732
G1 X119.368 Y130.203 E.01106
G1 X119.073 Y129.79 F9000
;TYPE:External perimeter
G1 F1200
G1 X118.961 Y130.298 E.01567
G1 X118.826 Y130.662 E.01168
G1 X118.777 Y130.787 E.00406
G1 X118.525 Y131.242 E.01564
G1 X118.21 Y131.657 E.01568
G1 X117.839 Y132.021 E.01564
G1 X117.519 Y132.26 E.01202
G1 X116.96 Y132.572 E.01928
G1 X116.467 Y132.748 E.01574
G1 X115.958 Y132.851 E.01562
G1 X115.559 Y132.879 E.01203
G1 X114.922 Y132.833 E.01924
G1 X114.531 Y132.748 E.01203
G1 X114.043 Y132.573 E.01563
G1 X113.58 Y132.328 E.01575
G1 X113.072 Y131.938 E.01928
G1 X112.79 Y131.656 E.01202
G1 X112.475 Y131.242 E.01565
G1 X112.223 Y130.786 E.01568
G1 X112.039 Y130.3 E.01566
G1 X112.009 Y130.168 E.00405
G1 X111.927 Y129.79 E.01166
G1 X111.889 Y129.271 E.01567
G1 X111.927 Y128.751 E.01568
G1 X112.039 Y128.243 E.01567
G1 X112.174 Y127.879 E.01168
G1 X112.224 Y127.754 E.00406
G1 X112.475 Y127.299 E.01564
G1 X112.79 Y126.885 E.01568
G1 X113.161 Y126.521 E.01564
G1 X113.481 Y126.281 E.01202
G1 X114.04 Y125.969 E.01928
G1 X114.533 Y125.793 E.01574
G1 X115.042 Y125.691 E.01562
G1 X115.441 Y125.662 E.01203
G1 X116.078 Y125.709 E.01924
G1 X116.469 Y125.794 E.01203
G1 X116.957 Y125.968 E.01563
G1 X117.42 Y126.213 E.01575
G1 X117.928 Y126.603 E.01928
G1 X118.21 Y126.885 E.01202
G1 X118.525 Y127.299 E.01565
G1 X118.777 Y127.755 E.01568
G1 X118.961 Y128.242 E.01566
G1 X118.991 Y128.373 E.00405
G1 X119.073 Y128.752 E.01166
G1 X119.111 Y129.271 E.01567
G1 X119.078 Y129.73 E.01387
G1 X119.387 Y130.038 F9000
G1 E-3.5 F3600
;WIPE_START
G1 F7200
G1 X118.961 Y130.298 E-.27547
G1 X118.826 Y130.662 E-.18424
G1 X118.777 Y130.787 E-.06406
G1 X118.525 Y131.242 E-.24679
G1 X118.21 Y131.657 E-.24743
G1 X117.839 Y132.021 E-.24688
G1 X117.569 Y132.223 E-.16013
;WIPE_END
G1 E-.075 F3600
G1 X121.703 Y128.53 F9000
G1 E5 F2400
;TYPE:Perimeter
G1 F1200
G1 X121.814 Y128.029 E.01543
G1 X121.97 Y127.61 E.01346
G1 X122.04 Y127.432 E.00575
G1 X122.342 Y126.886 E.01878
G1 X122.723 Y126.385 E.01896
G1 X123.169 Y125.947 E.01881
G1 X123.569 Y125.647 E.01506
G1 X124.228 Y125.28 E.02269
G1 X124.831 Y125.064 E.01928
G1 X125.44 Y124.942 E.01871
G1 X125.941 Y124.906 E.01512
G1 X126.686 Y124.96 E.02249
G1 X127.176 Y125.067 E.0151
G1 X127.762 Y125.276 E.01873
G1 X128.329 Y125.576 E.01929
G1 X128.926 Y126.035 E.02267
G1 X129.28 Y126.388 E.01505
G1 X129.658 Y126.886 E.01883
G1 X129.963 Y127.438 E.01896
G1 X130.185 Y128.024 E.01885
G1 X130.227 Y128.209 E.00572
G1 X130.322 Y128.644 E.01339
G1 X130.367 Y129.271 E.01892
G1 X130.321 Y129.899 E.01896
G1 X130.186 Y130.512 E.0189
G1 X130.03 Y130.931 E.01346
G1 X129.96 Y131.109 E.00575
G1 X129.658 Y131.655 E.01878
G1 X129.277 Y132.157 E.01896
G1 X128.831 Y132.594 E.01881
G1 X128.431 Y132.894 E.01506
G1 X127.772 Y133.262 E.02269
G1 X127.169 Y133.477 E.01928
G1 X126.56 Y133.599 E.01871
G1 X126.059 Y133.635 E.01512
G1 X125.314 Y133.581 E.02249
G1 X124.824 Y133.474 E.0151
G1 X124.238 Y133.265 E.01873
G1 X123.671 Y132.965 E.01929
G1 X123.074 Y132.506 E.02267
G1 X122.72 Y132.153 E.01505
G1 X122.342 Y131.655 E.01883
G1 X122.037 Y131.104 E.01896
G1 X121.815 Y130.518 E.01885
G1 X121.678 Y129.898 E.01911
G1 X121.633 Y129.271 E.01892
G1 X121.69 Y128.588 E.02062
G1 X122.038 Y128.899 F9000
G1 F1200
G1 X122.053 Y128.697 E.0061
G1 X122.176 Y128.136 E.01729
G1 X122.382 Y127.593 E.01747
G1 X122.658 Y127.093 E.01721
G1 X123.007 Y126.635 E.01732
G1 X123.415 Y126.234 E.01723
G1 X123.775 Y125.964 E.01354
G1 X124.384 Y125.624 E.02099
G1 X124.932 Y125.429 E.01751
G1 X125.491 Y125.316 E.01716
G1 X125.941 Y125.284 E.01358
G1 X126.632 Y125.335 E.02086
G1 X127.072 Y125.43 E.01357
G1 X127.61 Y125.622 E.01718
G1 X128.124 Y125.895 E.01752
G1 X128.677 Y126.319 E.02097
G1 X128.995 Y126.637 E.01353
G1 X129.342 Y127.093 E.01724
G1 X129.62 Y127.596 E.01732
G1 X129.823 Y128.133 E.01725
G1 X129.859 Y128.291 E.00489
G1 X129.947 Y128.698 E.01252
G1 X129.989 Y129.271 E.0173
G1 X129.947 Y129.845 E.01732
G1 X129.824 Y130.405 E.01729
G1 X129.678 Y130.797 E.01257
G1 X129.618 Y130.948 E.0049
G1 X129.342 Y131.448 E.01721
G1 X128.993 Y131.907 E.01732
G1 X128.585 Y132.308 E.01723
G1 X128.225 Y132.577 E.01354
G1 X127.616 Y132.917 E.02099
G1 X127.068 Y133.113 E.01751
G1 X126.509 Y133.225 E.01716
G1 X126.059 Y133.257 E.01358
G1 X125.368 Y133.207 E.02086
G1 X124.928 Y133.111 E.01357
G1 X124.39 Y132.919 E.01718
G1 X123.876 Y132.646 E.01752
G1 X123.323 Y132.222 E.02097
G1 X123.005 Y131.904 E.01353
G1 X122.658 Y131.448 E.01724
G1 X122.38 Y130.945 E.01732
G1 X122.177 Y130.409 E.01725
G1 X122.053 Y129.844 E.01741
G1 X122.011 Y129.271 E.0173
G1 X122.034 Y128.959 E.00941
G1 X122.389 Y129.271 F9000
;TYPE:External perimeter
G1 F1200
G1 X122.427 Y128.751 E.01568
G1 X122.539 Y128.243 E.01567
G1 X122.674 Y127.879 E.01168
G1 X122.724 Y127.754 E.00406
G1 X122.975 Y127.299 E.01564
G1 X123.29 Y126.885 E.01568
G1 X123.661 Y126.521 E.01564
G1 X123.981 Y126.281 E.01202
G1 X124.54 Y125.969 E.01928
G1 X125.033 Y125.793 E.01574
G1 X125.542 Y125.691 E.01562
G1 X125.941 Y125.662 E.01203
G1 X126.578 Y125.709 E.01924
G1 X126.969 Y125.794 E.01203
G1 X127.457 Y125.968 E.01563
G1 X127.92 Y126.213 E.01575
G1 X128.428 Y126.603 E.01928
G1 X128.71 Y126.885 E.01202
G1 X129.025 Y127.299 E.01565
G1 X129.277 Y127.755 E.01568
G1 X129.461 Y128.242 E.01566
G1 X129.491 Y128.373 E.00405
G1 X129.573 Y128.752 E.01166
G1 X129.611 Y129.271 E.01567
G1 X129.573 Y129.79 E.01568
G1 X129.461 Y130.298 E.01567
G1 X129.326 Y130.662 E.01168
G1 X129.277 Y130.787 E.00406
G1 X129.025 Y131.242 E.01564
G1 X128.71 Y131.657 E.01568
G1 X128.339 Y132.021 E.01564
G1 X128.019 Y132.26 E.01202
G1 X127.46 Y132.572 E.01928
G1 X126.967 Y132.748 E.01574
G1 X126.458 Y132.851 E.01562
G1 X126.059 Y132.879 E.01203
G1 X125.422 Y132.833 E.01924
G1 X125.031 Y132.748 E.01203
G1 X124.543 Y132.573 E.01563
G1 X124.08 Y132.328 E.01575
G1 X123.572 Y131.938 E.01928
G1 X123.29 Y131.656 E.01202
G1 X122.975 Y131.242 E.01565
G1 X122.723 Y130.786 E.01568
G1 X122.539 Y130.3 E.01566
G1 X122.509 Y130.168 E.00406
G1 X122.427 Y129.79 E.01166
G1 X122.394 Y129.331 E.01386
G1 X122.044 Y129.069 F9000
G1 E-3.5 F3600
;WIPE_START
G1 F7200
G1 X122.427 Y128.751 E-.27561
G1 X122.539 Y128.243 E-.24724
G1 X122.674 Y127.879 E-.18424
G1 X122.724 Y127.754 E-.06406
G1 X122.975 Y127.299 E-.24679
G1 X123.29 Y126.885 E-.24743
G1 X123.53 Y126.649 E-.15963
;WIPE_END
G1 E-.075 F3600
G1 X132.203 Y128.53 F9000
G1 E5 F2400
;TYPE:Perimeter
G1 F1200
G1 X132.314 Y128.029 E.01543
G1 X132.47 Y127.61 E.01346
G1 X132.54 Y127.432 E.00575
G1 X132.842 Y126.886 E.01878
G1 X133.223 Y126.385 E.01896
G1 X133.669 Y125.947 E.01881
G1 X134.069 Y125.647 E.01506
G1 X134.728 Y125.28 E.02269
G1 X135.331 Y125.064 E.01928
G1 X135.94 Y124.942 E.01871
G1 X136.441 Y124.906 E.01512
G1 X137.186 Y124.96 E.02249
G1 X137.676 Y125.067 E.0151
G1 X138.262 Y125.276 E.01873
G1 X138.829 Y125.576 E.01929
G1 X139.426 Y126.035 E.02267
G1 X139.78 Y126.388 E.01505
G1 X140.158 Y126.886 E.01883
G1 X140.463 Y127.438 E.01896
G1 X140.685 Y128.024 E.01885
G1 X140.727 Y128.209 E.00572
