; generated by PrusaSlicer 2.4.2 on 2022-08-30 at 06:24:26 UTC

; 

; external perimeters extrusion width = 0.45mm
; perimeters extrusion width = 0.45mm
; infill extrusion width = 0.45mm
; solid infill extrusion width = 0.45mm
; top infill extrusion width = 0.45mm
; support material extrusion width = 0.38mm
; first layer extrusion width = 0.42mm

M107
;TYPE:Custom
G90 ; use absolute coordinates
M83 ; extruder relative mode
M140 S70 ; set final bed temp
M104 S150 ; set temporary nozzle temp to prevent oozing during homing and auto bed leveling
G4 S10 ; allow partial nozzle warmup
G28 ; home all axis
G29 ; auto bed levelling
G1 Z30 F240
G1 X2 Y10 F3000
M104 S230 ; set final nozzle temp
M190 S70 ; wait for bed temp to stabilize
M109 S230 ; wait for nozzle temp to stabilize
G1 Z0.28 F240
G92 E0
G1 Y100 E11 F1500 ; prime the nozzle
G1 X2.3 F5000
G92 E0
G1 Y10 E11 F1000 ; prime the nozzle
G92 E0
G21 ; set units to millimeters
G90 ; use absolute coordinates
M83 ; use relative distances for extrusion
; Filament gcode
M107
;LAYER_CHANGE
;Z:0.2
;HEIGHT:0.2
;BEFORE_LAYER_CHANGE
G92 E0
;0.2


G1 E-4 F2700
G1 Z.2 F9000
;AFTER_LAYER_CHANGE
;0.2
G1 X101.435 Y107.037
G1 E4 F2400
M204 S500
;TYPE:Skirt/Brim
;WIDTH:0.42
G1 F900
G1 X102.2 Y106.431 E.0306
G1 X103.874 Y105.432 E.06114
G1 X105.697 Y104.738 E.06114
G1 X119.577 Y101.263 E.44863
G1 X120.551 Y101.152 E.03074
G1 X128.375 Y101.285 E.24536
G1 X129.515 Y101.382 E.03586
G1 X131.401 Y101.786 E.06049
G1 X132.912 Y102.502 E.05243
G1 X134.574 Y103.812 E.06634
G1 X135.83 Y105.631 E.06931
G1 X136.368 Y107.336 E.05604
G1 X136.538 Y108.316 E.0312
G1 X136.617 Y110.355 E.06399
G1 X136.675 Y121.479 E.34878
G1 X136.505 Y122.615 E.03601
G1 X135.395 Y126.178 E.11702
G1 X134.52 Y127.66 E.05397
G1 X133.065 Y128.6 E.05428
G1 X130.2 Y129.615 E.09529
G1 X128.897 Y129.83 E.04144
G1 X121.821 Y129.737 E.22188
G1 X121.066 Y129.65 E.02382
G1 X106.013 Y126.347 E.48319
G1 X105.078 Y126.067 E.0306
G1 X103.39 Y125.316 E.05793
G1 X102.2 Y124.569 E.04406
G1 X100.957 Y123.525 E.0509
G1 X99.681 Y122.05 E.06114
G1 X98.682 Y120.376 E.06114
G1 X98.183 Y119.172 E.04085
G1 X97.903 Y118.237 E.0306
G1 X97.706 Y117.281 E.0306
G1 X97.565 Y115.664 E.0509
G1 X97.706 Y113.719 E.06114
G1 X98.183 Y111.828 E.06114
G1 X98.682 Y110.625 E.04085
G1 X99.145 Y109.766 E.0306
G1 X100.287 Y108.185 E.06114
G1 X101.392 Y107.079 E.04902
G1 X101.668 Y107.395 F9000
G1 F900
G1 X102.43 Y106.731 E.03169
G1 X104.049 Y105.766 E.05908
G1 X105.81 Y105.098 E.05908
G1 X119.668 Y101.629 E.44791
G1 X120.544 Y101.529 E.02766
G1 X128.369 Y101.662 E.24536
G1 X129.466 Y101.756 E.03452
G1 X131.32 Y102.154 E.05946
G1 X132.679 Y102.799 E.04717
G1 X134.34 Y104.108 E.06634
G1 X135.47 Y105.745 E.06235
G1 X136.008 Y107.449 E.05604
G1 X136.162 Y108.331 E.02806
G1 X136.24 Y110.357 E.06358
G1 X136.298 Y121.481 E.34878
G1 X136.145 Y122.503 E.0324
G1 X135.035 Y126.066 E.11701
G1 X134.188 Y127.46 E.05115
G1 X132.939 Y128.244 E.04622
G1 X130.074 Y129.26 E.09529
G1 X128.902 Y129.453 E.03727
G1 X121.826 Y129.36 E.22188
G1 X121.147 Y129.282 E.02143
G1 X106.095 Y125.978 E.48317
G1 X105.192 Y125.707 E.02957
G1 X103.564 Y124.981 E.05587
G1 X102.43 Y124.269 E.04199
G1 X101.211 Y123.247 E.04987
G1 X99.981 Y121.82 E.05908
G1 X99.016 Y120.201 E.05908
G1 X98.543 Y119.058 E.03879
G1 X98.272 Y118.155 E.02957
G1 X98.08 Y117.232 E.02957
G1 X97.941 Y115.647 E.04987
G1 X98.08 Y113.768 E.05908
G1 X98.543 Y111.942 E.05908
G1 X99.016 Y110.799 E.03879
G1 X99.463 Y109.968 E.02957
G1 X99.981 Y109.18 E.02957
G1 X100.934 Y108.037 E.04666
G1 X101.623 Y107.435 E.0287
; printing object MonsterBeetleParts-ServoSaver2.stl id:0 copy 0
G1 E-2.8 F2700
;WIPE_START
G1 F7200
G1 X102.43 Y106.731 E-.38145
G1 X104.049 Y105.766 E-.67126
G1 X104.278 Y105.679 E-.08728
;WIPE_END
G1 E-.06 F2700
G1 X123.544 Y105.039 F9000
G1 E4 F2400
;TYPE:Support material
G1 F900
G1 X128.311 Y105.039 E.14946
G1 X128.639 Y105.053 E.01029
G1 X129.025 Y105.104 E.01221
G1 X130.588 Y105.451 E.0502
G1 X131.141 Y106.054 E.02567
G1 X132.25 Y106.761 E.04121
G1 X132.787 Y108.465 E.05604
G1 X132.692 Y109.005 E.0172
G1 X132.863 Y110.375 E.04327
G1 X132.711 Y111.129 E.02412
G1 X132.711 Y120.334 E.2886
G1 X132.74 Y120.422 E.00293
G1 X132.921 Y121.499 E.03422
G1 X131.811 Y125.061 E.117
G1 X129.834 Y125.677 E.06492
G1 X128.946 Y126.077 E.03053
G1 X127.856 Y125.994 E.03427
G1 X127.683 Y125.962 E.00554
G1 X123.38 Y125.96 E.1349
G1 X121.87 Y125.983 E.04735
G1 X120.456 Y123.857 E.08007
G1 X120.498 Y123.023 E.02617
G1 X120.416 Y122.471 E.01752
G1 X120.52 Y121.886 E.01862
G1 X120.541 Y121.216 E.02103
G1 X120.669 Y120.949 E.00927
G1 X120.653 Y120.729 E.00693
G1 X120.525 Y120.255 E.01539
G1 X120.596 Y119.663 E.01871
G1 X120.417 Y119.003 E.02143
G1 X120.791 Y117.212 E.05737
G1 X120.819 Y116.988 E.00709
G1 X120.542 Y116.673 E.01315
G1 X120.409 Y115.018 E.05205
G1 X120.447 Y114.711 E.00971
G1 X120.365 Y114.119 E.01872
G1 X120.684 Y113.229 E.02966
G1 X120.763 Y113.058 E.00589
G1 X120.801 Y112.873 E.00592
G1 X120.699 Y112.014 E.02715
G1 X120.75 Y111.71 E.00964
G1 X120.776 Y111.144 E.01777
G1 X120.733 Y110.111 E.03242
G1 X120.617 Y109.28 E.02629
G1 X120.675 Y108.989 E.00931
G1 X120.498 Y108.482 E.01682
G1 X120.487 Y104.905 E.11216
G1 X123.487 Y105.036 E.09417
G1 X132.469 Y122.38 F9000
G1 F900
G1 X132.469 Y109.978 E.38887
G1 X132.352 Y108.983 E.03139
G1 X132.439 Y108.488 E.01576
G1 X131.963 Y106.98 E.04957
G1 X131.526 Y106.702 E.01626
G1 X131.526 Y124.794 E.56728
G1 X130.583 Y125.088 E.03096
G1 X130.583 Y105.948 E.60013
G1 X130.41 Y105.759 E.00803
G1 X129.64 Y105.588 E.02472
G1 X129.64 Y125.392 E.62094
G1 X128.886 Y125.732 E.02595
G1 X128.698 Y125.717 E.00591
G1 X128.698 Y105.403 E.63694
G1 X128.304 Y105.378 E.01239
G1 X127.755 Y105.378 E.0172
G1 X127.755 Y125.631 E.635
G1 X126.812 Y125.623 E.02956
G1 X126.812 Y105.378 E.63476
G1 X125.87 Y105.378 E.02956
G1 X125.87 Y125.623 E.63475
G1 X124.927 Y125.623 E.02956
G1 X124.927 Y105.378 E.63475
G1 X123.984 Y105.378 E.02956
G1 X123.984 Y125.622 E.63474
G1 X123.042 Y125.626 E.02956
G1 X123.042 Y105.357 E.63552
G1 X122.099 Y105.315 E.02959
G1 X122.099 Y125.64 E.63727
G1 X122.05 Y125.641 E.00153
G1 X121.156 Y124.297 E.05061
G1 X121.156 Y105.104 E.60178
G1 E-2.8 F2700
;WIPE_START
G1 F7200
G1 X121.156 Y108.304 E-1.14
;WIPE_END
G1 E-.06 F2700
G1 X112.416 Y112.381 F9000
G1 E4 F2400
;TYPE:Perimeter
G1 F900
G1 X112.695 Y112.739 E.01424
G1 X112.926 Y113.103 E.01351
G1 X113.114 Y113.465 E.01279
G1 X113.275 Y113.853 E.01317
G1 X113.401 Y114.254 E.01317
G1 X113.492 Y114.664 E.01317
G1 X113.547 Y115.08 E.01317
G1 X113.565 Y115.5 E.01317
G1 X113.547 Y115.92 E.01317
G1 X113.492 Y116.336 E.01317
G1 X113.401 Y116.746 E.01317
G1 X113.275 Y117.147 E.01317
G1 X113.114 Y117.535 E.01317
G1 X112.92 Y117.908 E.01317
G1 X112.694 Y118.262 E.01317
G1 X112.439 Y118.595 E.01317
G1 X112.155 Y118.905 E.01317
G1 X111.845 Y119.189 E.01317
G1 X111.512 Y119.444 E.01317
G1 X111.158 Y119.67 E.01317
G1 X110.796 Y119.858 E.01279
G1 X110.398 Y120.024 E.01351
G1 X109.996 Y120.151 E.01321
G1 X109.586 Y120.242 E.01317
G1 X109.17 Y120.297 E.01317
G1 X108.75 Y120.315 E.01317
G1 X108.33 Y120.297 E.01317
G1 X107.914 Y120.242 E.01317
G1 X107.504 Y120.151 E.01317
G1 X107.102 Y120.024 E.01321
G1 X106.704 Y119.858 E.01351
G1 X106.342 Y119.67 E.01279
G1 X105.988 Y119.444 E.01317
G1 X105.655 Y119.189 E.01317
G1 X105.345 Y118.905 E.01317
G1 X105.061 Y118.595 E.01317
G1 X104.805 Y118.261 E.01321
G1 X104.574 Y117.897 E.01351
G1 X104.386 Y117.535 E.01279
G1 X104.225 Y117.147 E.01317
G1 X104.099 Y116.746 E.01317
G1 X104.008 Y116.336 E.01317
G1 X103.953 Y115.92 E.01317
G1 X103.935 Y115.5 E.01317
G1 X103.953 Y115.08 E.01317
G1 X104.008 Y114.664 E.01317
G1 X104.099 Y114.254 E.01317
G1 X104.225 Y113.853 E.01317
G1 X104.386 Y113.464 E.01321
G1 X104.586 Y113.082 E.01351
G1 X104.806 Y112.738 E.01279
G1 X105.061 Y112.405 E.01317
G1 X105.346 Y112.094 E.01321
G1 X105.664 Y111.804 E.01351
G1 X105.988 Y111.556 E.01279
G1 X106.342 Y111.33 E.01317
G1 X106.715 Y111.136 E.01317
G1 X107.103 Y110.975 E.01317
G1 X107.504 Y110.849 E.01317
G1 X107.915 Y110.758 E.01321
G1 X108.342 Y110.703 E.01351
G1 X108.75 Y110.685 E.01279
G1 X109.17 Y110.703 E.01317
G1 X109.586 Y110.758 E.01317
G1 X109.996 Y110.849 E.01317
G1 X110.397 Y110.975 E.01317
G1 X110.785 Y111.136 E.01317
G1 X111.158 Y111.33 E.01317
G1 X111.512 Y111.556 E.01317
G1 X111.845 Y111.811 E.01317
G1 X112.155 Y112.095 E.01317
G1 X112.376 Y112.336 E.01026
G1 X112.138 Y112.635 F9000
G1 F900
G1 X112.386 Y112.955 E.01268
G1 X112.599 Y113.291 E.01248
G1 X112.772 Y113.625 E.01178
G1 X112.92 Y113.982 E.01214
G1 X113.037 Y114.351 E.01214
G1 X113.12 Y114.729 E.01214
G1 X113.171 Y115.113 E.01214
G1 X113.188 Y115.5 E.01214
G1 X113.171 Y115.887 E.01214
G1 X113.12 Y116.271 E.01214
G1 X113.037 Y116.649 E.01214
G1 X112.92 Y117.018 E.01214
G1 X112.772 Y117.375 E.01214
G1 X112.593 Y117.719 E.01214
G1 X112.385 Y118.045 E.01214
G1 X112.15 Y118.353 E.01214
G1 X111.888 Y118.638 E.01214
G1 X111.603 Y118.9 E.01214
G1 X111.295 Y119.135 E.01214
G1 X110.969 Y119.343 E.01214
G1 X110.636 Y119.517 E.01178
G1 X110.269 Y119.67 E.01248
G1 X109.899 Y119.787 E.01216
G1 X109.521 Y119.87 E.01214
G1 X109.137 Y119.921 E.01214
G1 X108.75 Y119.938 E.01214
G1 X108.363 Y119.921 E.01214
G1 X107.979 Y119.87 E.01214
G1 X107.601 Y119.787 E.01214
G1 X107.231 Y119.67 E.01216
G1 X106.864 Y119.517 E.01248
G1 X106.531 Y119.343 E.01178
G1 X106.205 Y119.135 E.01214
G1 X105.897 Y118.9 E.01214
G1 X105.612 Y118.638 E.01214
G1 X105.351 Y118.353 E.01214
G1 X105.114 Y118.045 E.01216
G1 X104.901 Y117.709 E.01248
G1 X104.728 Y117.375 E.01178
G1 X104.58 Y117.018 E.01214
G1 X104.463 Y116.649 E.01214
G1 X104.38 Y116.271 E.01214
G1 X104.329 Y115.887 E.01214
G1 X104.312 Y115.5 E.01214
G1 X104.329 Y115.113 E.01214
G1 X104.38 Y114.729 E.01214
G1 X104.463 Y114.351 E.01214
G1 X104.58 Y113.982 E.01214
G1 X104.728 Y113.624 E.01216
G1 X104.913 Y113.271 E.01248
G1 X105.115 Y112.955 E.01178
G1 X105.35 Y112.647 E.01214
G1 X105.613 Y112.361 E.01216
G1 X105.907 Y112.093 E.01248
G1 X106.205 Y111.865 E.01178
G1 X106.531 Y111.657 E.01214
G1 X106.875 Y111.478 E.01214
G1 X107.232 Y111.33 E.01214
G1 X107.601 Y111.213 E.01214
G1 X107.98 Y111.13 E.01216
G1 X108.375 Y111.079 E.01248
G1 X108.75 Y111.062 E.01178
G1 X109.137 Y111.079 E.01214
G1 X109.521 Y111.13 E.01214
G1 X109.899 Y111.213 E.01214
G1 X110.268 Y111.33 E.01214
G1 X110.625 Y111.478 E.01214
G1 X110.969 Y111.657 E.01214
G1 X111.295 Y111.865 E.01214
G1 X111.603 Y112.1 E.01214
G1 X111.888 Y112.362 E.01214
G1 X112.098 Y112.591 E.00974
G1 X111.86 Y112.89 F9000
;TYPE:External perimeter
G1 F900
G1 X112.076 Y113.171 E.01111
G1 X112.271 Y113.48 E.01144
G1 X112.43 Y113.784 E.01076
G1 X112.565 Y114.111 E.01111
G1 X112.672 Y114.449 E.01111
G1 X112.749 Y114.795 E.01111
G1 X112.795 Y115.146 E.01111
G1 X112.81 Y115.5 E.01111
G1 X112.795 Y115.854 E.01111
G1 X112.749 Y116.205 E.01111
G1 X112.672 Y116.551 E.01111
G1 X112.565 Y116.889 E.01111
G1 X112.43 Y117.216 E.01111
G1 X112.266 Y117.53 E.01111
G1 X112.076 Y117.829 E.01111
G1 X111.86 Y118.11 E.01111
G1 X111.621 Y118.371 E.01111
G1 X111.36 Y118.61 E.01111
G1 X111.079 Y118.826 E.01111
G1 X110.78 Y119.016 E.01111
G1 X110.476 Y119.175 E.01076
G1 X110.139 Y119.315 E.01144
G1 X109.801 Y119.422 E.01111
G1 X109.455 Y119.499 E.01111
G1 X109.104 Y119.545 E.01111
G1 X108.75 Y119.56 E.01111
G1 X108.396 Y119.545 E.01111
G1 X108.045 Y119.499 E.01111
G1 X107.699 Y119.422 E.01111
G1 X107.361 Y119.315 E.01112
G1 X107.024 Y119.175 E.01144
G1 X106.72 Y119.016 E.01076
G1 X106.421 Y118.826 E.01111
G1 X106.14 Y118.61 E.01111
G1 X105.879 Y118.371 E.01111
G1 X105.64 Y118.11 E.01111
G1 X105.424 Y117.829 E.01111
G1 X105.229 Y117.52 E.01144
G1 X105.07 Y117.216 E.01076
G1 X104.935 Y116.889 E.01111
G1 X104.828 Y116.551 E.01111
G1 X104.751 Y116.205 E.01111
G1 X104.705 Y115.854 E.01111
G1 X104.69 Y115.5 E.01111
G1 X104.705 Y115.146 E.01111
G1 X104.751 Y114.795 E.01111
G1 X104.828 Y114.449 E.01111
G1 X104.935 Y114.111 E.01111
G1 X105.07 Y113.784 E.01111
G1 X105.24 Y113.461 E.01144
G1 X105.424 Y113.171 E.01076
G1 X105.64 Y112.89 E.01111
G1 X105.879 Y112.629 E.01112
G1 X106.149 Y112.383 E.01144
G1 X106.421 Y112.174 E.01076
G1 X106.72 Y111.984 E.01111
G1 X107.034 Y111.82 E.01111
G1 X107.361 Y111.685 E.01111
G1 X107.699 Y111.578 E.01111
G1 X108.045 Y111.501 E.01112
G1 X108.407 Y111.455 E.01144
G1 X108.75 Y111.44 E.01076
G1 X109.104 Y111.455 E.01111
G1 X109.455 Y111.501 E.01111
G1 X109.801 Y111.578 E.01111
G1 X110.139 Y111.685 E.01111
G1 X110.466 Y111.82 E.01111
G1 X110.78 Y111.984 E.01111
G1 X111.079 Y112.174 E.01111
G1 X111.36 Y112.39 E.01111
G1 X111.621 Y112.629 E.01111
G1 X111.82 Y112.846 E.00922
G1 X112.209 Y112.829 F9000
G1 E-2.8 F2700
;WIPE_START
G1 F7200
G1 X112.076 Y113.171 E-.14759
G1 X112.271 Y113.48 E-.13001
G1 X112.43 Y113.784 E-.12225
G1 X112.565 Y114.111 E-.12619
G1 X112.672 Y114.449 E-.12619
G1 X112.749 Y114.795 E-.12619
G1 X112.795 Y115.146 E-.12619
G1 X112.81 Y115.5 E-.12619
G1 X112.797 Y115.806 E-.1092
;WIPE_END
G1 E-.06 F2700
G1 X115.511 Y109.12 F9000
G1 E4 F2400
;TYPE:Perimeter
G1 F900
G1 X115.903 Y109.438 E.01585
G1 X116.393 Y109.913 E.02139
G1 X116.843 Y110.429 E.02146
G1 X117.226 Y110.952 E.02031
G1 X117.605 Y111.567 E.02266
G1 X117.91 Y112.178 E.0214
G1 X118.163 Y112.813 E.02146
G1 X118.352 Y113.433 E.02032
G1 X118.506 Y114.139 E.02266
G1 X118.592 Y114.816 E.0214
G1 X118.621 Y115.5 E.02146
G1 X118.592 Y116.184 E.02146
G1 X118.51 Y116.827 E.02032
G1 X118.362 Y117.534 E.02266
G1 X118.163 Y118.187 E.0214
G1 X117.91 Y118.822 E.02146
G1 X117.604 Y119.434 E.02146
G1 X117.247 Y120.019 E.02146
G1 X116.843 Y120.571 E.02146
G1 X116.393 Y121.087 E.02146
G1 X115.903 Y121.562 E.02142
G1 X115.51 Y121.883 E.0159
G1 X115.099 Y121.85 E.01292
G1 X114.403 Y121.851 E.02182
G1 X114.096 Y121.87 E.00963
G1 X108.773 Y121.871 E.16689
G1 X108.195 Y121.845 E.01815
G1 X107.644 Y121.773 E.01742
G1 X107.101 Y121.653 E.01742
G1 X106.571 Y121.485 E.01742
G1 X106.058 Y121.273 E.01742
G1 X105.565 Y121.016 E.01742
G1 X105.097 Y120.718 E.01742
G1 X104.656 Y120.379 E.01742
G1 X104.246 Y120.004 E.01742
G1 X103.871 Y119.594 E.01742
G1 X103.532 Y119.153 E.01742
G1 X103.234 Y118.685 E.01742
G1 X102.977 Y118.192 E.01742
G1 X102.765 Y117.679 E.01742
G1 X102.597 Y117.149 E.01742
G1 X102.477 Y116.606 E.01742
G1 X102.405 Y116.055 E.01742
G1 X102.38 Y115.5 E.01742
G1 X102.405 Y114.945 E.01742
G1 X102.477 Y114.394 E.01742
G1 X102.597 Y113.851 E.01742
G1 X102.765 Y113.321 E.01742
G1 X102.942 Y112.894 E.01452
G1 X103.237 Y112.31 E.02049
G1 X103.532 Y111.847 E.01725
G1 X103.871 Y111.406 E.01742
G1 X104.246 Y110.996 E.01742
G1 X104.656 Y110.621 E.01742
G1 X105.092 Y110.286 E.01725
G1 X105.647 Y109.941 E.02049
G1 X106.058 Y109.727 E.01452
G1 X106.571 Y109.515 E.01742
G1 X107.101 Y109.347 E.01742
G1 X107.644 Y109.227 E.01742
G1 X108.195 Y109.155 E.01742
G1 X108.773 Y109.129 E.01815
G1 X114.104 Y109.129 E.16713
G1 X114.62 Y109.152 E.0162
G1 X115.26 Y109.149 E.02006
G1 X115.32 Y109.128 E.00202
G1 X115.451 Y109.122 E.0041
G1 X115.638 Y108.737 F9000
G1 F900
G1 X116.154 Y109.156 E.02083
G1 X116.667 Y109.654 E.02242
G1 X117.138 Y110.194 E.02246
G1 X117.539 Y110.741 E.02129
G1 X117.934 Y111.384 E.02365
G1 X118.254 Y112.023 E.02242
G1 X118.519 Y112.688 E.02245
G1 X118.717 Y113.338 E.02129
G1 X118.878 Y114.075 E.02365
G1 X118.968 Y114.784 E.02242
G1 X118.998 Y115.5 E.02245
G1 X118.968 Y116.216 E.02245
G1 X118.882 Y116.889 E.02129
G1 X118.727 Y117.627 E.02365
G1 X118.519 Y118.311 E.02242
G1 X118.254 Y118.977 E.02245
G1 X117.934 Y119.617 E.02245
G1 X117.561 Y120.229 E.02246
G1 X117.138 Y120.806 E.02245
G1 X116.667 Y121.346 E.02245
G1 X116.154 Y121.844 E.02243
G1 X115.652 Y122.253 E.02029
G1 X115.574 Y122.266 E.00246
G1 X115.084 Y122.227 E.01542
G1 X114.415 Y122.228 E.02098
G1 X114.108 Y122.248 E.00964
G1 X108.765 Y122.248 E.16753
G1 X108.162 Y122.221 E.01893
G1 X107.578 Y122.145 E.01845
G1 X107.004 Y122.017 E.01846
G1 X106.442 Y121.84 E.01845
G1 X105.899 Y121.615 E.01845
G1 X105.376 Y121.343 E.01846
G1 X104.88 Y121.027 E.01846
G1 X104.413 Y120.669 E.01845
G1 X103.979 Y120.271 E.01845
