; generated by PrusaSlicer 2.4.0+linux-x64-GTK3 on 2022-07-04 at 16:21:10 UTC

; 

; external perimeters extrusion width = 0.45mm
; perimeters extrusion width = 0.45mm
; infill extrusion width = 0.45mm
; solid infill extrusion width = 0.45mm
; top infill extrusion width = 0.40mm
; support material extrusion width = 0.38mm
; first layer extrusion width = 0.42mm

M201 X500 Y500 Z100 E5000 ; sets maximum accelerations, mm/sec^2
M203 X500 Y500 Z10 E60 ; sets maximum feedrates, mm/sec
M204 P500 R1000 T500 ; sets acceleration (P, T) and retract acceleration (R), mm/sec^2
M205 X8.00 Y8.00 Z0.40 E5.00 ; sets the jerk limits, mm/sec
M205 S0 T0 ; sets the minimum extruding and travel feed rate, mm/sec
M107
;TYPE:Custom
G90 ; use absolute coordinates
M83 ; extruder relative mode
M140 S50 ; set final bed temp
M104 S150 ; set temporary nozzle temp to prevent oozing during homing and auto bed leveling
G4 S10 ; allow partial nozzle warmup
G28 ; home all axis
G29 ; auto bed levelling
G1 Z50 F240
G1 X2 Y10 F3000
M104 S205 ; set final nozzle temp
M190 S50 ; wait for bed temp to stabilize
M109 S205 ; wait for nozzle temp to stabilize
G1 Z0.28 F240
G92 E0
G1 Y140 E10 F1500 ; prime the nozzle
G1 X2.3 F5000
G92 E0
G1 Y10 E10 F1200 ; prime the nozzle
G92 E0
G21 ; set units to millimeters
G90 ; use absolute coordinates
M83 ; use relative distances for extrusion
; Filament gcode
M107
;LAYER_CHANGE
;Z:0.2
;HEIGHT:0.2
;BEFORE_LAYER_CHANGE
G92 E0
;0.2


G1 E-5 F3600
G1 Z.2 F9000
;AFTER_LAYER_CHANGE
;0.2
G1 X83.607 Y107.703
G1 E5 F2400
M204 S500
;TYPE:Skirt/Brim
;WIDTH:0.42
G1 F1200
G1 X85.5 Y107.123 E.05959
G1 X145.5 Y107.123 E1.80601
G1 X147.083 Y107.517 E.04911
G1 X148.297 Y108.607 E.04911
G1 X148.877 Y110.5 E.05959
G1 X148.877 Y120.5 E.301
G1 X148.483 Y122.083 E.04911
G1 X147.393 Y123.297 E.04911
G1 X145.5 Y123.877 E.05959
G1 X85.5 Y123.877 E1.80601
G1 X83.917 Y123.483 E.04911
G1 X82.703 Y122.393 E.04911
G1 X82.123 Y120.5 E.05959
G1 X82.123 Y110.5 E.301
G1 X82.517 Y108.917 E.04911
G1 X83.567 Y107.748 E.0473
; printing object MonsterBeetleParts-ServoHolder.stl id:0 copy 0
G1 E-3.5 F3600
;WIPE_START
G1 F7200
G1 X85.5 Y107.123 E-.96489
G1 X86.469 Y107.123 E-.46011
;WIPE_END
G1 E-.075 F3600
G1 X120.935 Y113.8 F9000
G1 E5 F2400
;TYPE:Perimeter
G1 F1200
G1 X121.01 Y113.724 E.0032
G1 X121.358 Y113.48 E.0128
G1 X121.879 Y113.265 E.01697
G1 X122.298 Y113.191 E.0128
G1 X122.702 Y113.191 E.01216
G1 X123.1 Y113.261 E.01216
G1 X123.5 Y113.407 E.0128
G1 X123.993 Y113.721 E.01761
G1 X124.388 Y114.152 E.01761
G1 X124.601 Y114.52 E.0128
G1 X124.739 Y114.9 E.01216
G1 X124.809 Y115.298 E.01216
G1 X124.809 Y115.702 E.01216
G1 X124.739 Y116.1 E.01216
G1 X124.593 Y116.5 E.0128
G1 X124.291 Y116.975 E.01697
G1 X123.99 Y117.276 E.0128
G1 X123.659 Y117.507 E.01216
G1 X123.274 Y117.687 E.0128
G1 X122.702 Y117.814 E.01761
G1 X122.118 Y117.788 E.01761
G1 X121.707 Y117.678 E.0128
G1 X121.341 Y117.507 E.01216
G1 X120.993 Y117.263 E.0128
G1 X120.612 Y116.848 E.01697
G1 X120.399 Y116.48 E.0128
G1 X120.261 Y116.1 E.01216
G1 X120.191 Y115.702 E.01216
G1 X120.191 Y115.298 E.01216
G1 X120.261 Y114.9 E.01216
G1 X120.407 Y114.5 E.0128
G1 X120.709 Y114.025 E.01697
G1 X120.892 Y113.842 E.0078
G1 X120.984 Y114.296 F9000
G1 F1200
G1 X121.253 Y114.014 E.01174
G1 X121.541 Y113.813 E.01056
G1 X121.985 Y113.629 E.01448
G1 X122.331 Y113.568 E.01057
G1 X122.669 Y113.568 E.01018
G1 X123.002 Y113.627 E.01018
G1 X123.332 Y113.747 E.01056
G1 X123.748 Y114.012 E.01487
G1 X124.082 Y114.376 E.01487
G1 X124.258 Y114.68 E.01056
G1 X124.373 Y114.998 E.01018
G1 X124.432 Y115.331 E.01018
G1 X124.432 Y115.669 E.01018
G1 X124.373 Y116.002 E.01018
G1 X124.253 Y116.332 E.01057
G1 X123.995 Y116.737 E.01448
G1 X123.747 Y116.986 E.01057
G1 X123.47 Y117.18 E.01018
G1 X123.152 Y117.328 E.01057
G1 X122.669 Y117.435 E.01487
G1 X122.176 Y117.413 E.01487
G1 X121.837 Y117.322 E.01056
G1 X121.53 Y117.18 E.01018
G1 X121.243 Y116.978 E.01056
G1 X120.918 Y116.624 E.01448
G1 X120.742 Y116.32 E.01056
G1 X120.627 Y116.002 E.01018
G1 X120.568 Y115.669 E.01018
G1 X120.568 Y115.331 E.01018
G1 X120.627 Y114.998 E.01018
G1 X120.747 Y114.668 E.01057
G1 X120.952 Y114.347 E.01148
G1 X121.087 Y114.836 F9000
;TYPE:External perimeter
G1 F1200
G1 X121.301 Y114.5 E.01199
G1 X121.497 Y114.304 E.00833
G1 X121.723 Y114.146 E.00833
G1 X122.091 Y113.993 E.01199
G1 X122.364 Y113.945 E.00833
G1 X122.636 Y113.945 E.00819
G1 X122.904 Y113.992 E.00819
G1 X123.164 Y114.087 E.00833
G1 X123.504 Y114.304 E.01213
G1 X123.776 Y114.601 E.01213
G1 X123.915 Y114.84 E.00833
G1 X124.008 Y115.096 E.00819
G1 X124.055 Y115.364 E.00819
G1 X124.055 Y115.636 E.00819
G1 X124.008 Y115.904 E.00819
G1 X123.913 Y116.164 E.00833
G1 X123.699 Y116.5 E.01199
G1 X123.503 Y116.696 E.00833
G1 X123.28 Y116.852 E.00819
G1 X123.03 Y116.969 E.00833
G1 X122.636 Y117.056 E.01213
G1 X122.233 Y117.038 E.01213
G1 X121.966 Y116.967 E.00833
G1 X121.72 Y116.852 E.00819
G1 X121.493 Y116.693 E.00833
G1 X121.224 Y116.399 E.01199
G1 X121.085 Y116.16 E.00833
G1 X120.992 Y115.904 E.00819
G1 X120.945 Y115.636 E.00819
G1 X120.945 Y115.364 E.00819
G1 X120.992 Y115.096 E.00819
G1 X121.066 Y114.892 E.00652
G1 X120.868 Y114.503 F9000
G1 E-3.5 F3600
;WIPE_START
G1 F7200
G1 X121.301 Y114.5 E-.21717
G1 X121.497 Y114.304 E-.13144
G1 X121.723 Y114.146 E-.13144
G1 X122.091 Y113.993 E-.18926
G1 X122.364 Y113.945 E-.13144
G1 X122.636 Y113.945 E-.12923
G1 X122.904 Y113.992 E-.12925
G1 X123.164 Y114.087 E-.13143
G1 X123.504 Y114.304 E-.19147
G1 X123.565 Y114.37 E-.04288
;WIPE_END
G1 E-.075 F3600
G1 X130.374 Y114.59 F9000
G1 E5 F2400
;TYPE:Perimeter
G1 F1200
G1 X130.407 Y114.5 E.00287
G1 X130.709 Y114.025 E.01697
G1 X131.025 Y113.709 E.01344
G1 X131.5 Y113.407 E.01696
G1 X131.9 Y113.261 E.0128
G1 X132.298 Y113.191 E.01216
G1 X132.702 Y113.191 E.01216
G1 X133.121 Y113.265 E.0128
G1 X133.642 Y113.48 E.01697
G1 X134.007 Y113.737 E.01344
G1 X134.388 Y114.152 E.01697
G1 X134.601 Y114.52 E.0128
G1 X134.739 Y114.9 E.01216
G1 X134.809 Y115.298 E.01216
G1 X134.809 Y115.702 E.01216
G1 X134.739 Y116.1 E.01216
G1 X134.593 Y116.5 E.0128
G1 X134.291 Y116.975 E.01696
G1 X133.975 Y117.291 E.01344
G1 X133.5 Y117.594 E.01697
G1 X133.1 Y117.739 E.0128
G1 X132.681 Y117.813 E.0128
G1 X132.118 Y117.788 E.01697
G1 X131.707 Y117.678 E.0128
G1 X131.341 Y117.507 E.01216
G1 X130.993 Y117.263 E.0128
G1 X130.612 Y116.848 E.01697
G1 X130.399 Y116.48 E.0128
G1 X130.261 Y116.1 E.01216
G1 X130.191 Y115.702 E.01216
G1 X130.191 Y115.298 E.01216
G1 X130.261 Y114.9 E.01216
G1 X130.353 Y114.646 E.00813
G1 X130.637 Y114.971 F9000
G1 F1200
G1 X130.747 Y114.668 E.00969
G1 X131.005 Y114.263 E.01448
G1 X131.263 Y114.005 E.01095
G1 X131.668 Y113.747 E.01448
G1 X131.998 Y113.627 E.01057
G1 X132.331 Y113.568 E.01018
G1 X132.669 Y113.568 E.01018
G1 X133.015 Y113.629 E.01057
G1 X133.459 Y113.813 E.01448
G1 X133.757 Y114.022 E.01095
G1 X134.082 Y114.376 E.01448
G1 X134.258 Y114.68 E.01056
G1 X134.373 Y114.998 E.01018
G1 X134.432 Y115.331 E.01018
G1 X134.432 Y115.669 E.01018
G1 X134.373 Y116.002 E.01018
G1 X134.253 Y116.332 E.01057
G1 X133.995 Y116.737 E.01448
G1 X133.737 Y116.995 E.01095
G1 X133.332 Y117.253 E.01448
G1 X133.002 Y117.373 E.01057
G1 X132.656 Y117.434 E.01056
G1 X132.176 Y117.413 E.01448
G1 X131.837 Y117.322 E.01056
G1 X131.53 Y117.18 E.01018
G1 X131.243 Y116.978 E.01056
G1 X130.918 Y116.624 E.01448
G1 X130.742 Y116.32 E.01056
G1 X130.627 Y116.002 E.01018
G1 X130.568 Y115.669 E.01018
G1 X130.568 Y115.331 E.01018
G1 X130.621 Y115.029 E.00924
G1 X130.945 Y115.364 F9000
;TYPE:External perimeter
G1 F1200
G1 X130.992 Y115.096 E.00819
G1 X131.087 Y114.836 E.00833
G1 X131.301 Y114.5 E.01199
G1 X131.5 Y114.301 E.00847
G1 X131.836 Y114.087 E.01199
G1 X132.096 Y113.992 E.00833
G1 X132.364 Y113.945 E.00819
G1 X132.636 Y113.945 E.00819
G1 X132.909 Y113.993 E.00833
G1 X133.277 Y114.146 E.01199
G1 X133.507 Y114.307 E.00847
G1 X133.776 Y114.601 E.01199
G1 X133.915 Y114.84 E.00833
G1 X134.008 Y115.096 E.00819
G1 X134.055 Y115.364 E.00819
G1 X134.055 Y115.636 E.00819
G1 X134.008 Y115.904 E.00819
G1 X133.913 Y116.164 E.00833
G1 X133.699 Y116.5 E.01199
G1 X133.5 Y116.699 E.00847
G1 X133.164 Y116.913 E.01199
G1 X132.904 Y117.008 E.00833
G1 X132.631 Y117.056 E.00833
G1 X132.233 Y117.038 E.01199
G1 X131.966 Y116.967 E.00833
G1 X131.72 Y116.852 E.00819
G1 X131.493 Y116.693 E.00833
G1 X131.224 Y116.399 E.01199
G1 X131.085 Y116.16 E.00833
G1 X130.992 Y115.904 E.00819
G1 X130.945 Y115.636 E.00819
G1 X130.945 Y115.424 E.00638
G1 X130.722 Y115.208 F9000
G1 E-3.5 F3600
;WIPE_START
G1 F7200
G1 X130.992 Y115.096 E-.15739
G1 X131.087 Y114.836 E-.13144
G1 X131.301 Y114.5 E-.18926
G1 X131.5 Y114.301 E-.13364
G1 X131.836 Y114.087 E-.18925
G1 X132.096 Y113.992 E-.13144
G1 X132.364 Y113.945 E-.12924
G1 X132.636 Y113.945 E-.12923
G1 X132.909 Y113.993 E-.13144
G1 X133.108 Y114.076 E-.10267
;WIPE_END
G1 E-.075 F3600
G1 X110.748 Y116.031 F9000
G1 E5 F2400
;TYPE:Perimeter
G1 F1200
G1 X110.678 Y116.293 E.00817
G1 X110.507 Y116.659 E.01216
G1 X110.276 Y116.99 E.01216
G1 X109.99 Y117.276 E.01216
G1 X109.659 Y117.507 E.01216
G1 X109.274 Y117.687 E.0128
G1 X108.702 Y117.814 E.01761
G1 X108.118 Y117.788 E.01761
G1 X107.707 Y117.678 E.0128
G1 X107.341 Y117.507 E.01216
G1 X107.01 Y117.276 E.01216
G1 X106.709 Y116.975 E.0128
G1 X106.407 Y116.5 E.01697
G1 X106.261 Y116.1 E.0128
G1 X106.187 Y115.681 E.0128
G1 X106.212 Y115.118 E.01697
G1 X106.322 Y114.707 E.0128
G1 X106.493 Y114.341 E.01216
G1 X106.724 Y114.01 E.01216
G1 X107.01 Y113.724 E.01216
G1 X107.358 Y113.48 E.0128
G1 X107.879 Y113.265 E.01697
G1 X108.298 Y113.191 E.0128
G1 X108.702 Y113.191 E.01216
G1 X109.121 Y113.265 E.0128
G1 X109.642 Y113.48 E.01697
G1 X109.99 Y113.724 E.0128
G1 X110.291 Y114.025 E.0128
G1 X110.593 Y114.5 E.01697
G1 X110.739 Y114.9 E.0128
G1 X110.813 Y115.319 E.0128
G1 X110.788 Y115.882 E.01696
G1 X110.764 Y115.973 E.00282
G1 X110.415 Y115.785 F9000
G1 F1200
G1 X110.322 Y116.163 E.01174
G1 X110.18 Y116.47 E.01018
G1 X109.986 Y116.747 E.01018
G1 X109.747 Y116.986 E.01018
G1 X109.47 Y117.18 E.01018
G1 X109.152 Y117.328 E.01057
G1 X108.669 Y117.435 E.01487
G1 X108.176 Y117.413 E.01487
G1 X107.837 Y117.322 E.01056
G1 X107.53 Y117.18 E.01018
G1 X107.253 Y116.986 E.01018
G1 X107.005 Y116.737 E.01057
G1 X106.747 Y116.332 E.01448
G1 X106.627 Y116.002 E.01057
G1 X106.566 Y115.656 E.01056
G1 X106.587 Y115.176 E.01448
G1 X106.678 Y114.837 E.01057
G1 X106.82 Y114.53 E.01018
G1 X107.014 Y114.253 E.01018
G1 X107.253 Y114.014 E.01018
G1 X107.541 Y113.813 E.01056
G1 X107.985 Y113.629 E.01448
G1 X108.331 Y113.568 E.01057
G1 X108.669 Y113.568 E.01018
G1 X109.015 Y113.629 E.01057
G1 X109.459 Y113.813 E.01448
G1 X109.747 Y114.014 E.01056
G1 X109.995 Y114.263 E.01056
G1 X110.253 Y114.668 E.01448
G1 X110.373 Y114.998 E.01057
G1 X110.434 Y115.344 E.01056
G1 X110.418 Y115.725 E.01148
G1 X110.056 Y115.369 F9000
;TYPE:External perimeter
G1 F1200
G1 X110.038 Y115.767 E.01199
G1 X109.967 Y116.034 E.00833
G1 X109.852 Y116.28 E.00819
G1 X109.696 Y116.503 E.00819
G1 X109.503 Y116.696 E.00819
G1 X109.28 Y116.852 E.00819
G1 X109.03 Y116.969 E.00833
G1 X108.636 Y117.056 E.01213
G1 X108.233 Y117.038 E.01213
G1 X107.966 Y116.967 E.00833
G1 X107.72 Y116.852 E.00819
G1 X107.497 Y116.696 E.00819
G1 X107.301 Y116.5 E.00833
G1 X107.087 Y116.164 E.01199
G1 X106.992 Y115.904 E.00833
G1 X106.944 Y115.631 E.00833
G1 X106.962 Y115.233 E.01199
G1 X107.033 Y114.966 E.00833
G1 X107.148 Y114.72 E.00819
G1 X107.304 Y114.497 E.00819
G1 X107.497 Y114.304 E.00819
G1 X107.723 Y114.146 E.00833
G1 X108.091 Y113.993 E.01199
G1 X108.364 Y113.945 E.00833
G1 X108.636 Y113.945 E.00819
G1 X108.909 Y113.993 E.00833
G1 X109.277 Y114.146 E.01199
G1 X109.503 Y114.304 E.00833
G1 X109.699 Y114.5 E.00833
G1 X109.913 Y114.836 E.01199
G1 X110.008 Y115.096 E.00833
G1 X110.045 Y115.309 E.00652
G1 X110.412 Y115.547 F9000
G1 E-3.5 F3600
;WIPE_START
G1 F7200
G1 X110.038 Y115.767 E-.21717
G1 X109.967 Y116.034 E-.13144
G1 X109.852 Y116.28 E-.12925
G1 X109.696 Y116.503 E-.12923
G1 X109.503 Y116.696 E-.12925
G1 X109.28 Y116.852 E-.12923
G1 X109.03 Y116.969 E-.13144
G1 X108.636 Y117.056 E-.19147
G1 X108.233 Y117.038 E-.19147
G1 X108.142 Y117.014 E-.04506
;WIPE_END
G1 E-.075 F3600
G1 X100.707 Y116.186 F9000
G1 E5 F2400
;TYPE:Perimeter
G1 F1200
G1 X100.678 Y116.293 E.00334
G1 X100.507 Y116.659 E.01216
G1 X100.276 Y116.99 E.01216
G1 X99.99 Y117.276 E.01216
G1 X99.659 Y117.507 E.01216
G1 X99.274 Y117.687 E.0128
G1 X98.702 Y117.814 E.01761
G1 X98.118 Y117.788 E.01761
G1 X97.707 Y117.678 E.0128
G1 X97.341 Y117.507 E.01216
G1 X96.993 Y117.263 E.0128
G1 X96.612 Y116.848 E.01696
G1 X96.399 Y116.48 E.0128
G1 X96.261 Y116.1 E.01216
G1 X96.191 Y115.702 E.01216
G1 X96.191 Y115.277 E.0128
G1 X96.313 Y114.726 E.01697
G1 X96.493 Y114.341 E.0128
G1 X96.724 Y114.01 E.01216
G1 X97.01 Y113.724 E.01216
G1 X97.358 Y113.48 E.0128
G1 X97.879 Y113.265 E.01697
G1 X98.298 Y113.191 E.0128
G1 X98.702 Y113.191 E.01216
G1 X99.121 Y113.265 E.0128
G1 X99.642 Y113.48 E.01697
G1 X99.99 Y113.724 E.0128
G1 X100.276 Y114.01 E.01216
G1 X100.507 Y114.341 E.01216
G1 X100.687 Y114.726 E.0128
G1 X100.814 Y115.298 E.01761
G1 X100.788 Y115.882 E.01761
G1 X100.722 Y116.128 E.00766
G1 X100.415 Y115.78 F9000
G1 F1200
G1 X100.322 Y116.163 E.01187
G1 X100.18 Y116.47 E.01018
G1 X99.986 Y116.747 E.01018
G1 X99.747 Y116.986 E.01018
G1 X99.47 Y117.18 E.01018
G1 X99.152 Y117.328 E.01057
G1 X98.669 Y117.435 E.01487
G1 X98.176 Y117.413 E.01487
G1 X97.837 Y117.322 E.01056
G1 X97.53 Y117.18 E.01018
G1 X97.243 Y116.978 E.01057
G1 X96.918 Y116.624 E.01448
G1 X96.742 Y116.32 E.01056
G1 X96.627 Y116.002 E.01018
G1 X96.568 Y115.669 E.01018
G1 X96.568 Y115.318 E.01056
G1 X96.672 Y114.848 E.01448
G1 X96.82 Y114.53 E.01057
G1 X97.014 Y114.253 E.01018
G1 X97.253 Y114.014 E.01018
G1 X97.541 Y113.813 E.01056
G1 X97.985 Y113.629 E.01448
G1 X98.331 Y113.568 E.01057
G1 X98.669 Y113.568 E.01018
G1 X99.015 Y113.629 E.01057
G1 X99.459 Y113.813 E.01448
G1 X99.747 Y114.014 E.01057
G1 X99.986 Y114.253 E.01018
G1 X100.18 Y114.53 E.01018
G1 X100.328 Y114.848 E.01056
G1 X100.435 Y115.331 E.01487
G1 X100.418 Y115.72 E.01173
G1 X100.056 Y115.364 F9000
;TYPE:External perimeter
G1 F1200
G1 X100.038 Y115.767 E.01213
G1 X99.967 Y116.034 E.00833
G1 X99.852 Y116.28 E.00819
G1 X99.696 Y116.503 E.00819
G1 X99.503 Y116.696 E.00819
G1 X99.28 Y116.852 E.00819
G1 X99.03 Y116.969 E.00833
G1 X98.636 Y117.056 E.01213
G1 X98.233 Y117.038 E.01213
G1 X97.966 Y116.967 E.00833
G1 X97.72 Y116.852 E.00819
G1 X97.493 Y116.693 E.00833
G1 X97.224 Y116.399 E.01199
G1 X97.085 Y116.16 E.00833
G1 X96.992 Y115.904 E.00819
G1 X96.945 Y115.636 E.00819
G1 X96.945 Y115.359 E.00833
G1 X97.031 Y114.97 E.01199
G1 X97.148 Y114.72 E.00833
G1 X97.304 Y114.497 E.00819
G1 X97.497 Y114.304 E.00819
G1 X97.723 Y114.146 E.00833
G1 X98.091 Y113.993 E.01199
G1 X98.364 Y113.945 E.00833
G1 X98.636 Y113.945 E.00819
G1 X98.909 Y113.993 E.00833
G1 X99.277 Y114.146 E.01199
G1 X99.503 Y114.304 E.00833
G1 X99.696 Y114.497 E.00819
G1 X99.852 Y114.72 E.00819
G1 X99.969 Y114.97 E.00833
G1 X100.043 Y115.305 E.01033
G1 X100.416 Y115.538 F9000
G1 E-3.5 F3600
;WIPE_START
G1 F7200
G1 X100.038 Y115.767 E-.21912
G1 X99.967 Y116.034 E-.13144
G1 X99.852 Y116.28 E-.12925
G1 X99.696 Y116.503 E-.12923
G1 X99.503 Y116.696 E-.12924
G1 X99.28 Y116.852 E-.12924
G1 X99.03 Y116.969 E-.13144
G1 X98.636 Y117.056 E-.19147
G1 X98.233 Y117.038 E-.19147
G1 X98.146 Y117.015 E-.04311
;WIPE_END
G1 E-.075 F3600
G1 X87.364 Y111.564 F9000
G1 E5 F2400
;TYPE:Perimeter
G1 F1200
G1 X144.436 Y111.564 E1.71786
G1 X144.436 Y119.436 E.23694
G1 X86.564 Y119.436 E1.74195
G1 X86.564 Y111.564 E.23694
G1 X87.304 Y111.564 E.02227
G1 X86.587 Y111.187 F9000
G1 F1200
G1 X144.813 Y111.187 E1.75261
G1 X144.813 Y119.813 E.25964
G1 X86.187 Y119.813 E1.76465
G1 X86.187 Y111.187 E.25964
G1 X86.527 Y111.187 E.01023
G1 X85.81 Y110.81 F9000
;TYPE:External perimeter
G1 F1200
G1 X145.19 Y110.81 E1.78735
G1 X145.19 Y120.19 E.28234
G1 X85.81 Y120.19 E1.78735
G1 X85.81 Y110.87 E.28053
G1 X86.209 Y110.831 F9000
G1 E-3.5 F3600
;WIPE_START
G1 F7200
