; generated by PrusaSlicer 2.4.0+linux-x64-GTK3 on 2022-08-07 at 17:29:44 UTC

; 

; external perimeters extrusion width = 0.45mm
; perimeters extrusion width = 0.45mm
; infill extrusion width = 0.45mm
; solid infill extrusion width = 0.45mm
; top infill extrusion width = 0.45mm
; support material extrusion width = 0.38mm
; first layer extrusion width = 0.42mm

M201 X500 Y500 Z100 E5000 ; sets maximum accelerations, mm/sec^2
M203 X500 Y500 Z10 E60 ; sets maximum feedrates, mm/sec
M204 P500 R1000 T500 ; sets acceleration (P, T) and retract acceleration (R), mm/sec^2
M205 X8.00 Y8.00 Z0.40 E5.00 ; sets the jerk limits, mm/sec
M205 S0 T0 ; sets the minimum extruding and travel feed rate, mm/sec
M107
;TYPE:Custom
G90 ; use absolute coordinates
M83 ; extruder relative mode
M140 S50 ; set final bed temp
M104 S150 ; set temporary nozzle temp to prevent oozing during homing and auto bed leveling
G4 S10 ; allow partial nozzle warmup
G28 ; home all axis
G29 ; auto bed levelling
G1 Z50 F240
G1 X2 Y10 F3000
M104 S205 ; set final nozzle temp
M190 S50 ; wait for bed temp to stabilize
M109 S205 ; wait for nozzle temp to stabilize
G1 Z0.28 F240
G92 E0
G1 Y140 E10 F1500 ; prime the nozzle
G1 X2.3 F5000
G92 E0
G1 Y10 E10 F1200 ; prime the nozzle
G92 E0
G21 ; set units to millimeters
G90 ; use absolute coordinates
M83 ; use relative distances for extrusion
; Filament gcode
M107
;LAYER_CHANGE
;Z:0.2
;HEIGHT:0.2
;BEFORE_LAYER_CHANGE
G92 E0
;0.2


G1 E-5 F3600
G1 Z.2 F9000
;AFTER_LAYER_CHANGE
;0.2
G1 X93.173 Y91.305
G1 E5 F2400
M204 S500
;TYPE:Skirt/Brim
;WIDTH:0.42
G1 F1200
G1 X94.356 Y90.214 E.04846
G1 X95.727 Y89.233 E.05073
G1 X97.066 Y88.501 E.04594
G1 X98.712 Y87.852 E.05325
G1 X100.068 Y87.496 E.04221
G1 X101.369 Y87.295 E.03961
G1 X102.688 Y87.223 E.03975
G1 X128.191 Y87.223 E.76767
G1 X129.507 Y87.282 E.03963
G1 X130.813 Y87.472 E.03973
G1 X132.094 Y87.791 E.03974
G1 X133.259 Y88.204 E.03721
G1 X135.281 Y89.237 E.06834
G1 X136.298 Y89.94 E.03721
G1 X137.307 Y90.791 E.03974
G1 X138.226 Y91.739 E.03973
G1 X138.974 Y92.672 E.036
G1 X139.698 Y93.775 E.03974
G1 X140.274 Y94.869 E.03721
G1 X140.802 Y96.17 E.04226
G1 X141.149 Y97.357 E.0372
G1 X141.496 Y99.6 E.06834
G1 X141.523 Y100.836 E.03721
G1 X141.448 Y101.946 E.03347
G1 X141.032 Y104.092 E.06582
G1 X130.939 Y136.278 E1.0153
G1 X128.619 Y140.917 E.15614
G1 X127.876 Y141.906 E.03722
G1 X126.478 Y142.746 E.04911
G1 X125.488 Y142.895 E.03013
G1 X105.512 Y142.895 E.60126
G1 X103.929 Y142.501 E.04911
G1 X103.014 Y141.795 E.03479
G1 X102.381 Y140.917 E.03257
G1 X99.858 Y135.774 E.17243
G1 X89.96 Y104.065 E.99987
G1 X89.549 Y101.92 E.06574
G1 X89.474 Y100.687 E.03717
G1 X89.511 Y99.494 E.03595
G1 X89.856 Y97.337 E.06575
G1 X90.165 Y96.27 E.03343
G1 X90.612 Y95.119 E.03716
G1 X91.247 Y93.869 E.04221
G1 X92.085 Y92.593 E.04594
G1 X93.134 Y91.351 E.04893
G1 E-3.5 F3600
;WIPE_START
G1 F7200
G1 X94.356 Y90.214 E-.79304
G1 X95.438 Y89.44 E-.63196
;WIPE_END
G1 E-.075 F3600
G1 X95.87 Y93.789 F9000
G1 E5 F2400
G1 F1200
G1 X96.6 Y93.112 E.02996
G1 X97.327 Y92.562 E.02745
G1 X98.1 Y92.085 E.02734
G1 X99.55 Y91.434 E.04783
G1 X100.441 Y91.168 E.02799
G1 X101.356 Y90.988 E.02808
G1 X102.284 Y90.898 E.02807
G1 X103.215 Y90.898 E.02803
G1 X104.157 Y90.99 E.02848
G1 X105.088 Y91.175 E.02855
G1 X105.995 Y91.451 E.02854
G1 X106.861 Y91.809 E.02822
G1 X108.149 Y92.545 E.04465
G1 X109.596 Y93.631 E.05445
G1 X110.355 Y94.109 E.02701
G1 X111.151 Y94.518 E.02693
G1 X111.987 Y94.861 E.02722
G1 X112.839 Y95.126 E.02684
G1 X113.713 Y95.318 E.02694
G1 X114.602 Y95.434 E.02699
G1 X115.5 Y95.473 E.02705
G1 X116.398 Y95.434 E.02705
G1 X117.287 Y95.318 E.027
G1 X118.192 Y95.12 E.02787
G1 X118.735 Y94.959 E.01707
G1 X119.298 Y94.756 E.018
G1 X119.82 Y94.534 E.01707
G1 X120.643 Y94.11 E.02787
G1 X121.405 Y93.631 E.02708
G1 X122.813 Y92.572 E.05304
G1 X123.628 Y92.071 E.0288
G1 X124.68 Y91.575 E.03501
G1 X125.844 Y91.193 E.03686
G1 X127.277 Y90.937 E.04381
G1 X128.775 Y90.901 E.04511
G1 X130.154 Y91.077 E.04185
G1 X131.072 Y91.31 E.02852
G1 X131.974 Y91.637 E.02886
G1 X132.837 Y92.051 E.02882
G1 X133.652 Y92.548 E.02873
G1 X134.415 Y93.123 E.02876
G1 X135.118 Y93.773 E.02881
G1 X135.754 Y94.491 E.02887
G1 X136.315 Y95.268 E.02885
G1 X136.795 Y96.095 E.02877
G1 X137.188 Y96.961 E.02866
G1 X137.499 Y97.877 E.02911
G1 X137.713 Y98.804 E.02862
G1 X137.834 Y99.748 E.02865
G1 X137.856 Y100.852 E.03324
G1 X137.756 Y101.929 E.03256
G1 X137.531 Y103.006 E.03313
G1 X137.068 Y104.329 E.0422
G1 X136.358 Y105.665 E.04554
G1 X135.521 Y106.788 E.04213
G1 X134.513 Y107.793 E.04286
G1 X133.494 Y108.556 E.03831
G1 X132.598 Y109.073 E.03114
G1 X131.114 Y109.775 E.04943
G1 X130.173 Y110.046 E.02947
G1 X101.359 Y110.109 E.86731
G1 X100.225 Y109.898 E.03472
G1 X98.462 Y109.105 E.05816
G1 X97.128 Y108.298 E.04695
G1 X96.093 Y107.436 E.04052
G1 X95.429 Y106.731 E.02915
G1 X94.828 Y105.946 E.02976
G1 X94.358 Y105.19 E.02681
G1 X93.954 Y104.379 E.02725
G1 X93.627 Y103.531 E.02738
G1 X93.381 Y102.655 E.02738
G1 X93.211 Y101.695 E.02935
G1 X93.139 Y100.711 E.02969
G1 X93.221 Y99.229 E.04468
G1 X93.382 Y98.343 E.02711
G1 X93.626 Y97.469 E.02731
G1 X94.225 Y96.056 E.0462
G1 X94.702 Y95.242 E.0284
G1 X95.263 Y94.47 E.02873
G1 X95.83 Y93.834 E.02564
G1 X96.111 Y94.084 F9000
G1 F1200
G1 X96.834 Y93.407 E.02981
G1 X97.533 Y92.878 E.02637
G1 X98.288 Y92.412 E.02669
G1 X99.67 Y91.792 E.0456
G1 X100.523 Y91.536 E.0268
G1 X101.402 Y91.363 E.02698
G1 X102.294 Y91.275 E.02697
G1 X103.188 Y91.274 E.02692
G1 X104.093 Y91.362 E.02737
G1 X104.987 Y91.539 E.02743
G1 X105.859 Y91.803 E.02742
G1 X106.705 Y92.153 E.02757
G1 X107.951 Y92.867 E.04321
G1 X109.381 Y93.942 E.05386
G1 X110.168 Y94.437 E.02797
G1 X110.993 Y94.861 E.02791
G1 X111.859 Y95.216 E.0282
G1 X112.742 Y95.491 E.02782
G1 X113.648 Y95.69 E.02792
G1 X114.57 Y95.811 E.02798
G1 X115.5 Y95.851 E.02804
G1 X116.431 Y95.811 E.02804
G1 X117.352 Y95.69 E.02798
G1 X118.286 Y95.485 E.02877
G1 X118.853 Y95.317 E.01781
G1 X119.436 Y95.107 E.01866
G1 X119.98 Y94.875 E.01781
G1 X120.83 Y94.438 E.02877
G1 X121.619 Y93.942 E.02804
G1 X123.032 Y92.879 E.05324
G1 X123.816 Y92.398 E.02769
G1 X124.809 Y91.929 E.03305
G1 X125.924 Y91.562 E.03533
G1 X127.301 Y91.313 E.04211
G1 X128.742 Y91.277 E.04339
G1 X130.073 Y91.445 E.04037
G1 X130.97 Y91.673 E.02788
G1 X131.836 Y91.988 E.02772
G1 X132.665 Y92.387 E.02769
G1 X133.447 Y92.865 E.0276
G1 X134.18 Y93.418 E.02763
G1 X134.854 Y94.043 E.02768
G1 X135.465 Y94.734 E.02774
G1 X136.003 Y95.481 E.02772
G1 X136.463 Y96.275 E.02764
G1 X136.841 Y97.108 E.02754
G1 X137.133 Y97.972 E.02743
G1 X137.34 Y98.862 E.02751
G1 X137.457 Y99.766 E.02744
G1 X137.479 Y100.849 E.0326
G1 X137.381 Y101.883 E.03127
G1 X137.165 Y102.917 E.0318
G1 X136.717 Y104.191 E.04066
G1 X136.046 Y105.452 E.04299
G1 X135.245 Y106.531 E.04046
G1 X134.276 Y107.499 E.04122
G1 X133.277 Y108.247 E.03756
G1 X132.43 Y108.735 E.02943
G1 X130.967 Y109.428 E.04873
G1 X130.095 Y109.676 E.02729
G1 X101.375 Y109.732 E.86447
G1 X100.358 Y109.544 E.03112
G1 X98.627 Y108.766 E.05713
G1 X97.358 Y107.999 E.04466
G1 X96.359 Y107.169 E.03906
G1 X95.723 Y106.493 E.02795
G1 X95.143 Y105.739 E.02863
G1 X94.692 Y105.013 E.02574
G1 X94.303 Y104.235 E.02618
G1 X93.988 Y103.42 E.0263
G1 X93.747 Y102.562 E.02683
G1 X93.584 Y101.639 E.02822
G1 X93.516 Y100.696 E.02846
G1 X93.594 Y99.285 E.04253
G1 X93.751 Y98.419 E.02649
G1 X93.986 Y97.582 E.02615
G1 X94.557 Y96.236 E.04403
G1 X95.013 Y95.456 E.0272
G1 X95.552 Y94.713 E.02761
G1 X96.071 Y94.128 E.02355
G1 X96.353 Y94.378 F9000
G1 F1200
G1 X97.069 Y93.702 E.02965
G1 X97.754 Y93.184 E.02582
G1 X98.475 Y92.74 E.02551
G1 X99.79 Y92.149 E.04338
G1 X100.605 Y91.904 E.02562
G1 X101.448 Y91.737 E.02587
G1 X102.321 Y91.651 E.02641
G1 X103.179 Y91.651 E.02581
G1 X104.047 Y91.736 E.02626
G1 X104.904 Y91.907 E.02631
G1 X105.741 Y92.161 E.0263
G1 X106.55 Y92.497 E.02637
G1 X107.753 Y93.188 E.04177
G1 X109.167 Y94.253 E.05328
G1 X109.981 Y94.765 E.02894
G1 X110.835 Y95.204 E.02889
G1 X111.732 Y95.571 E.02918
G1 X112.645 Y95.856 E.0288
G1 X113.583 Y96.062 E.0289
G1 X114.537 Y96.187 E.02896
G1 X115.5 Y96.228 E.02902
G1 X116.463 Y96.187 E.02902
G1 X117.417 Y96.062 E.02896
G1 X118.38 Y95.851 E.02967
G1 X118.97 Y95.676 E.01854
G1 X119.574 Y95.458 E.01931
G1 X120.141 Y95.217 E.01854
G1 X121.017 Y94.766 E.02966
G1 X121.833 Y94.253 E.02901
G1 X123.252 Y93.186 E.05344
G1 X124.005 Y92.724 E.02657
G1 X124.939 Y92.283 E.0311
G1 X126.005 Y91.93 E.0338
G1 X127.326 Y91.69 E.04041
G1 X128.709 Y91.653 E.04166
G1 X129.992 Y91.814 E.03889
G1 X130.85 Y92.031 E.02667
G1 X131.698 Y92.339 E.02714
G1 X132.492 Y92.723 E.02655
G1 X133.242 Y93.182 E.02647
G1 X133.944 Y93.713 E.02651
G1 X134.578 Y94.3 E.026
G1 X135.176 Y94.976 E.02717
G1 X135.692 Y95.693 E.02657
G1 X136.132 Y96.456 E.02651
G1 X136.494 Y97.255 E.02641
G1 X136.773 Y98.083 E.02631
G1 X136.967 Y98.92 E.02585
G1 X137.08 Y99.784 E.02623
G1 X137.102 Y100.845 E.03195
G1 X137.007 Y101.836 E.02996
G1 X136.799 Y102.827 E.03047
G1 X136.366 Y104.052 E.03911
G1 X135.735 Y105.239 E.04047
G1 X134.968 Y106.275 E.03879
G1 X134.039 Y107.206 E.03958
G1 X133.06 Y107.938 E.0368
G1 X132.262 Y108.398 E.02772
G1 X130.82 Y109.08 E.04802
G1 X130.018 Y109.306 E.02509
G1 X101.391 Y109.354 E.86165
G1 X100.492 Y109.191 E.02751
G1 X98.792 Y108.426 E.05609
G1 X97.587 Y107.699 E.04237
G1 X96.626 Y106.902 E.0376
G1 X96.016 Y106.256 E.02674
G1 X95.458 Y105.531 E.02751
G1 X95.025 Y104.836 E.02467
G1 X94.651 Y104.09 E.0251
G1 X94.343 Y103.293 E.02575
G1 X94.113 Y102.47 E.02572
G1 X93.957 Y101.583 E.02708
G1 X93.893 Y100.681 E.02724
G1 X93.967 Y99.34 E.0404
G1 X94.117 Y98.512 E.02534
G1 X94.346 Y97.696 E.02552
G1 X94.889 Y96.415 E.04186
G1 X95.324 Y95.669 E.02601
G1 X95.84 Y94.956 E.02649
G1 X96.313 Y94.423 E.02146
G1 X96.595 Y94.673 F9000
G1 F1200
G1 X96.699 Y94.556 E.00474
G1 X97.318 Y93.986 E.02533
G1 X97.973 Y93.491 E.02472
G1 X98.662 Y93.067 E.02434
G1 X99.91 Y92.507 E.04119
G1 X100.688 Y92.272 E.02445
G1 X101.495 Y92.111 E.02476
G1 X102.349 Y92.027 E.02584
G1 X103.169 Y92.028 E.02469
G1 X103.983 Y92.108 E.0246
G1 X104.822 Y92.275 E.02575
G1 X105.621 Y92.519 E.02517
G1 X106.394 Y92.84 E.02517
G1 X107.536 Y93.496 E.03964
G1 X108.953 Y94.563 E.05341
G1 X109.794 Y95.092 E.02991
G1 X110.676 Y95.547 E.02987
G1 X111.604 Y95.926 E.03016
G1 X112.548 Y96.221 E.02978
G1 X113.518 Y96.434 E.02988
G1 X114.504 Y96.563 E.02994
G1 X115.5 Y96.606 E.03
G1 X116.496 Y96.563 E.03
G1 X117.482 Y96.434 E.02994
G1 X118.474 Y96.216 E.03056
G1 X119.088 Y96.034 E.01928
G1 X119.712 Y95.809 E.01997
G1 X120.301 Y95.558 E.01928
G1 X121.204 Y95.094 E.03056
G1 X122.047 Y94.564 E.02997
G1 X123.471 Y93.492 E.05364
G1 X124.193 Y93.051 E.02545
G1 X125.069 Y92.638 E.02918
G1 X126.086 Y92.298 E.03227
G1 X127.351 Y92.066 E.03871
G1 X128.677 Y92.029 E.03994
G1 X129.91 Y92.182 E.0374
G1 X130.748 Y92.394 E.02602
G1 X131.56 Y92.69 E.02599
G1 X132.319 Y93.058 E.02541
G1 X133.037 Y93.498 E.02534
G1 X133.709 Y94.008 E.02538
G1 X134.315 Y94.57 E.02488
G1 X134.887 Y95.218 E.02603
G1 X135.38 Y95.905 E.02543
G1 X135.801 Y96.636 E.02538
G1 X136.146 Y97.402 E.02529
G1 X136.408 Y98.178 E.02466
G1 X136.595 Y98.979 E.02475
G1 X136.703 Y99.802 E.025
G1 X136.725 Y100.842 E.0313
G1 X136.633 Y101.789 E.02865
G1 X136.432 Y102.736 E.02914
G1 X136.015 Y103.913 E.03757
G1 X135.423 Y105.027 E.03797
G1 X134.691 Y106.019 E.03713
G1 X133.802 Y106.912 E.03792
G1 X132.844 Y107.629 E.03604
G1 X132.094 Y108.06 E.02602
G1 X130.673 Y108.732 E.04731
G1 X129.941 Y108.936 E.02288
G1 X101.407 Y108.977 E.85887
G1 X100.625 Y108.838 E.02391
G1 X98.957 Y108.087 E.05505
G1 X97.817 Y107.4 E.04009
G1 X96.891 Y106.634 E.03614
G1 X96.308 Y106.018 E.02554
G1 X95.773 Y105.324 E.02639
G1 X95.358 Y104.659 E.02359
G1 X94.999 Y103.946 E.02403
G1 X94.703 Y103.182 E.02465
G1 X94.478 Y102.377 E.02516
G1 X94.333 Y101.547 E.02538
G1 X94.27 Y100.666 E.02659
G1 X94.34 Y99.396 E.03827
G1 X94.486 Y98.588 E.02471
G1 X94.705 Y97.809 E.02435
G1 X95.22 Y96.595 E.0397
G1 X95.645 Y95.867 E.02537
G1 X96.14 Y95.185 E.02536
G1 X96.555 Y94.718 E.01881
G1 X96.836 Y94.969 F9000
G1 F1200
G1 X96.974 Y94.814 E.00626
G1 X97.566 Y94.27 E.0242
G1 X98.193 Y93.798 E.02361
G1 X98.849 Y93.395 E.02317
G1 X100.031 Y92.864 E.039
G1 X100.788 Y92.636 E.0238
G1 X101.559 Y92.483 E.02366
G1 X102.358 Y92.405 E.02418
G1 X103.142 Y92.405 E.02358
G1 X103.937 Y92.482 E.02404
G1 X104.721 Y92.638 E.02407
G1 X105.486 Y92.871 E.02406
G1 X106.217 Y93.174 E.02381
G1 X107.318 Y93.804 E.03821
G1 X108.739 Y94.874 E.05353
G1 X109.607 Y95.42 E.03088
G1 X110.518 Y95.889 E.03085
G1 X111.476 Y96.282 E.03115
G1 X112.452 Y96.586 E.03076
G1 X113.453 Y96.806 E.03086
G1 X114.472 Y96.939 E.03092
G1 X115.5 Y96.983 E.03099
G1 X116.529 Y96.939 E.03099
G1 X117.547 Y96.806 E.03092
G1 X118.568 Y96.581 E.03146
G1 X119.206 Y96.393 E.02001
G1 X119.85 Y96.16 E.02062
G1 X120.462 Y95.9 E.02001
G1 X121.391 Y95.422 E.03146
G1 X122.261 Y94.874 E.03094
G1 X123.676 Y93.809 E.05331
G1 X124.363 Y93.388 E.02425
G1 X125.22 Y92.983 E.02853
G1 X126.168 Y92.667 E.03007
G1 X127.405 Y92.44 E.03787
G1 X128.645 Y92.405 E.03735
G1 X129.83 Y92.551 E.03591
G1 X130.647 Y92.757 E.02537
G1 X131.404 Y93.034 E.02427
G1 X132.131 Y93.385 E.02428
G1 X132.817 Y93.804 E.02422
G1 X133.459 Y94.291 E.02425
G1 X134.051 Y94.84 E.02431
G1 X134.587 Y95.446 E.02434
G1 X135.058 Y96.102 E.0243
G1 X135.461 Y96.8 E.02425
G1 X135.792 Y97.531 E.02418
G1 X136.043 Y98.272 E.02355
G1 X136.225 Y99.055 E.02419
G1 X136.328 Y99.841 E.02385
G1 X136.348 Y100.816 E.02937
G1 X136.259 Y101.742 E.02799
G1 X136.066 Y102.645 E.0278
G1 X135.665 Y103.773 E.03604
G1 X135.111 Y104.814 E.0355
G1 X134.413 Y105.764 E.03547
G1 X133.565 Y106.619 E.03626
G1 X132.646 Y107.308 E.03459
G1 X131.926 Y107.723 E.025
G1 X130.553 Y108.374 E.04573
G1 X129.913 Y108.559 E.02004
G1 X101.454 Y108.603 E.85662
G1 X100.758 Y108.484 E.02128
G1 X99.123 Y107.748 E.05396
G1 X98.024 Y107.084 E.03864
G1 X97.141 Y106.352 E.03452
G1 X96.589 Y105.766 E.02422
G1 X96.088 Y105.116 E.02471
G1 X95.682 Y104.467 E.02305
G1 X95.341 Y103.785 E.02295
G1 X95.058 Y103.055 E.02356
G1 X94.848 Y102.302 E.02351
G1 X94.708 Y101.509 E.02424
G1 X94.647 Y100.674 E.0252
G1 X94.716 Y99.429 E.03754
G1 X94.856 Y98.665 E.02338
G1 X95.065 Y97.924 E.02319
G1 X95.562 Y96.754 E.03826
G1 X95.965 Y96.066 E.024
G1 X96.439 Y95.415 E.02424
G1 X96.796 Y95.014 E.01617
G1 X97.077 Y95.265 F9000
G1 F1200
G1 X97.249 Y95.072 E.00777
G1 X97.814 Y94.554 E.02308
G1 X98.412 Y94.105 E.02251
G1 X99.036 Y93.723 E.02201
G1 X100.152 Y93.222 E.03683
G1 X100.871 Y93.004 E.02262
G1 X101.605 Y92.857 E.02254
G1 X102.386 Y92.781 E.02361
G1 X103.132 Y92.782 E.02247
G1 X103.872 Y92.854 E.02238
G1 X104.638 Y93.006 E.02351
G1 X105.367 Y93.229 E.02293
G1 X106.061 Y93.517 E.02263
G1 X107.101 Y94.113 E.03607
G1 X108.525 Y95.185 E.05365
G1 X109.42 Y95.748 E.03184
G1 X110.36 Y96.232 E.03183
G1 X111.348 Y96.637 E.03213
G1 X112.355 Y96.951 E.03174
G1 X113.388 Y97.177 E.03184
G1 X114.439 Y97.315 E.0319
G1 X115.5 Y97.361 E.03197
G1 X116.561 Y97.315 E.03197
G1 X117.612 Y97.177 E.0319
G1 X118.662 Y96.947 E.03236
G1 X119.323 Y96.751 E.02075
G1 X119.988 Y96.512 E.02127
G1 X120.622 Y96.241 E.02075
G1 X121.578 Y95.749 E.03236
G1 X122.475 Y95.185 E.03191
G1 X123.895 Y94.116 E.05351
G1 X124.551 Y93.715 E.02313
G1 X125.35 Y93.337 E.02661
G1 X126.274 Y93.029 E.02932
G1 X127.458 Y92.813 E.03622
G1 X128.641 Y92.782 E.03562
G1 X129.771 Y92.923 E.03428
G1 X130.526 Y93.115 E.02346
G1 X131.266 Y93.385 E.0237
G1 X131.958 Y93.72 E.02314
G1 X132.612 Y94.121 E.02309
G1 X133.224 Y94.585 E.02313
G1 X133.775 Y95.097 E.02263
G1 X134.297 Y95.689 E.02377
G1 X134.746 Y96.314 E.02316
G1 X135.129 Y96.979 E.02312
G1 X135.444 Y97.678 E.02306
G1 X135.683 Y98.384 E.02244
G1 X135.856 Y99.131 E.02308
G1 X135.953 Y99.879 E.02271
G1 X135.972 Y100.791 E.02747
G1 X135.887 Y101.675 E.0267
G1 X135.706 Y102.531 E.02635
G1 X135.325 Y103.609 E.0344
G1 X134.785 Y104.625 E.03465
G1 X134.118 Y105.528 E.03379
G1 X133.307 Y106.343 E.03459
G1 X132.429 Y106.999 E.033
G1 X131.745 Y107.392 E.02375
G1 X130.406 Y108.027 E.04459
G1 X129.836 Y108.189 E.01785
