; generated by PrusaSlicer 2.4.2 on 2022-08-28 at 09:26:16 UTC

; 

; external perimeters extrusion width = 0.45mm
; perimeters extrusion width = 0.45mm
; infill extrusion width = 0.45mm
; solid infill extrusion width = 0.45mm
; top infill extrusion width = 0.45mm
; first layer extrusion width = 0.42mm

M107
;TYPE:Custom
G90 ; use absolute coordinates
M83 ; extruder relative mode
M140 S50 ; set final bed temp
M104 S150 ; set temporary nozzle temp to prevent oozing during homing and auto bed leveling
G4 S10 ; allow partial nozzle warmup
G28 ; home all axis
G29 ; auto bed levelling
G1 Z30 F240
G1 X2 Y10 F3000
M104 S210 ; set final nozzle temp
M190 S50 ; wait for bed temp to stabilize
M109 S210 ; wait for nozzle temp to stabilize
G1 Z0.28 F240
G92 E0
G1 Y100 E11 F1500 ; prime the nozzle
G1 X2.3 F5000
G92 E0
G1 Y10 E11 F1000 ; prime the nozzle
G92 E0
G21 ; set units to millimeters
G90 ; use absolute coordinates
M83 ; use relative distances for extrusion
; Filament gcode
M107
;LAYER_CHANGE
;Z:0.2
;HEIGHT:0.2
;BEFORE_LAYER_CHANGE
G92 E0
;0.2


G1 Z.2 F9000
;AFTER_LAYER_CHANGE
;0.2
G1 E-5 F3600
G1 X106.538 Y106.922 F9000
G1 E5 F2400
M204 S500
;TYPE:Skirt/Brim
;WIDTH:0.42
G1 F900
G1 X107.577 Y106.126 E.04103
G1 X108.412 Y105.61 E.03078
G1 X110.202 Y104.807 E.0615
G1 X111.142 Y104.526 E.03078
G1 X112.428 Y104.285 E.04101
G1 X113.732 Y104.185 E.04101
G1 X114.713 Y104.213 E.03078
G1 X116.649 Y104.526 E.0615
G1 X117.59 Y104.807 E.03078
G1 X118.799 Y105.308 E.04103
G1 X120.483 Y106.314 E.0615
G1 X121.735 Y107.364 E.05126
G1 X122.409 Y108.078 E.03078
G1 X123.205 Y109.117 E.04103
G1 X123.721 Y109.952 E.03078
G1 X124.524 Y111.741 E.0615
G1 X125.004 Y113.643 E.0615
G1 X125.118 Y114.618 E.03078
G1 X125.118 Y116.253 E.05126
G1 X124.805 Y118.189 E.0615
G1 X124.412 Y119.437 E.04103
G1 X124.023 Y120.339 E.03078
G1 X123.018 Y122.023 E.0615
G1 X121.967 Y123.275 E.05126
G1 X121.253 Y123.949 E.03078
G1 X120.215 Y124.745 E.04103
G1 X119.379 Y125.261 E.03078
G1 X117.59 Y126.064 E.0615
G1 X115.688 Y126.544 E.0615
G1 X114.713 Y126.658 E.03078
G1 X113.078 Y126.658 E.05126
G1 X111.142 Y126.345 E.0615
G1 X109.894 Y125.952 E.04103
G1 X108.992 Y125.563 E.03078
G1 X107.308 Y124.558 E.0615
G1 X106.056 Y123.507 E.05126
G1 X105.382 Y122.793 E.03078
G1 X104.586 Y121.754 E.04103
G1 X104.07 Y120.919 E.03078
G1 X103.267 Y119.13 E.0615
G1 X102.986 Y118.189 E.03078
G1 X102.745 Y116.904 E.04101
G1 X102.645 Y115.599 E.04101
G1 X102.674 Y114.618 E.03078
G1 X102.986 Y112.682 E.0615
G1 X103.267 Y111.741 E.03078
G1 X103.768 Y110.532 E.04103
G1 X104.234 Y109.668 E.03078
G1 X105.172 Y108.329 E.05126
G1 X106.497 Y106.965 E.05962
G1 X106.753 Y107.238 F9000
G1 F900
G1 X107.538 Y106.613 E.03146
G1 X108.586 Y105.945 E.03897
G1 X110.315 Y105.167 E.05944
G1 X111.223 Y104.894 E.02975
G1 X112.477 Y104.659 E.03998
G1 X113.748 Y104.562 E.03998
G1 X114.697 Y104.59 E.02975
G1 X116.568 Y104.894 E.05944
G1 X117.753 Y105.268 E.03897
G1 X118.625 Y105.643 E.02975
G1 X120.253 Y106.613 E.05944
G1 X121.48 Y107.642 E.05023
G1 X122.131 Y108.333 E.02975
G1 X122.887 Y109.319 E.03897
G1 X123.386 Y110.126 E.02975
G1 X124.164 Y111.855 E.05944
G1 X124.508 Y113.083 E.03998
G1 X124.715 Y114.341 E.03998
G1 X124.741 Y116.236 E.05944
G1 X124.63 Y117.179 E.02975
G1 X124.361 Y118.392 E.03897
G1 X123.688 Y120.165 E.05944
G1 X122.718 Y121.793 E.05944
G1 X121.689 Y123.02 E.05023
G1 X120.998 Y123.671 E.02975
G1 X120.012 Y124.427 E.03897
G1 X119.205 Y124.926 E.02975
G1 X117.476 Y125.704 E.05944
G1 X116.248 Y126.048 E.03998
G1 X114.99 Y126.255 E.03998
G1 X113.095 Y126.281 E.05944
G1 X112.152 Y126.17 E.02975
G1 X110.939 Y125.901 E.03897
G1 X109.167 Y125.228 E.05944
G1 X107.538 Y124.258 E.05944
G1 X106.311 Y123.229 E.05023
G1 X105.66 Y122.538 E.02975
G1 X104.904 Y121.552 E.03897
G1 X104.405 Y120.745 E.02975
G1 X103.627 Y119.016 E.05944
G1 X103.354 Y118.108 E.02975
G1 X103.119 Y116.854 E.03998
G1 X103.022 Y115.583 E.03998
G1 X103.05 Y114.635 E.02975
G1 X103.354 Y112.763 E.05944
G1 X103.728 Y111.578 E.03897
G1 X104.103 Y110.707 E.02975
G1 X104.552 Y109.871 E.02975
G1 X105.272 Y108.818 E.03998
G1 X106.102 Y107.851 E.03998
G1 X106.71 Y107.279 E.02615
; printing object MonsterBeetleParts-spacer_Front_Suspention.stl id:0 copy 0
G1 E-3.5 F3600
;WIPE_START
G1 F7200
G1 X107.538 Y106.613 E-.50499
G1 X108.586 Y105.945 E-.5904
G1 X109.219 Y105.66 E-.32961
;WIPE_END
G1 E-.075 F3600
G1 X112.766 Y114.085 F9000
G1 E5 F2400
;TYPE:External perimeter
G1 F900
G1 X113.083 Y113.875 E.01193
G1 X113.437 Y113.735 E.01193
G1 X113.747 Y113.681 E.00986
G1 X114.197 Y113.7 E.01413
G1 X114.498 Y113.781 E.00977
G1 X114.776 Y113.911 E.00962
G1 X115.027 Y114.087 E.00962
G1 X115.246 Y114.306 E.00971
G1 X115.457 Y114.623 E.01193
G1 X115.596 Y114.977 E.01193
G1 X115.65 Y115.282 E.00971
G1 X115.65 Y115.589 E.00962
G1 X115.596 Y115.896 E.00977
G1 X115.423 Y116.312 E.01413
G1 X115.242 Y116.571 E.00991
G1 X114.91 Y116.876 E.01413
G1 X114.64 Y117.031 E.00977
G1 X114.351 Y117.136 E.00962
G1 X114.049 Y117.19 E.00962
G1 X113.742 Y117.19 E.00962
G1 X113.437 Y117.136 E.00971
G1 X113.083 Y116.996 E.01193
G1 X112.766 Y116.786 E.01193
G1 X112.543 Y116.564 E.00986
G1 X112.301 Y116.184 E.01413
G1 X112.195 Y115.891 E.00977
G1 X112.141 Y115.584 E.00977
G1 X112.16 Y115.134 E.01413
G1 X112.241 Y114.833 E.00977
G1 X112.371 Y114.555 E.00962
G1 X112.547 Y114.304 E.00962
G1 X112.723 Y114.127 E.00783
G1 E-3.5 F3600
;WIPE_START
G1 F7200
G1 X113.083 Y113.875 E-.20877
G1 X113.437 Y113.735 E-.18077
G1 X113.747 Y113.681 E-.14932
G1 X114.197 Y113.7 E-.21406
G1 X114.498 Y113.781 E-.148
G1 X114.776 Y113.911 E-.1458
G1 X115.027 Y114.087 E-.1458
G1 X115.246 Y114.306 E-.14712
G1 X115.346 Y114.455 E-.08537
;WIPE_END
G1 E-.075 F3600
G1 X109.057 Y110.126 F9000
G1 E5 F2400
G1 F900
G1 X109.274 Y109.928 E.00922
G1 X109.772 Y109.546 E.01967
G1 X110.301 Y109.209 E.01967
G1 X110.857 Y108.919 E.01967
G1 X111.437 Y108.679 E.01967
G1 X112.035 Y108.491 E.01967
G1 X112.647 Y108.355 E.01967
G1 X113.269 Y108.273 E.01967
G1 X113.896 Y108.246 E.01967
G1 X114.522 Y108.273 E.01967
G1 X115.144 Y108.355 E.01967
G1 X115.756 Y108.491 E.01967
G1 X116.355 Y108.679 E.01967
G1 X116.934 Y108.919 E.01967
G1 X117.49 Y109.209 E.01967
G1 X118.019 Y109.546 E.01967
G1 X118.517 Y109.928 E.01967
G1 X118.979 Y110.352 E.01967
G1 X119.403 Y110.814 E.01967
G1 X119.785 Y111.312 E.01967
G1 X120.122 Y111.841 E.01967
G1 X120.412 Y112.397 E.01967
G1 X120.652 Y112.976 E.01967
G1 X120.84 Y113.575 E.01967
G1 X120.976 Y114.187 E.01967
G1 X121.058 Y114.809 E.01967
G1 X121.085 Y115.436 E.01967
G1 X121.058 Y116.062 E.01967
G1 X120.976 Y116.684 E.01967
G1 X120.84 Y117.296 E.01967
G1 X120.652 Y117.895 E.01967
G1 X120.412 Y118.474 E.01967
G1 X120.122 Y119.03 E.01967
G1 X119.785 Y119.559 E.01967
G1 X119.403 Y120.057 E.01967
G1 X118.979 Y120.519 E.01967
G1 X118.517 Y120.943 E.01967
G1 X118.019 Y121.325 E.01967
G1 X117.49 Y121.662 E.01967
G1 X116.934 Y121.952 E.01967
G1 X116.355 Y122.192 E.01967
G1 X115.756 Y122.38 E.01967
G1 X115.144 Y122.516 E.01967
G1 X114.522 Y122.598 E.01967
G1 X113.896 Y122.625 E.01967
G1 X113.269 Y122.598 E.01967
G1 X112.647 Y122.516 E.01967
G1 X112.035 Y122.38 E.01967
G1 X111.437 Y122.192 E.01967
G1 X110.857 Y121.952 E.01967
G1 X110.301 Y121.662 E.01967
G1 X109.772 Y121.325 E.01967
G1 X109.274 Y120.943 E.01967
G1 X108.812 Y120.519 E.01967
G1 X108.388 Y120.057 E.01967
G1 X108.006 Y119.559 E.01967
G1 X107.669 Y119.03 E.01967
G1 X107.379 Y118.474 E.01967
G1 X107.139 Y117.895 E.01967
G1 X106.951 Y117.296 E.01967
G1 X106.815 Y116.684 E.01967
G1 X106.774 Y116.373 E.00983
G1 X106.733 Y116.062 E.00983
G1 X106.706 Y115.436 E.01967
G1 X106.733 Y114.809 E.01967
G1 X106.815 Y114.187 E.01967
G1 X106.951 Y113.575 E.01967
G1 X107.139 Y112.976 E.01967
G1 X107.379 Y112.397 E.01967
G1 X107.669 Y111.841 E.01967
G1 X108.006 Y111.312 E.01967
G1 X108.388 Y110.814 E.01967
G1 X108.812 Y110.352 E.01967
G1 X109.013 Y110.167 E.00857
G1 E-3.5 F3600
;WIPE_START
G1 F7200
G1 X109.274 Y109.928 E-.16813
G1 X109.772 Y109.546 E-.29792
G1 X110.301 Y109.209 E-.29794
G1 X110.857 Y108.919 E-.29793
G1 X111.437 Y108.679 E-.29793
G1 X111.567 Y108.638 E-.06515
;WIPE_END
G1 E-.075 F3600
G1 X119.855 Y111.632 F9000
G1 E5 F2400
;TYPE:Solid infill
;WIDTH:0.426452
G1 F900
G1 X118.727 Y110.504 E.05086
G1 X118.335 Y110.145 E.01695
G1 X117.857 Y109.778 E.01921
G1 X117.349 Y109.454 E.01922
G1 X116.903 Y109.222 E.01604
G1 X120.109 Y112.428 E.14462
G1 X120.386 Y113.073 E.02237
G1 X120.466 Y113.327 E.0085
G1 X116.004 Y108.865 E.20125
G1 X115.683 Y108.764 E.01072
G1 X115.268 Y108.672 E.01355
G1 X120.659 Y114.063 E.24312
G1 X120.759 Y114.706 E.02074
G1 X114.626 Y108.572 E.27662
G1 X114.047 Y108.535 E.0185
G1 X120.796 Y115.284 E.30438
G1 X120.786 Y115.817 E.01698
G1 X113.514 Y108.546 E.32794
G1 X113.018 Y108.591 E.0159
G1 X120.74 Y116.313 E.34826
G1 X120.665 Y116.781 E.0151
G1 X112.55 Y108.666 E.36598
G1 X112.106 Y108.765 E.0145
G1 X120.566 Y117.225 E.38155
G1 X120.436 Y117.637 E.01379
G1 X111.694 Y108.895 E.39428
G1 X111.299 Y109.042 E.01344
G1 X120.289 Y118.032 E.40543
G1 X120.126 Y118.411 E.01317
G1 X110.92 Y109.206 E.41518
G1 X110.563 Y109.391 E.01282
G1 X119.94 Y118.768 E.42289
G1 X119.737 Y119.108 E.01262
G1 X115.933 Y115.303 E.1716
G1 X115.933 Y115.614 E.00991
G1 X115.898 Y115.811 E.00638
G1 X119.523 Y119.436 E.16351
G1 X119.288 Y119.743 E.01234
G1 X115.767 Y116.222 E.1588
G1 X115.673 Y116.449 E.00784
G1 X115.582 Y116.579 E.00507
G1 X119.039 Y120.036 E.15592
G1 X118.779 Y120.319 E.01224
G1 X115.332 Y116.872 E.15547
G1 X115.043 Y117.125 E.01226
G1 X118.496 Y120.579 E.15575
G1 X118.203 Y120.828 E.01227
G1 X114.689 Y117.314 E.15846
G1 X114.425 Y117.411 E.00898
G1 X114.271 Y117.438 E.00499
G1 X117.896 Y121.063 E.16351
G1 X117.568 Y121.277 E.0125
G1 X113.563 Y117.273 E.1806
G1 E-3.5 F3600
;WIPE_START
G1 F7200
G1 X115.685 Y119.394 E-1.425
;WIPE_END
G1 E-.075 F3600
G1 X114.218 Y113.589 F9000
G1 E5 F2400
G1 F900
G1 X110.223 Y109.594 E.18018
G1 X109.895 Y109.808 E.0125
G1 X113.52 Y113.433 E.16351
G1 X113.36 Y113.462 E.0052
G1 X113.106 Y113.561 E.00869
G1 X109.588 Y110.043 E.15867
G1 X109.295 Y110.292 E.01227
G1 X112.755 Y113.753 E.15605
G1 X112.586 Y113.865 E.00647
G1 X112.455 Y113.995 E.00589
G1 X109.012 Y110.552 E.1553
G1 X108.752 Y110.835 E.01224
G1 X112.21 Y114.292 E.15592
G1 X112.125 Y114.413 E.00472
G1 X112.018 Y114.643 E.00807
G1 X108.503 Y111.128 E.1585
G1 X108.268 Y111.435 E.01234
G1 X111.888 Y115.056 E.16329
G1 X111.858 Y115.568 E.01636
G1 X108.054 Y111.763 E.17159
G1 X107.851 Y112.103 E.01262
G1 X117.228 Y121.48 E.42289
G1 X116.871 Y121.666 E.01282
G1 X107.666 Y112.46 E.41518
G1 X107.502 Y112.839 E.01317
G1 X116.492 Y121.829 E.40543
G1 X116.097 Y121.976 E.01344
G1 X107.355 Y113.234 E.39428
G1 X107.225 Y113.646 E.01379
G1 X115.685 Y122.106 E.38155
G1 X115.241 Y122.205 E.0145
G1 X107.126 Y114.09 E.36598
G1 X107.052 Y114.558 E.0151
G1 X114.773 Y122.28 E.34825
G1 X114.277 Y122.326 E.0159
G1 X107.006 Y115.054 E.32793
G1 X106.996 Y115.587 E.01698
G1 X113.744 Y122.336 E.30438
G1 X113.165 Y122.299 E.0185
G1 X107.032 Y116.166 E.27662
G1 X107.132 Y116.808 E.02074
G1 X112.523 Y122.199 E.24312
G1 X112.108 Y122.107 E.01355
G1 X111.787 Y122.006 E.01072
G1 X107.325 Y117.544 E.20124
G1 X107.405 Y117.798 E.00849
G1 X107.682 Y118.443 E.02238
G1 X110.888 Y121.649 E.1446
G1 X110.442 Y121.417 E.01604
G1 X109.934 Y121.093 E.01922
G1 X109.456 Y120.726 E.01921
G1 X109.063 Y120.366 E.017
G1 X107.937 Y119.24 E.0508
; stop printing object MonsterBeetleParts-spacer_Front_Suspention.stl id:0 copy 0
M106 S255
;LAYER_CHANGE
;Z:0.48
;HEIGHT:0.28
;BEFORE_LAYER_CHANGE
G92 E0
;0.48


G1 Z.48 F9000
;AFTER_LAYER_CHANGE
;0.48
; printing object MonsterBeetleParts-spacer_Front_Suspention.stl id:0 copy 0
G1 E-5 F3600
G1 X113.117 Y116.913 F9000
G1 E5 F2400
;TYPE:External perimeter
;WIDTH:0.45
G1 F900
G1 X113.397 Y117.029 E.01374
G1 X113.172 Y116.938 E.01102
G1 X113.553 Y117.07 F9000
G1 F900
G1 X113.725 Y117.101 E.00794
G1 X113.611 Y117.086 E.00523
G1 X114.389 Y117.031 F9000
G1 F900
G1 X114.669 Y116.915 E.01378
G1 X114.445 Y117.01 E.01106
G1 X114.81 Y116.834 F9000
G1 F900
G1 X114.953 Y116.733 E.00793
G1 X114.861 Y116.803 E.00522
G1 X115.372 Y116.215 F9000
G1 F900
G1 X115.488 Y115.934 E.01378
G1 X115.398 Y116.161 E.01106
G1 X115.53 Y115.778 F9000
G1 F900
G1 X115.561 Y115.606 E.00793
G1 X115.546 Y115.72 E.00523
G1 X115.491 Y114.942 F9000
G1 F900
G1 X115.375 Y114.662 E.01378
G1 X115.47 Y114.886 E.01106
G1 X115.294 Y114.522 F9000
G1 F900
G1 X115.193 Y114.378 E.00793
G1 X115.263 Y114.47 E.00522
G1 X114.92 Y114.117 F9000
G1 F900
G1 X114.625 Y113.929 E.0159
G1 X114.871 Y114.083 E.01318
G1 X113.725 Y113.77 F9000
G1 F900
G1 X113.384 Y113.846 E.01585
G1 X113.666 Y113.778 E.01314
G1 X112.243 Y115.169 F9000
G1 F900
G1 X112.228 Y115.518 E.01585
G1 X112.235 Y115.228 E.01314
G1 X112.285 Y115.892 F9000
G1 F900
G1 X112.419 Y116.216 E.0159
G1 X112.303 Y115.95 E.01319
; stop printing object MonsterBeetleParts-spacer_Front_Suspention.stl id:0 copy 0
;LAYER_CHANGE
;Z:0.76
;HEIGHT:0.28
;BEFORE_LAYER_CHANGE
G92 E0
;0.76


G1 Z.76 F9000
;AFTER_LAYER_CHANGE
;0.76
; printing object MonsterBeetleParts-spacer_Front_Suspention.stl id:0 copy 0
G1 X112.353 Y116.073
G1 F900
G1 X112.489 Y116.335 E.01341
G1 X112.373 Y116.129 E.01072
G1 X112.582 Y116.468 F9000
G1 F900
G1 X112.65 Y116.548 E.00477
G1 X112.618 Y116.516 E.00207
G1 X112.768 Y116.666 F9000
G1 F900
G1 X113.007 Y116.85 E.01369
G1 X112.81 Y116.708 E.01099
G1 X113.08 Y116.897 F9000
G1 F900
G1 X113.238 Y116.971 E.00793
G1 X113.133 Y116.925 E.00521
G1 X113.412 Y117.034 F9000
G1 F900
G1 X113.515 Y117.062 E.00484
G1 X113.469 Y117.054 E.00213
G1 X113.697 Y117.094 F9000
G1 F900
G1 X113.803 Y117.103 E.00484
G1 X113.756 Y117.103 E.00213
G1 X113.988 Y117.103 F9000
G1 F900
G1 X114.093 Y117.094 E.00477
G1 X114.048 Y117.102 E.00207
G1 X114.28 Y117.061 F9000
G1 F900
G1 X114.384 Y117.033 E.00491
G1 X114.338 Y117.049 E.00221
G1 X114.533 Y116.978 F9000
G1 F900
G1 X114.795 Y116.842 E.01341
G1 X114.589 Y116.958 E.01072
G1 X114.928 Y116.749 F9000
G1 F900
G1 X115.008 Y116.681 E.00477
G1 X114.976 Y116.713 E.00207
G1 X115.144 Y116.546 F9000
G1 F900
G1 X115.21 Y116.467 E.00468
G1 X115.185 Y116.502 E.00197
G1 X115.314 Y116.318 F9000
G1 F900
G1 X115.407 Y116.156 E.00847
G1 X115.348 Y116.269 E.00576
G1 X115.437 Y116.078 F9000
G1 F900
G1 X115.526 Y115.794 E.0135
G1 X115.457 Y116.021 E.01078
G1 X115.554 Y115.634 F9000
G1 F900
G1 X115.563 Y115.528 E.00484
G1 X115.563 Y115.575 E.00213
G1 X115.563 Y115.343 F9000
G1 F900
G1 X115.554 Y115.238 E.00477
G1 X115.562 Y115.283 E.00207
G1 X115.521 Y115.051 F9000
G1 F900
G1 X115.493 Y114.947 E.00491
G1 X115.509 Y114.993 E.00221
G1 X115.438 Y114.798 F9000
G1 F900
G1 X115.302 Y114.536 E.01341
G1 X115.418 Y114.742 E.01072
G1 X115.209 Y114.403 F9000
G1 F900
G1 X115.141 Y114.323 E.00477
G1 X115.173 Y114.355 E.00207
G1 X115.006 Y114.188 F9000
G1 F900
G1 X114.927 Y114.121 E.00468
G1 X114.962 Y114.146 E.00197
G1 X114.795 Y114.03 F9000
G1 F900
G1 X114.531 Y113.892 E.01351
G1 X114.746 Y113.995 E.01082
G1 X114.379 Y113.837 F9000
G1 F900
G1 X114.278 Y113.81 E.00477
G1 X114.322 Y113.817 E.00207
G1 X114.091 Y113.777 F9000
G1 F900
G1 X113.983 Y113.768 E.00491
G1 X114.031 Y113.768 E.00221
G1 X113.824 Y113.768 F9000
G1 F900
G1 X113.531 Y113.806 E.01341
G1 X113.764 Y113.768 E.01072
G1 X113.375 Y113.849 F9000
G1 F900
G1 X113.275 Y113.885 E.00483
G1 X113.317 Y113.865 E.00213
G1 X113.107 Y113.963 F9000
G1 F900
G1 X113.015 Y114.016 E.00484
G1 X113.053 Y113.989 E.00213
G1 X112.863 Y114.122 F9000
G1 F900
G1 X112.783 Y114.19 E.00477
G1 X112.815 Y114.158 E.00207
G1 X112.665 Y114.308 F9000
G1 F900
G1 X112.482 Y114.547 E.01369
G1 X112.623 Y114.35 E.01099
G1 X112.434 Y114.62 F9000
G1 F900
G1 X112.36 Y114.778 E.00793
G1 X112.406 Y114.673 E.00521
G1 X112.297 Y114.952 F9000
G1 F900
G1 X112.269 Y115.055 E.00484
G1 X112.277 Y115.009 E.00213
G1 X112.237 Y115.237 F9000
G1 F900
G1 X112.228 Y115.343 E.00484
G1 X112.228 Y115.296 E.00213
G1 X112.228 Y115.528 F9000
G1 F900
G1 X112.237 Y115.633 E.00477
G1 X112.229 Y115.588 E.00207
G1 X112.27 Y115.82 F9000
G1 F900
