; generated by PrusaSlicer 2.4.0+linux-x64-GTK3 on 2022-07-03 at 18:03:28 UTC

; 

; external perimeters extrusion width = 0.45mm
; perimeters extrusion width = 0.45mm
; infill extrusion width = 0.45mm
; solid infill extrusion width = 0.45mm
; top infill extrusion width = 0.40mm
; support material extrusion width = 0.38mm
; first layer extrusion width = 0.42mm

; external perimeters extrusion width = 0.45mm
; perimeters extrusion width = 0.45mm
; infill extrusion width = 0.45mm
; solid infill extrusion width = 0.45mm
; top infill extrusion width = 0.40mm
; support material extrusion width = 0.38mm
; first layer extrusion width = 0.42mm

M201 X500 Y500 Z100 E5000 ; sets maximum accelerations, mm/sec^2
M203 X500 Y500 Z10 E60 ; sets maximum feedrates, mm/sec
M204 P500 R1000 T500 ; sets acceleration (P, T) and retract acceleration (R), mm/sec^2
M205 X8.00 Y8.00 Z0.40 E5.00 ; sets the jerk limits, mm/sec
M205 S0 T0 ; sets the minimum extruding and travel feed rate, mm/sec
M107
;TYPE:Custom
G90 ; use absolute coordinates
M83 ; extruder relative mode
M140 S50 ; set final bed temp
M104 S150 ; set temporary nozzle temp to prevent oozing during homing and auto bed leveling
G4 S10 ; allow partial nozzle warmup
G28 ; home all axis
G29 ; auto bed levelling
G1 Z50 F240
G1 X2 Y10 F3000
M104 S205 ; set final nozzle temp
M190 S50 ; wait for bed temp to stabilize
M109 S205 ; wait for nozzle temp to stabilize
G1 Z0.28 F240
G92 E0
G1 Y140 E10 F1500 ; prime the nozzle
G1 X2.3 F5000
G92 E0
G1 Y10 E10 F1200 ; prime the nozzle
G92 E0
G21 ; set units to millimeters
G90 ; use absolute coordinates
M83 ; use relative distances for extrusion
; Filament gcode
M107
;LAYER_CHANGE
;Z:0.2
;HEIGHT:0.2
;BEFORE_LAYER_CHANGE
G92 E0
;0.2


G1 E-5 F3600
G1 Z.2 F9000
;AFTER_LAYER_CHANGE
;0.2
G1 X90.768 Y90.768
G1 E5 F2400
M204 S500
;TYPE:Skirt/Brim
;WIDTH:0.42
G1 F1200
G1 X103.443 Y78.093 E.53393
G1 X104.841 Y77.252 E.0486
G1 X105.831 Y77.104 E.02981
G1 X142.13 Y77.104 E1.08122
G1 X143.713 Y77.498 E.0486
G1 X144.518 Y78.093 E.02981
G1 X146.855 Y80.43 E.09845
G1 X147.696 Y81.828 E.0486
G1 X147.844 Y82.818 E.02981
G1 X147.844 Y95.746 E.38508
G1 X143.749 Y136.861 E1.23074
G1 X143.409 Y138.035 E.03641
G1 X141.072 Y142.71 E.15566
G1 X139.562 Y144.22 E.06362
G1 X130.213 Y148.894 E.31132
G1 X101.957 Y160.676 E.9119
G1 X100.658 Y160.936 E.03946
G1 X87.73 Y160.936 E.38508
G1 X86.911 Y160.835 E.02458
G1 X77.562 Y158.498 E.28702
G1 X75.994 Y157.61 E.0537
G1 X73.657 Y155.273 E.09845
G1 X72.816 Y153.875 E.0486
G1 X72.667 Y152.885 E.02981
G1 X72.667 Y139.957 E.38508
G1 X72.741 Y139.257 E.02095
G1 X79.471 Y107.506 E.96677
G1 X81.564 Y100.539 E.21667
G1 X82.409 Y99.127 E.04904
G1 X90.726 Y90.81 E.35032
; printing object MonsterBeetleParts-Suspention_Arm.stl id:1 copy 0
G1 E-3.5 F3600
;WIPE_START
G1 F7200
G1 X92.847 Y88.689 E-1.425
;WIPE_END
G1 E-.075 F3600
G1 X133.187 Y122.302 F9000
G1 E5 F2400
;TYPE:Support material
G1 F1200
G1 X132.676 Y122.418 E.01559
G1 X132.213 Y122.581 E.01464
G1 X131.966 Y122.691 E.00804
G1 X131.726 Y122.817 E.00808
G1 X131.312 Y123.082 E.01464
G1 X130.892 Y123.424 E.01612
G1 X130.55 Y123.776 E.01464
G1 X130.378 Y123.985 E.00805
G1 X130.219 Y124.204 E.00807
G1 X129.966 Y124.626 E.01464
G1 X129.742 Y125.119 E.01616
G1 X129.597 Y125.57 E.01409
G1 X129.531 Y125.851 E.0086
G1 X129.459 Y126.375 E.01574
G1 X129.448 Y126.847 E.01407
G1 X129.465 Y127.135 E.00859
G1 X129.498 Y127.404 E.00807
G1 X129.596 Y127.866 E.01407
G1 X129.772 Y128.397 E.01666
G1 X129.972 Y128.825 E.01407
G1 X130.115 Y129.075 E.00858
G1 X130.265 Y129.302 E.00809
G1 X130.557 Y129.672 E.01407
G1 X130.951 Y130.07 E.01667
G1 X131.173 Y130.253 E.00858
G1 X131.56 Y130.524 E.01407
G1 X132.013 Y130.771 E.01537
G1 X132.505 Y130.969 E.01578
G1 X133.003 Y131.104 E.01537
G1 X133.513 Y131.181 E.01537
G1 X134.029 Y131.199 E.01537
G1 X134.573 Y131.152 E.01626
G1 X135.037 Y131.06 E.01408
G1 X135.285 Y130.989 E.00769
G1 X135.767 Y130.804 E.01537
G1 X136.011 Y130.685 E.00809
G1 X136.442 Y130.427 E.01497
G1 X136.884 Y130.084 E.01667
G1 X137.222 Y129.754 E.01408
G1 X137.4 Y129.549 E.00809
G1 X137.574 Y129.319 E.00858
G1 X137.829 Y128.92 E.01409
G1 X138.065 Y128.433 E.01612
G1 X138.228 Y127.969 E.01465
G1 X138.296 Y127.706 E.0081
G1 X138.347 Y127.442 E.00802
G1 X138.4 Y126.953 E.01464
G1 X138.406 Y126.681 E.0081
G1 X138.377 Y126.216 E.01388
G1 X140.388 Y126.773 E.06218
G1 X140.388 Y136.525 E.29047
G1 X138.051 Y136.525 E.06961
G1 X138.051 Y141.199 E.13923
G1 X133.377 Y141.199 E.13923
G1 X133.377 Y143.536 E.06961
G1 X128.703 Y143.536 E.13923
G1 X128.703 Y145.874 E.06961
G1 X119.355 Y145.874 E.27845
G1 X119.355 Y148.211 E.06961
G1 X112.343 Y148.211 E.20884
G1 X112.343 Y150.548 E.06961
G1 X102.995 Y150.548 E.27845
G1 X102.995 Y152.885 E.06961
G1 X100.658 Y152.885 E.06961
G1 X100.658 Y157.559 E.13923
G1 X87.73 Y157.559 E.38508
G1 X87.73 Y155.222 E.06961
G1 X78.382 Y155.222 E.27845
G1 X78.382 Y152.885 E.06961
G1 X76.044 Y152.885 E.06961
G1 X76.044 Y139.957 E.38508
G1 X78.382 Y139.957 E.06961
G1 X78.382 Y137.62 E.06961
G1 X80.719 Y137.62 E.06961
G1 X80.719 Y135.282 E.06961
G1 X83.056 Y135.282 E.06961
G1 X83.056 Y132.945 E.06961
G1 X85.393 Y132.945 E.06961
G1 X85.393 Y130.608 E.06961
G1 X87.73 Y130.608 E.06961
G1 X87.73 Y128.271 E.06961
G1 X90.067 Y128.271 E.06961
G1 X90.067 Y125.934 E.06961
G1 X92.404 Y125.934 E.06961
G1 X92.404 Y123.597 E.06961
G1 X125.123 Y123.597 E.97459
G1 X125.123 Y121.26 E.06961
G1 X132.832 Y121.26 E.22963
G1 X133.168 Y122.248 E.03108
G1 E-3.5 F3600
;WIPE_START
G1 F7200
G1 X132.832 Y121.26 E-.49569
G1 X130.876 Y121.26 E-.92931
;WIPE_END
G1 E-.075 F3600
G1 X139.551 Y136.356 F9000
G1 E5 F2400
G1 F1200
G1 X139.551 Y126.894 E.28184
G1 X138.745 Y126.67 E.02492
G1 X138.718 Y127.229 E.01666
G1 X138.628 Y127.777 E.01655
G1 X138.475 Y128.311 E.01655
G1 X138.294 Y128.752 E.01421
G1 X138.294 Y136.186 E.22142
G1 X137.712 Y136.186 E.01735
G1 X137.712 Y140.86 E.13923
G1 X137.037 Y140.86 E.02009
G1 X137.037 Y130.399 E.31159
G1 X136.648 Y130.697 E.01461
G1 X136.414 Y130.847 E.00827
G1 X136.152 Y130.995 E.00896
G1 X135.78 Y131.167 E.0122
G1 X135.78 Y140.86 E.28873
G1 X134.524 Y140.86 E.03744
G1 X134.524 Y131.501 E.27877
G1 X134.018 Y131.539 E.01511
G1 X133.74 Y131.536 E.00827
G1 X133.267 Y131.493 E.01416
G1 X133.267 Y140.86 E.27901
G1 X133.038 Y140.86 E.00682
G1 X133.038 Y143.197 E.06961
G1 X132.01 Y143.197 E.03062
G1 X132.01 Y131.14 E.35913
G1 X131.637 Y130.961 E.0123
G1 X131.377 Y130.81 E.00897
G1 X131.146 Y130.657 E.00827
G1 X130.753 Y130.346 E.01491
G1 X130.753 Y143.197 E.38278
G1 X129.496 Y143.197 E.03744
G1 X129.496 Y128.614 E.43439
G1 X129.355 Y128.247 E.01171
G1 X129.21 Y127.711 E.01652
G1 X129.127 Y127.163 E.01652
G1 X129.107 Y126.63 E.01587
G1 X129.126 Y126.296 E.00999
G1 X129.199 Y125.782 E.01545
G1 X129.332 Y125.264 E.01593
G1 X129.496 Y124.827 E.01392
G1 X129.496 Y121.599 E.09613
G1 X130.753 Y121.599 E.03744
G1 X130.753 Y123.095 E.04455
G1 X131.088 Y122.825 E.01283
G1 X131.336 Y122.656 E.00893
G1 X131.575 Y122.513 E.00828
G1 X132.01 Y122.299 E.01444
G1 X132.01 Y121.43 E.0259
G1 E-3.5 F3600
;WIPE_START
G1 F7200
G1 X132.01 Y122.299 E-.41302
G1 X131.575 Y122.513 E-.23026
G1 X131.336 Y122.656 E-.13207
G1 X131.088 Y122.825 E-.1424
G1 X130.753 Y123.095 E-.20467
G1 X130.753 Y122.458 E-.30259
;WIPE_END
G1 E-.075 F3600
G1 X128.239 Y145.704 F9000
G1 E5 F2400
G1 F1200
G1 X128.239 Y121.599 E.71799
G1 X126.982 Y121.599 E.03744
G1 X126.982 Y145.534 E.71294
G1 X125.725 Y145.534 E.03744
G1 X125.725 Y121.599 E.71294
G1 X125.463 Y121.599 E.00782
G1 X125.463 Y123.936 E.06961
G1 X124.468 Y123.936 E.02962
G1 X124.468 Y145.534 E.64332
G1 X123.211 Y145.534 E.03744
G1 X123.211 Y123.936 E.64332
G1 X121.954 Y123.936 E.03744
G1 X121.954 Y145.534 E.64332
G1 X120.697 Y145.534 E.03744
G1 X120.697 Y123.936 E.64332
G1 X119.44 Y123.936 E.03744
G1 X119.44 Y145.534 E.64332
G1 X119.015 Y145.534 E.01266
G1 X119.015 Y147.871 E.06961
G1 X118.183 Y147.871 E.02478
G1 X118.183 Y123.936 E.71294
G1 X116.927 Y123.936 E.03744
G1 X116.927 Y147.871 E.71294
G1 X115.67 Y147.871 E.03744
G1 X115.67 Y123.936 E.71294
G1 X114.413 Y123.936 E.03744
G1 X114.413 Y147.871 E.71294
G1 X113.156 Y147.871 E.03744
G1 X113.156 Y123.936 E.71294
G1 X111.899 Y123.936 E.03744
G1 X111.899 Y150.208 E.78255
G1 X110.642 Y150.208 E.03744
G1 X110.642 Y123.936 E.78255
G1 X109.385 Y123.936 E.03744
G1 X109.385 Y150.208 E.78255
G1 X108.128 Y150.208 E.03744
G1 X108.128 Y123.936 E.78255
G1 X106.871 Y123.936 E.03744
G1 X106.871 Y150.208 E.78255
G1 X105.614 Y150.208 E.03744
G1 X105.614 Y123.936 E.78255
G1 X104.357 Y123.936 E.03744
G1 X104.357 Y150.208 E.78255
G1 X103.1 Y150.208 E.03744
G1 X103.1 Y123.936 E.78255
G1 X101.843 Y123.936 E.03744
G1 X101.843 Y152.545 E.85216
G1 X100.586 Y152.545 E.03744
G1 X100.586 Y123.936 E.85216
G1 X99.329 Y123.936 E.03744
G1 X99.329 Y157.22 E.99139
G1 X98.073 Y157.22 E.03744
G1 X98.073 Y123.936 E.99139
G1 X96.816 Y123.936 E.03744
G1 X96.816 Y157.22 E.99139
G1 X95.559 Y157.22 E.03744
G1 X95.559 Y123.936 E.99139
G1 X94.302 Y123.936 E.03744
G1 X94.302 Y157.22 E.99139
G1 X93.045 Y157.22 E.03744
G1 X93.045 Y123.936 E.99139
G1 X92.743 Y123.936 E.00898
G1 X92.743 Y126.274 E.06961
G1 X91.788 Y126.274 E.02846
G1 X91.788 Y157.22 E.92178
G1 X90.531 Y157.22 E.03744
G1 X90.531 Y126.274 E.92178
G1 X90.406 Y126.274 E.00371
G1 X90.406 Y128.611 E.06961
G1 X89.274 Y128.611 E.03373
G1 X89.274 Y157.22 E.85216
G1 X88.069 Y157.22 E.03589
G1 X88.069 Y154.882 E.06961
G1 X88.017 Y154.882 E.00155
G1 X88.017 Y130.948 E.71294
G1 X86.76 Y130.948 E.03744
G1 X86.76 Y154.882 E.71294
G1 X85.503 Y154.882 E.03744
G1 X85.503 Y133.285 E.64332
G1 X84.246 Y133.285 E.03744
G1 X84.246 Y154.882 E.64332
G1 X82.989 Y154.882 E.03744
G1 X82.989 Y135.622 E.57371
G1 X81.732 Y135.622 E.03744
G1 X81.732 Y154.882 E.57371
G1 X80.476 Y154.882 E.03744
G1 X80.476 Y137.959 E.50409
G1 X79.219 Y137.959 E.03744
G1 X79.219 Y154.882 E.50409
G1 X78.721 Y154.882 E.01482
G1 X78.721 Y152.545 E.06961
G1 X77.962 Y152.545 E.02262
G1 X77.962 Y140.296 E.36487
G1 X76.705 Y140.296 E.03744
G1 X76.705 Y152.715 E.36992
G1 E-3.5 F3600
;WIPE_START
G1 F7200
G1 X76.705 Y149.715 E-1.425
;WIPE_END
G1 E-.075 F3600
G1 X131.848 Y127.086 F9000
G1 E5 F2400
;TYPE:Perimeter
G1 F1200
G1 X131.816 Y126.905 E.00549
G1 X131.816 Y126.514 E.01163
G1 X131.927 Y126.015 E.01523
G1 X132.092 Y125.661 E.01163
G1 X132.304 Y125.359 E.011
G1 X132.58 Y125.083 E.01163
G1 X133.011 Y124.808 E.01523
G1 X133.378 Y124.674 E.01163
G1 X133.762 Y124.607 E.01163
G1 X134.273 Y124.629 E.01523
G1 X134.65 Y124.73 E.01163
G1 X134.985 Y124.886 E.011
G1 X135.287 Y125.098 E.011
G1 X135.563 Y125.374 E.01163
G1 X135.838 Y125.805 E.01523
G1 X135.972 Y126.172 E.01163
G1 X136.04 Y126.556 E.01163
G1 X136.017 Y127.067 E.01523
G1 X135.916 Y127.444 E.01163
G1 X135.76 Y127.779 E.011
G1 X135.548 Y128.081 E.011
G1 X135.272 Y128.358 E.01163
G1 X134.841 Y128.632 E.01523
G1 X134.474 Y128.766 E.01163
G1 X134.111 Y128.83 E.011
G1 X133.72 Y128.83 E.01163
G1 X133.221 Y128.719 E.01523
G1 X132.867 Y128.554 E.01163
G1 X132.565 Y128.343 E.011
G1 X132.304 Y128.081 E.011
G1 X132.08 Y127.762 E.01163
G1 X131.884 Y127.289 E.01523
G1 X131.859 Y127.145 E.00435
G1 X132.275 Y127.248 F9000
G1 F1200
G1 X132.193 Y126.872 E.01147
G1 X132.193 Y126.556 E.00942
G1 X132.286 Y126.137 E.01277
G1 X132.42 Y125.85 E.00942
G1 X132.593 Y125.602 E.00903
G1 X132.817 Y125.378 E.00942
G1 X133.179 Y125.148 E.01277
G1 X133.476 Y125.04 E.00942
G1 X133.787 Y124.985 E.00942
G1 X134.216 Y125.004 E.01277
G1 X134.521 Y125.086 E.00942
G1 X134.796 Y125.214 E.00903
G1 X135.044 Y125.388 E.00903
G1 X135.268 Y125.611 E.00942
G1 X135.498 Y125.973 E.01277
G1 X135.606 Y126.27 E.00942
G1 X135.661 Y126.581 E.00942
G1 X135.642 Y127.01 E.01277
G1 X135.56 Y127.315 E.00942
G1 X135.432 Y127.59 E.00903
G1 X135.258 Y127.838 E.00903
G1 X135.035 Y128.062 E.00942
G1 X134.673 Y128.292 E.01277
G1 X134.376 Y128.4 E.00942
G1 X134.078 Y128.453 E.00903
G1 X133.761 Y128.453 E.00942
G1 X133.343 Y128.36 E.01277
G1 X133.056 Y128.226 E.00942
G1 X132.808 Y128.053 E.00903
G1 X132.593 Y127.838 E.00903
G1 X132.412 Y127.579 E.00942
G1 X132.298 Y127.303 E.0089
G1 X132.745 Y127.397 F9000
;TYPE:External perimeter
G1 F1200
G1 X132.612 Y127.077 E.01031
G1 X132.57 Y126.839 E.0072
G1 X132.57 Y126.597 E.0072
G1 X132.645 Y126.259 E.01031
G1 X132.747 Y126.04 E.0072
G1 X132.883 Y125.845 E.00707
G1 X133.054 Y125.674 E.0072
G1 X133.346 Y125.488 E.01031
G1 X133.574 Y125.406 E.0072
G1 X133.812 Y125.364 E.0072
G1 X134.158 Y125.379 E.01031
G1 X134.391 Y125.441 E.0072
G1 X134.606 Y125.542 E.00707
G1 X134.801 Y125.678 E.00707
G1 X134.972 Y125.849 E.0072
G1 X135.158 Y126.141 E.01031
G1 X135.241 Y126.368 E.0072
G1 X135.282 Y126.606 E.0072
G1 X135.267 Y126.952 E.01031
G1 X135.205 Y127.186 E.0072
G1 X135.105 Y127.401 E.00707
G1 X134.968 Y127.595 E.00707
G1 X134.797 Y127.766 E.0072
G1 X134.505 Y127.952 E.01031
G1 X134.278 Y128.035 E.0072
G1 X134.045 Y128.076 E.00707
G1 X133.803 Y128.076 E.0072
G1 X133.465 Y128.001 E.01031
G1 X133.246 Y127.899 E.0072
G1 X133.051 Y127.763 E.00707
G1 X132.883 Y127.595 E.00707
G1 X132.779 Y127.446 E.00542
G1 X132.399 Y127.387 F9000
G1 X131.094 Y127.489
;TYPE:Perimeter
G1 F1200
G1 X131.005 Y126.996 E.01493
G1 X130.992 Y126.658 E.01009
G1 X131.02 Y126.309 E.01042
G1 X131.131 Y125.828 E.01471
G1 X131.253 Y125.51 E.01014
G1 X131.416 Y125.199 E.01048
G1 X131.707 Y124.8 E.01469
G1 X131.943 Y124.558 E.01007
G1 X132.215 Y124.335 E.01048
G1 X132.639 Y124.083 E.01469
G1 X133.1 Y123.904 E.01473
G1 X133.442 Y123.826 E.01045
G1 X133.792 Y123.788 E.01048
G1 X134.284 Y123.808 E.01469
G1 X134.768 Y123.909 E.01472
G1 X135.097 Y124.03 E.01045
G1 X135.411 Y124.189 E.01048
G1 X135.814 Y124.474 E.01469
G1 X136.06 Y124.706 E.01007
G1 X136.286 Y124.975 E.01048
G1 X136.544 Y125.396 E.01469
G1 X136.73 Y125.852 E.01469
G1 X136.813 Y126.194 E.01049
G1 X136.854 Y126.53 E.01007
G1 X136.845 Y127.023 E.01469
G1 X136.787 Y127.37 E.01048
G1 X136.69 Y127.707 E.01045
G1 X136.484 Y128.158 E.01476
G1 X136.207 Y128.567 E.01473
G1 X135.97 Y128.825 E.01042
G1 X135.714 Y129.047 E.01009
G1 X135.298 Y129.314 E.01473
G1 X134.98 Y129.459 E.01042
G1 X134.657 Y129.562 E.01009
G1 X134.17 Y129.645 E.01473
G1 X133.819 Y129.652 E.01044
G1 X133.487 Y129.622 E.00995
G1 X132.99 Y129.501 E.01521
G1 X132.536 Y129.305 E.01473
G1 X132.239 Y129.121 E.01044
G1 X131.976 Y128.913 E.00995
G1 X131.619 Y128.534 E.01554
G1 X131.348 Y128.121 E.01472
G1 X131.203 Y127.814 E.01009
G1 X131.113 Y127.546 E.00842
G1 X130.905 Y128.066 F9000
G1 F1200
G1 X130.729 Y127.587 E.01519
G1 X130.629 Y127.032 E.01681
G1 X130.615 Y126.65 E.01137
G1 X130.645 Y126.262 E.01158
G1 X130.771 Y125.713 E.01679
G1 X130.909 Y125.354 E.01143
G1 X131.09 Y125.009 E.01161
G1 X131.421 Y124.553 E.01679
G1 X131.687 Y124.279 E.01137
G1 X131.989 Y124.033 E.01162
G1 X132.473 Y123.744 E.01679
G1 X133 Y123.54 E.01683
G1 X133.379 Y123.454 E.01158
G1 X133.767 Y123.412 E.01162
G1 X134.33 Y123.433 E.01679
G1 X134.883 Y123.549 E.01682
G1 X135.248 Y123.684 E.01158
G1 X135.596 Y123.86 E.01162
G1 X136.057 Y124.185 E.01679
G1 X136.334 Y124.447 E.01137
G1 X136.585 Y124.745 E.01162
G1 X136.881 Y125.225 E.01679
G1 X137.092 Y125.748 E.01679
G1 X137.184 Y126.127 E.01162
G1 X137.231 Y126.506 E.01137
G1 X137.22 Y127.069 E.01679
G1 X137.156 Y127.454 E.01162
G1 X137.048 Y127.827 E.01158
G1 X136.813 Y128.343 E.01686
G1 X136.496 Y128.809 E.01681
G1 X136.233 Y129.096 E.01158
G1 X135.945 Y129.346 E.01138
G1 X135.47 Y129.651 E.01681
G1 X135.115 Y129.811 E.01158
G1 X134.752 Y129.927 E.01138
G1 X134.195 Y130.021 E.01681
G1 X133.806 Y130.03 E.01159
G1 X133.436 Y129.996 E.01106
G1 X132.87 Y129.859 E.01734
G1 X132.352 Y129.635 E.01682
G1 X132.022 Y129.43 E.01159
G1 X131.73 Y129.2 E.01106
G1 X131.326 Y128.772 E.01754
G1 X131.015 Y128.301 E.01681
G1 X130.93 Y128.12 E.00595
G1 X130.768 Y128.618 F9000
;TYPE:External perimeter
G1 F1200
G1 X130.683 Y128.48 E.00482
G1 X130.502 Y128.096 E.01266
G1 X130.366 Y127.691 E.01273
G1 X130.314 Y127.47 E.00675
G1 X130.253 Y127.067 E.01216
G1 X130.237 Y126.642 E.01266
G1 X130.271 Y126.216 E.01274
G1 X130.309 Y125.993 E.00674
