; generated by PrusaSlicer 2.4.2 on 2022-08-29 at 16:14:52 UTC

; 

; external perimeters extrusion width = 0.45mm
; perimeters extrusion width = 0.45mm
; infill extrusion width = 0.45mm
; solid infill extrusion width = 0.45mm
; top infill extrusion width = 0.45mm
; support material extrusion width = 0.38mm
; first layer extrusion width = 0.42mm

M107
;TYPE:Custom
G90 ; use absolute coordinates
M83 ; extruder relative mode
M140 S70 ; set final bed temp
M104 S150 ; set temporary nozzle temp to prevent oozing during homing and auto bed leveling
G4 S10 ; allow partial nozzle warmup
G28 ; home all axis
G29 ; auto bed levelling
G1 Z30 F240
G1 X2 Y10 F3000
M104 S230 ; set final nozzle temp
M190 S70 ; wait for bed temp to stabilize
M109 S230 ; wait for nozzle temp to stabilize
G1 Z0.28 F240
G92 E0
G1 Y100 E11 F1500 ; prime the nozzle
G1 X2.3 F5000
G92 E0
G1 Y10 E11 F1000 ; prime the nozzle
G92 E0
G21 ; set units to millimeters
G90 ; use absolute coordinates
M83 ; use relative distances for extrusion
; Filament gcode
M107
;LAYER_CHANGE
;Z:0.2
;HEIGHT:0.2
;BEFORE_LAYER_CHANGE
G92 E0
;0.2


G1 E-4 F2700
G1 Z.2 F9000
;AFTER_LAYER_CHANGE
;0.2
G1 X101.012 Y95.632
G1 E4 F2400
M204 S500
;TYPE:Skirt/Brim
;WIDTH:0.42
G1 F900
G1 X103.27 Y94.877 E.07467
G1 X127.73 Y94.877 E.7669
G1 X129.405 Y95.271 E.05397
G1 X130.728 Y96.372 E.05397
G1 X131.484 Y98.631 E.07467
G1 X131.484 Y116.13 E.54868
G1 X130.961 Y118.041 E.06211
G1 X124.891 Y128.235 E.372
G1 X123.565 Y129.8 E.06432
G1 X122.614 Y130.639 E.03976
G1 X121.846 Y131.196 E.02976
G1 X120.613 Y131.907 E.04462
G1 X119.155 Y132.511 E.04948
G1 X117.518 Y132.929 E.05297
G1 X116.052 Y133.095 E.04627
G1 X114.474 Y133.063 E.04948
G1 X113.067 Y132.848 E.04462
G1 X111.398 Y132.351 E.05462
G1 X110.103 Y131.761 E.04463
G1 X108.934 Y131.045 E.04298
G1 X108.019 Y130.338 E.03626
G1 X106.999 Y129.345 E.04462
G1 X106.199 Y128.361 E.03977
G1 X100.039 Y118.041 E.37684
G1 X99.516 Y116.13 E.06211
G1 X99.516 Y98.631 E.54868
G1 X99.911 Y96.955 E.05397
G1 X100.974 Y95.678 E.05209
G1 X101.275 Y95.948 F9000
G1 F900
G1 X101.378 Y95.834 E.00483
G1 X103.27 Y95.254 E.06207
G1 X127.73 Y95.254 E.7669
G1 X129.313 Y95.648 E.05115
G1 X130.526 Y96.738 E.05115
G1 X131.107 Y98.631 E.06207
G1 X131.107 Y116.13 E.54868
G1 X130.636 Y117.849 E.05587
G1 X124.579 Y128.022 E.37122
G1 X123.304 Y129.528 E.06188
G1 X122.377 Y130.347 E.03879
G1 X121.633 Y130.885 E.02878
G1 X120.315 Y131.634 E.04752
G1 X119.04 Y132.152 E.04316
G1 X117.449 Y132.559 E.05151
G1 X116.029 Y132.719 E.0448
G1 X114.513 Y132.688 E.04752
G1 X113.152 Y132.481 E.04316
G1 X111.528 Y131.997 E.05315
G1 X110.275 Y131.426 E.04316
G1 X109.147 Y130.734 E.04151
G1 X108.269 Y130.055 E.0348
G1 X107.376 Y129.198 E.03879
G1 X106.502 Y128.135 E.04316
G1 X100.364 Y117.849 E.37558
G1 X99.893 Y116.13 E.05587
G1 X99.893 Y98.631 E.54868
G1 X100.287 Y97.048 E.05115
G1 X101.235 Y95.993 E.04444
; printing object MonsterBeetleParts-ServoSaver.stl id:0 copy 0
G1 E-2.8 F2700
;WIPE_START
G1 F7200
G1 X101.378 Y95.834 E-.07626
G1 X103.27 Y95.254 E-.70526
G1 X104.277 Y95.254 E-.35848
;WIPE_END
G1 E-.06 F2700
G1 X127.73 Y116.13 F9000
G1 E4 F2400
;TYPE:Support material
G1 F900
G1 X123.71 Y116.13 E.12603
G1 X123.704 Y112.992 E.09838
G1 X123.666 Y112.845 E.00477
G1 X123.577 Y112.686 E.00572
G1 X123.175 Y112.323 E.01698
G1 X122.594 Y111.873 E.02306
G1 X122.205 Y111.601 E.01488
G1 X121.508 Y111.168 E.02571
G1 X120.859 Y110.822 E.02306
G1 X120.431 Y110.619 E.01488
G1 X119.671 Y110.309 E.02571
G1 X118.974 Y110.077 E.02306
G1 X118.517 Y109.948 E.01488
G1 X117.716 Y109.77 E.02571
G1 X116.922 Y109.649 E.0252
G1 X116.518 Y109.608 E.01273
G1 X115.699 Y109.567 E.02571
G1 X115.293 Y109.567 E.01273
G1 X114.49 Y109.607 E.0252
G1 X113.676 Y109.704 E.02571
G1 X112.953 Y109.838 E.02306
G1 X112.491 Y109.946 E.01488
G1 X111.704 Y110.178 E.02571
G1 X111.014 Y110.431 E.02306
G1 X110.577 Y110.616 E.01488
G1 X109.84 Y110.976 E.02571
G1 X109.202 Y111.341 E.02306
G1 X108.802 Y111.596 E.01488
G1 X108.136 Y112.074 E.02571
G1 X107.449 Y112.654 E.02818
G1 X107.363 Y112.78 E.00478
G1 X107.303 Y112.952 E.00572
G1 X107.29 Y116.13 E.09964
G1 X103.27 Y116.13 E.12603
G1 X103.27 Y98.631 E.54868
G1 X127.73 Y98.631 E.7669
G1 X127.73 Y116.073 E.5469
G1 X126.812 Y115.96 F9000
G1 F900
G1 X126.812 Y98.97 E.53272
G1 X125.87 Y98.97 E.02956
G1 X125.87 Y115.791 E.5274
G1 X124.927 Y115.791 E.02956
G1 X124.927 Y98.97 E.5274
G1 X123.984 Y98.97 E.02956
G1 X123.984 Y112.728 E.43137
G1 X123.906 Y112.567 E.00561
G1 X123.747 Y112.368 E.00799
G1 X123.042 Y111.783 E.02873
G1 X123.042 Y98.97 E.40175
G1 X122.099 Y98.97 E.02956
G1 X122.099 Y111.128 E.38122
G1 X121.675 Y110.873 E.01553
G1 X121.156 Y110.593 E.01848
G1 X121.156 Y98.97 E.36442
G1 X120.213 Y98.97 E.02956
G1 X120.213 Y110.157 E.35076
G1 X119.271 Y109.814 E.03145
G1 X119.271 Y98.97 E.34002
G1 X118.328 Y98.97 E.02956
G1 X118.328 Y109.554 E.33185
G1 X117.385 Y109.37 E.03012
G1 X117.385 Y98.97 E.32608
G1 X116.443 Y98.97 E.02956
G1 X116.443 Y109.263 E.32272
G1 X115.5 Y109.227 E.02958
G1 X115.5 Y98.97 E.32161
G1 X114.557 Y98.97 E.02956
G1 X114.557 Y109.263 E.32272
G1 X113.615 Y109.37 E.02975
G1 X113.615 Y98.97 E.32608
G1 X112.672 Y98.97 E.02956
G1 X112.672 Y109.554 E.33185
G1 X111.729 Y109.814 E.03067
G1 X111.729 Y98.97 E.34002
G1 X110.787 Y98.97 E.02956
G1 X110.787 Y110.157 E.35076
G1 X109.844 Y110.593 E.03256
G1 X109.844 Y98.97 E.36442
G1 X108.901 Y98.97 E.02956
G1 X108.901 Y111.128 E.38122
G1 X108.272 Y111.55 E.02374
G1 X107.958 Y111.783 E.01226
G1 X107.958 Y98.97 E.40175
G1 X107.016 Y98.97 E.02956
G1 X107.016 Y112.728 E.43137
G1 X106.971 Y112.881 E.005
G1 X106.951 Y113.066 E.00584
G1 X106.951 Y115.791 E.08542
G1 X106.073 Y115.791 E.02752
G1 X106.073 Y98.97 E.5274
G1 X105.13 Y98.97 E.02956
G1 X105.13 Y115.791 E.5274
G1 X104.188 Y115.791 E.02956
G1 X104.188 Y98.8 E.53272
G1 E-2.8 F2700
;WIPE_START
G1 F7200
G1 X104.188 Y102 E-1.14
;WIPE_END
G1 E-.06 F2700
G1 X113.395 Y117.331 F9000
G1 E4 F2400
;TYPE:Perimeter
G1 F900
G1 X114.004 Y117.079 E.02066
G1 X114.542 Y116.937 E.01745
G1 X114.894 Y116.879 E.01119
G1 X115.394 Y116.841 E.01571
G1 X115.751 Y116.847 E.01119
G1 X116.304 Y116.907 E.01744
G1 X116.804 Y117.021 E.01608
G1 X117.144 Y117.131 E.01119
G1 X117.655 Y117.352 E.01746
G1 X118.099 Y117.608 E.01607
G1 X118.391 Y117.812 E.01118
G1 X118.815 Y118.174 E.01748
G1 X119.164 Y118.549 E.01606
G1 X119.384 Y118.829 E.01117
G1 X119.683 Y119.3 E.01749
G1 X119.906 Y119.761 E.01605
G1 X120.034 Y120.093 E.01116
G1 X120.182 Y120.632 E.01751
G1 X120.259 Y121.137 E.01604
G1 X120.283 Y121.482 E.01084
G1 X120.28 Y121.828 E.01084
G1 X120.233 Y122.337 E.01603
G1 X120.117 Y122.884 E.01752
G1 X120.009 Y123.223 E.01116
G1 X119.814 Y123.696 E.01605
G1 X119.543 Y124.184 E.0175
G1 X119.341 Y124.478 E.01117
G1 X119.015 Y124.873 E.01606
G1 X118.613 Y125.259 E.01748
G1 X118.334 Y125.48 E.01118
G1 X117.906 Y125.762 E.01607
G1 X117.408 Y126.013 E.01746
G1 X117.076 Y126.143 E.01119
G1 X116.584 Y126.286 E.01608
G1 X116.035 Y126.38 E.01745
G1 X115.679 Y126.406 E.01119
G1 X115.178 Y126.399 E.01571
G1 X114.823 Y126.362 E.01119
G1 X114.278 Y126.252 E.01745
G1 X113.79 Y126.094 E.01608
G1 X113.462 Y125.954 E.01119
G1 X112.972 Y125.689 E.01746
G1 X112.553 Y125.394 E.01607
G1 X112.28 Y125.165 E.01118
G1 X111.89 Y124.766 E.01748
G1 X111.576 Y124.362 E.01606
G1 X111.382 Y124.063 E.01117
G1 X111.126 Y123.567 E.0175
G1 X110.945 Y123.088 E.01604
G1 X110.848 Y122.746 E.01117
G1 X110.748 Y122.196 E.01751
G1 X110.716 Y121.685 E.01604
G1 X110.724 Y121.33 E.01116
G1 X110.79 Y120.773 E.01757
G1 X110.923 Y120.229 E.01756
G1 X111.04 Y119.893 E.01117
G1 X111.249 Y119.426 E.01605
G1 X111.535 Y118.946 E.01749
G1 X111.746 Y118.659 E.01117
G1 X112.076 Y118.282 E.01571
G1 X112.333 Y118.038 E.01112
G1 X112.734 Y117.719 E.01607
G1 X113.342 Y117.358 E.02216
G1 X113.563 Y117.669 F9000
G1 F900
G1 X114.121 Y117.438 E.01894
G1 X114.621 Y117.306 E.01621
G1 X114.939 Y117.253 E.0101
G1 X115.405 Y117.219 E.01466
G1 X115.727 Y117.223 E.0101
G1 X116.241 Y117.28 E.0162
G1 X116.704 Y117.385 E.01488
G1 X117.01 Y117.484 E.0101
G1 X117.485 Y117.689 E.01621
G1 X117.896 Y117.926 E.01487
G1 X118.16 Y118.111 E.0101
G1 X118.554 Y118.446 E.01623
G1 X118.877 Y118.794 E.01487
G1 X119.075 Y119.047 E.01009
G1 X119.353 Y119.484 E.01624
G1 X119.56 Y119.911 E.01486
G1 X119.675 Y120.211 E.01008
G1 X119.812 Y120.711 E.01625
G1 X119.884 Y121.179 E.01485
G1 X119.906 Y121.494 E.00989
G1 X119.903 Y121.809 E.00989
G1 X119.859 Y122.281 E.01485
G1 X119.752 Y122.788 E.01625
G1 X119.655 Y123.094 E.01008
G1 X119.474 Y123.533 E.01487
G1 X119.223 Y123.985 E.01624
G1 X119.04 Y124.25 E.01009
G1 X118.738 Y124.616 E.01487
G1 X118.365 Y124.975 E.01623
G1 X118.112 Y125.174 E.01009
G1 X117.716 Y125.435 E.01487
G1 X117.255 Y125.668 E.01622
G1 X116.955 Y125.785 E.0101
G1 X116.499 Y125.918 E.01488
G1 X115.989 Y126.005 E.01621
G1 X115.668 Y126.029 E.0101
G1 X115.201 Y126.022 E.01466
G1 X114.88 Y125.989 E.0101
G1 X114.374 Y125.887 E.01621
G1 X113.922 Y125.74 E.01488
G1 X113.626 Y125.614 E.0101
G1 X113.171 Y125.368 E.01622
G1 X112.783 Y125.095 E.01487
G1 X112.536 Y124.888 E.01009
G1 X112.174 Y124.518 E.01623
G1 X111.883 Y124.143 E.01487
G1 X111.709 Y123.873 E.01009
G1 X111.471 Y123.413 E.01624
G1 X111.303 Y122.97 E.01486
G1 X111.216 Y122.66 E.01009
G1 X111.123 Y122.15 E.01625
G1 X111.094 Y121.678 E.01486
G1 X111.1 Y121.356 E.01008
G1 X111.162 Y120.841 E.01628
G1 X111.285 Y120.336 E.01628
G1 X111.391 Y120.032 E.01009
G1 X111.585 Y119.6 E.01486
G1 X111.849 Y119.155 E.01624
G1 X112.04 Y118.896 E.01009
G1 X112.348 Y118.544 E.01466
G1 X112.581 Y118.323 E.01006
G1 X112.952 Y118.028 E.01487
G1 X113.51 Y117.696 E.02035
G1 X113.731 Y118.007 F9000
;TYPE:External perimeter
G1 F900
G1 X114.239 Y117.797 E.01723
G1 X114.7 Y117.675 E.01497
G1 X114.984 Y117.628 E.00901
G1 X115.417 Y117.596 E.0136
G1 X115.704 Y117.6 E.00901
G1 X116.179 Y117.652 E.01497
G1 X116.604 Y117.749 E.01368
G1 X116.877 Y117.838 E.00901
G1 X117.316 Y118.027 E.01497
G1 X117.694 Y118.245 E.01368
G1 X117.929 Y118.409 E.00901
G1 X118.293 Y118.719 E.01497
G1 X118.59 Y119.039 E.01368
G1 X118.767 Y119.265 E.00901
G1 X119.023 Y119.668 E.01498
G1 X119.213 Y120.061 E.01368
G1 X119.316 Y120.329 E.00901
G1 X119.443 Y120.79 E.01498
G1 X119.509 Y121.22 E.01367
G1 X119.528 Y121.505 E.00894
G1 X119.526 Y121.79 E.00894
G1 X119.486 Y122.224 E.01367
G1 X119.387 Y122.691 E.01498
G1 X119.3 Y122.965 E.009
G1 X119.134 Y123.369 E.01368
G1 X118.902 Y123.786 E.01498
G1 X118.739 Y124.023 E.00901
G1 X118.461 Y124.359 E.01368
G1 X118.117 Y124.69 E.01498
G1 X117.891 Y124.868 E.00901
G1 X117.527 Y125.108 E.01368
G1 X117.101 Y125.324 E.01497
G1 X116.833 Y125.428 E.00901
G1 X116.414 Y125.55 E.01368
G1 X115.944 Y125.631 E.01497
G1 X115.657 Y125.652 E.00901
G1 X115.223 Y125.645 E.0136
G1 X114.937 Y125.616 E.00901
G1 X114.469 Y125.521 E.01497
G1 X114.054 Y125.387 E.01368
G1 X113.79 Y125.274 E.00901
G1 X113.37 Y125.046 E.01497
G1 X113.013 Y124.796 E.01368
G1 X112.793 Y124.611 E.00901
G1 X112.459 Y124.27 E.01498
G1 X112.191 Y123.925 E.01368
G1 X112.035 Y123.684 E.00901
G1 X111.816 Y123.259 E.01498
G1 X111.662 Y122.852 E.01367
G1 X111.583 Y122.575 E.00901
G1 X111.498 Y122.105 E.01498
G1 X111.471 Y121.67 E.01368
G1 X111.477 Y121.383 E.00901
G1 X111.534 Y120.908 E.01499
G1 X111.647 Y120.443 E.01499
G1 X111.742 Y120.172 E.00901
G1 X111.92 Y119.774 E.01367
G1 X112.164 Y119.363 E.01498
G1 X112.334 Y119.132 E.00901
G1 X112.62 Y118.806 E.0136
G1 X112.828 Y118.608 E.009
G1 X113.17 Y118.337 E.01368
G1 X113.677 Y118.033 E.01853
G1 X113.758 Y117.608 F9000
G1 E-2.8 F2700
;WIPE_START
G1 F7200
G1 X114.239 Y117.797 E-.21704
G1 X114.7 Y117.675 E-.17007
G1 X114.984 Y117.628 E-.10241
G1 X115.417 Y117.596 E-.15455
G1 X115.704 Y117.6 E-.10241
G1 X116.179 Y117.652 E-.17006
G1 X116.604 Y117.749 E-.15545
G1 X116.786 Y117.808 E-.06802
;WIPE_END
G1 E-.06 F2700
G1 X108.834 Y113.5 F9000
G1 E4 F2400
;TYPE:Perimeter
G1 F900
G1 X109.359 Y113.089 E.0209
G1 X109.954 Y112.691 E.02245
G1 X110.575 Y112.334 E.02245
G1 X111.252 Y112.007 E.02356
G1 X111.864 Y111.758 E.02074
G1 X112.243 Y111.627 E.01256
G1 X113.209 Y111.362 E.03142
G1 X114.256 Y111.183 E.03329
G1 X114.962 Y111.124 E.02222
G1 X115.979 Y111.122 E.03189
G1 X116.746 Y111.184 E.02413
G1 X117.791 Y111.362 E.03323
G1 X118.806 Y111.643 E.03303
G1 X119.469 Y111.887 E.02214
G1 X120.163 Y112.201 E.02388
G1 X121.052 Y112.695 E.03189
G1 X121.641 Y113.089 E.02223
G1 X122.156 Y113.495 E.02056
G1 X122.159 Y121.902 E.26358
G1 X122.076 Y122.715 E.02564
G1 X121.959 Y123.271 E.01781
G1 X121.709 Y124.048 E.02559
G1 X121.488 Y124.552 E.01727
G1 X121.23 Y125.029 E.01699
G1 X120.781 Y125.689 E.02501
G1 X120.402 Y126.141 E.0185
G1 X120.014 Y126.529 E.0172
G1 X119.594 Y126.885 E.01727
G1 X118.92 Y127.346 E.02559
G1 X118.418 Y127.618 E.0179
G1 X117.664 Y127.929 E.02559
G1 X117.136 Y128.086 E.01727
G1 X116.596 Y128.199 E.0173
G1 X115.783 Y128.284 E.02565
G1 X115.225 Y128.284 E.0175
G1 X114.676 Y128.239 E.01727
G1 X114.131 Y128.148 E.0173
G1 X113.634 Y128.023 E.01609
G1 X113.343 Y127.931 E.00957
G1 X112.581 Y127.618 E.02582
G1 X112.088 Y127.35 E.01761
G1 X111.412 Y126.889 E.02565
G1 X110.978 Y126.522 E.01781
G1 X110.414 Y125.933 E.02559
G1 X110.076 Y125.498 E.01727
G1 X109.774 Y125.037 E.01727
G1 X109.4 Y124.312 E.02559
G1 X109.196 Y123.789 E.01758
G1 X109.039 Y123.261 E.01727
G1 X108.926 Y122.721 E.0173
G1 X108.841 Y121.907 E.02566
G1 X108.835 Y113.56 E.26173
G1 X108.457 Y113.322 F9000
G1 F900
G1 X109.142 Y112.781 E.02737
G1 X109.755 Y112.37 E.02315
G1 X110.395 Y112.002 E.02315
G1 X111.101 Y111.661 E.02459
G1 X111.732 Y111.405 E.02134
G1 X112.129 Y111.268 E.01315
G1 X113.13 Y110.993 E.03257
G1 X114.215 Y110.808 E.03448
G1 X114.946 Y110.747 E.02301
G1 X115.994 Y110.745 E.03286
G1 X116.787 Y110.809 E.02494
G1 X117.87 Y110.993 E.03445
G1 X118.925 Y111.285 E.03433
G1 X119.612 Y111.538 E.02296
G1 X120.332 Y111.864 E.02478
G1 X121.248 Y112.373 E.03286
G1 X121.858 Y112.781 E.02301
G1 X122.533 Y113.319 E.02705
G1 X122.536 Y121.917 E.26958
G1 X122.447 Y122.78 E.02721
G1 X122.252 Y123.629 E.02731
G1 X122.061 Y124.185 E.01844
G1 X121.827 Y124.718 E.01825
G1 X121.552 Y125.225 E.01808
G1 X121.082 Y125.916 E.0262
G1 X120.68 Y126.396 E.01962
G1 X120.27 Y126.806 E.01821
G1 X119.826 Y127.182 E.01825
G1 X119.11 Y127.672 E.02717
G1 X118.588 Y127.955 E.01863
G1 X117.787 Y128.286 E.02718
G1 X117.229 Y128.452 E.01825
G1 X116.659 Y128.571 E.01827
G1 X115.795 Y128.661 E.02721
G1 X115.209 Y128.661 E.01839
G1 X114.629 Y128.613 E.01825
G1 X114.054 Y128.517 E.01827
G1 X113.531 Y128.386 E.01691
G1 X113.217 Y128.287 E.01031
G1 X112.412 Y127.955 E.02731
G1 X111.895 Y127.675 E.01846
G1 X111.178 Y127.185 E.02721
G1 X110.726 Y126.802 E.01858
G1 X110.126 Y126.177 E.02718
G1 X109.769 Y125.717 E.01825
G1 X109.45 Y125.23 E.01825
G1 X109.053 Y124.46 E.02718
G1 X108.839 Y123.912 E.01844
G1 X108.673 Y123.354 E.01825
G1 X108.554 Y122.784 E.01827
G1 X108.464 Y121.92 E.02722
G1 X108.457 Y113.382 E.2677
G1 X108.08 Y113.145 F9000
;TYPE:External perimeter
G1 F900
G1 X108.924 Y112.472 E.03384
G1 X109.556 Y112.05 E.02384
G1 X110.216 Y111.671 E.02384
G1 X110.552 Y111.499 E.01182
G1 X110.951 Y111.315 E.0138
G1 X111.599 Y111.052 E.02193
G1 X112.014 Y110.909 E.01375
G1 X112.686 Y110.712 E.02195
G1 X113.052 Y110.624 E.01179
G1 X113.801 Y110.484 E.0239
G1 X114.173 Y110.433 E.01179
G1 X114.93 Y110.37 E.0238
G1 X116.009 Y110.368 E.03383
G1 X116.827 Y110.433 E.02575
G1 X117.199 Y110.484 E.01177
G1 X117.948 Y110.624 E.0239
G1 X118.314 Y110.712 E.01178
G1 X119.043 Y110.927 E.02384
G1 X119.755 Y111.189 E.02378
G1 X120.502 Y111.527 E.02569
G1 X121.445 Y112.051 E.03383
G1 X122.076 Y112.472 E.02379
G1 X122.377 Y112.696 E.01176
G1 X122.91 Y113.143 E.0218
G1 X122.913 Y121.932 E.27558
G1 X122.868 Y122.495 E.01773
G1 X122.819 Y122.845 E.01106
G1 X122.692 Y123.449 E.01935
G1 X122.612 Y123.74 E.00948
G1 X122.412 Y124.322 E.0193
G1 X122.166 Y124.884 E.01923
G1 X121.875 Y125.421 E.01917
G1 X121.384 Y126.144 E.0274
G1 X120.959 Y126.651 E.02073
G1 X120.525 Y127.084 E.01921
G1 X120.057 Y127.48 E.01923
G1 X119.556 Y127.838 E.0193
