; generated by PrusaSlicer 2.4.2 on 2022-08-29 at 14:41:29 UTC

; 

; external perimeters extrusion width = 0.45mm
; perimeters extrusion width = 0.45mm
; infill extrusion width = 0.45mm
; solid infill extrusion width = 0.45mm
; top infill extrusion width = 0.45mm
; first layer extrusion width = 0.42mm

M107
;TYPE:Custom
G90 ; use absolute coordinates
M83 ; extruder relative mode
M140 S70 ; set final bed temp
M104 S150 ; set temporary nozzle temp to prevent oozing during homing and auto bed leveling
G4 S10 ; allow partial nozzle warmup
G28 ; home all axis
G29 ; auto bed levelling
G1 Z30 F240
G1 X2 Y10 F3000
M104 S230 ; set final nozzle temp
M190 S70 ; wait for bed temp to stabilize
M109 S230 ; wait for nozzle temp to stabilize
G1 Z0.28 F240
G92 E0
G1 Y100 E11 F1500 ; prime the nozzle
G1 X2.3 F5000
G92 E0
G1 Y10 E11 F1000 ; prime the nozzle
G92 E0
G21 ; set units to millimeters
G90 ; use absolute coordinates
M83 ; use relative distances for extrusion
; Filament gcode
M107
;LAYER_CHANGE
;Z:0.2
;HEIGHT:0.2
;BEFORE_LAYER_CHANGE
G92 E0
;0.2


G1 E-4 F2700
G1 Z.2 F9000
;AFTER_LAYER_CHANGE
;0.2
G1 X102.707 Y102.464
G1 E4 F2400
M204 S500
;TYPE:Skirt/Brim
;WIDTH:0.42
G1 F900
G1 X104.05 Y101.273 E.05628
G1 X105.342 Y100.323 E.05026
G1 X107.049 Y99.317 E.06215
G1 X108.677 Y98.569 E.05614
G1 X110.019 Y98.089 E.04472
G1 X111.757 Y97.636 E.0563
G1 X113.526 Y97.356 E.05613
G1 X115.316 Y97.25 E.05623
G1 X117.108 Y97.32 E.05625
G1 X118.884 Y97.565 E.05622
G1 X120.626 Y97.981 E.05613
G1 X122.323 Y98.569 E.05633
G1 X123.951 Y99.317 E.05614
G1 X125.5 Y100.223 E.05628
G1 X126.95 Y101.273 E.05613
G1 X128.551 Y102.722 E.06772
G1 X129.745 Y104.062 E.05628
G1 X130.799 Y105.512 E.05619
G1 X134.712 Y112.199 E.24293
G1 X135.22 Y113.479 E.04319
G1 X135.42 Y114.374 E.02874
G1 X135.504 Y115.28 E.02853
G1 X135.475 Y116.19 E.02854
G1 X135.22 Y117.521 E.04248
G1 X134.712 Y118.801 E.04319
G1 X130.799 Y125.488 E.24293
G1 X129.509 Y127.224 E.0678
G1 X128.293 Y128.536 E.0561
G1 X126.95 Y129.727 E.05628
G1 X125.658 Y130.677 E.05026
G1 X123.951 Y131.683 E.06215
G1 X122.323 Y132.431 E.05614
G1 X120.981 Y132.911 E.04472
G1 X119.243 Y133.364 E.0563
G1 X117.474 Y133.644 E.05613
G1 X115.684 Y133.75 E.05623
G1 X113.892 Y133.68 E.05625
G1 X112.116 Y133.435 E.05622
G1 X110.374 Y133.019 E.05613
G1 X108.677 Y132.431 E.05633
G1 X107.049 Y131.683 E.05614
G1 X105.344 Y130.678 E.06207
G1 X104.05 Y129.727 E.05034
G1 X102.449 Y128.278 E.06772
G1 X101.255 Y126.938 E.05628
G1 X100.201 Y125.488 E.05619
G1 X96.288 Y118.801 E.24293
G1 X95.78 Y117.521 E.04319
G1 X95.58 Y116.626 E.02874
G1 X95.496 Y115.72 E.02853
G1 X95.525 Y114.81 E.02854
G1 X95.78 Y113.479 E.04248
G1 X96.288 Y112.199 E.04319
G1 X100.201 Y105.512 E.24293
G1 X101.491 Y103.776 E.0678
G1 X102.667 Y102.508 E.05422
G1 X102.942 Y102.763 F9000
G1 F900
G1 X104.275 Y101.576 E.05595
G1 X105.552 Y100.636 E.04973
G1 X107.21 Y99.658 E.06036
G1 X108.803 Y98.924 E.05499
G1 X110.146 Y98.444 E.04472
G1 X111.849 Y98.002 E.05514
G1 X113.581 Y97.729 E.05498
G1 X115.334 Y97.627 E.05507
G1 X117.09 Y97.697 E.05509
G1 X118.829 Y97.938 E.05506
G1 X120.534 Y98.347 E.05498
G1 X122.197 Y98.924 E.05516
G1 X123.79 Y99.658 E.05499
G1 X125.306 Y100.546 E.05512
G1 X126.725 Y101.576 E.05497
G1 X128.272 Y102.976 E.0654
G1 X129.442 Y104.287 E.05511
G1 X130.475 Y105.706 E.05503
G1 X134.381 Y112.381 E.24249
G1 X134.855 Y113.574 E.04023
G1 X135.046 Y114.421 E.02724
G1 X135.127 Y115.28 E.02704
G1 X135.101 Y116.143 E.02706
G1 X134.855 Y117.426 E.04098
G1 X134.381 Y118.619 E.04023
G1 X130.475 Y125.294 E.24249
G1 X129.23 Y126.97 E.06548
G1 X128.039 Y128.257 E.05495
G1 X126.725 Y129.424 E.05511
G1 X125.448 Y130.364 E.04973
G1 X123.79 Y131.342 E.06037
G1 X122.197 Y132.076 E.05499
G1 X120.854 Y132.556 E.04472
G1 X119.151 Y132.998 E.05514
G1 X117.419 Y133.271 E.05498
G1 X115.666 Y133.373 E.05507
G1 X113.91 Y133.303 E.05509
G1 X112.171 Y133.062 E.05506
G1 X110.466 Y132.653 E.05498
G1 X108.803 Y132.076 E.05516
G1 X107.21 Y131.342 E.05499
G1 X105.554 Y130.365 E.0603
G1 X104.275 Y129.424 E.0498
G1 X102.728 Y128.024 E.0654
G1 X101.558 Y126.713 E.05511
G1 X100.525 Y125.294 E.05503
G1 X96.619 Y118.619 E.24249
G1 X96.145 Y117.426 E.04023
G1 X95.954 Y116.579 E.02724
G1 X95.873 Y115.72 E.02704
G1 X95.899 Y114.857 E.02706
G1 X96.145 Y113.574 E.04098
G1 X96.619 Y112.381 E.04023
G1 X100.525 Y105.706 E.24249
G1 X101.77 Y104.03 E.06548
G1 X102.902 Y102.807 E.05223
; printing object ORV_Motor_Gear_Cover.stl id:0 copy 0
G1 E-2.8 F2700
;WIPE_START
G1 F7200
G1 X104.275 Y101.576 E-.65697
G1 X105.367 Y100.773 E-.48303
;WIPE_END
G1 E-.06 F2700
G1 X126.557 Y114.101 F9000
G1 E4 F2400
;TYPE:Perimeter
G1 F900
G1 X126.945 Y113.736 E.0167
G1 X127.195 Y113.579 E.00925
G1 X127.46 Y113.455 E.00918
G1 X127.956 Y113.327 E.01605
G1 X128.25 Y113.309 E.00925
G1 X128.527 Y113.326 E.00869
G1 X128.796 Y113.378 E.00859
G1 X129.056 Y113.462 E.00858
G1 X129.305 Y113.579 E.00863
G1 X129.555 Y113.736 E.00925
G1 X129.943 Y114.101 E.0167
G1 X130.228 Y114.549 E.01665
G1 X130.336 Y114.822 E.00922
G1 X130.405 Y115.088 E.00861
G1 X130.44 Y115.362 E.00867
G1 X130.44 Y115.638 E.00863
G1 X130.405 Y115.912 E.00867
G1 X130.336 Y116.178 E.00861
G1 X130.228 Y116.451 E.00922
G1 X129.943 Y116.899 E.01665
G1 X129.555 Y117.264 E.0167
G1 X129.305 Y117.421 E.00925
G1 X129.04 Y117.545 E.00918
G1 X128.544 Y117.673 E.01605
G1 X128.25 Y117.691 E.00925
G1 X127.973 Y117.674 E.00869
G1 X127.704 Y117.622 E.00859
G1 X127.444 Y117.538 E.00858
G1 X127.195 Y117.421 E.00863
G1 X126.945 Y117.264 E.00925
G1 X126.57 Y116.912 E.01612
G1 X126.398 Y116.674 E.00921
G1 X126.266 Y116.434 E.00859
G1 X126.164 Y116.178 E.00865
G1 X126.09 Y115.893 E.00923
G1 X126.059 Y115.382 E.01605
G1 X126.094 Y115.09 E.00923
G1 X126.164 Y114.822 E.00866
G1 X126.272 Y114.549 E.00922
G1 X126.525 Y114.151 E.01477
G1 X126.85 Y114.343 F9000
;TYPE:External perimeter
G1 F900
G1 X127.177 Y114.036 E.01407
G1 X127.376 Y113.91 E.00737
G1 X127.588 Y113.811 E.00734
G1 X128.015 Y113.701 E.01383
G1 X128.25 Y113.686 E.00738
G1 X128.479 Y113.701 E.00718
G1 X128.701 Y113.744 E.00712
G1 X128.918 Y113.814 E.00712
G1 X129.124 Y113.91 E.00714
G1 X129.323 Y114.036 E.00737
G1 X129.65 Y114.343 E.01407
G1 X129.89 Y114.721 E.01405
G1 X129.977 Y114.94 E.00737
G1 X130.034 Y115.159 E.00712
G1 X130.063 Y115.386 E.00717
G1 X130.063 Y115.614 E.00713
G1 X130.034 Y115.841 E.00717
G1 X129.977 Y116.06 E.00712
G1 X129.89 Y116.279 E.00737
G1 X129.65 Y116.657 E.01405
G1 X129.323 Y116.964 E.01407
G1 X129.124 Y117.09 E.00737
G1 X128.912 Y117.189 E.00734
G1 X128.485 Y117.299 E.01383
G1 X128.25 Y117.314 E.00738
G1 X128.021 Y117.299 E.00718
G1 X127.799 Y117.256 E.00712
G1 X127.582 Y117.186 E.00712
G1 X127.376 Y117.09 E.00714
G1 X127.177 Y116.964 E.00737
G1 X126.855 Y116.661 E.01387
G1 X126.717 Y116.472 E.00736
G1 X126.607 Y116.273 E.00712
G1 X126.523 Y116.06 E.00716
G1 X126.464 Y115.834 E.00734
G1 X126.437 Y115.394 E.01382
G1 X126.466 Y115.16 E.00737
G1 X126.523 Y114.94 E.00714
G1 X126.61 Y114.721 E.00737
G1 X126.818 Y114.394 E.01217
G1 X126.718 Y113.965 F9000
G1 E-2.8 F2700
;WIPE_START
G1 F7200
G1 X127.177 Y114.036 E-.18067
G1 X127.376 Y113.91 E-.08379
G1 X127.588 Y113.811 E-.0834
G1 X128.015 Y113.701 E-.1571
G1 X128.25 Y113.686 E-.08385
G1 X128.479 Y113.701 E-.0816
G1 X128.701 Y113.744 E-.08087
G1 X128.918 Y113.814 E-.08094
G1 X129.124 Y113.91 E-.08115
G1 X129.323 Y114.036 E-.08379
G1 X129.615 Y114.31 E-.14282
;WIPE_END
G1 E-.06 F2700
G1 X124.061 Y114.914 F9000
G1 E4 F2400
;TYPE:Perimeter
G1 F900
G1 X124.067 Y116.038 E.03525
G1 X123.931 Y117.107 E.03377
G1 X123.663 Y118.148 E.03371
G1 X123.267 Y119.148 E.03374
G1 X122.747 Y120.092 E.03378
G1 X122.113 Y120.962 E.03375
G1 X121.376 Y121.747 E.03375
G1 X120.545 Y122.433 E.03379
G1 X119.635 Y123.009 E.03377
G1 X118.659 Y123.468 E.03381
G1 X117.633 Y123.8 E.03381
G1 X116.576 Y124.001 E.03376
G1 X115.5 Y124.069 E.03379
G1 X114.424 Y124.001 E.03379
G1 X113.367 Y123.8 E.03376
G1 X112.341 Y123.468 E.03381
G1 X111.365 Y123.009 E.03381
G1 X110.455 Y122.433 E.03377
G1 X109.624 Y121.747 E.03379
G1 X108.887 Y120.962 E.03375
G1 X108.253 Y120.092 E.03375
G1 X107.733 Y119.148 E.03378
G1 X107.337 Y118.148 E.03374
G1 X107.069 Y117.106 E.03373
G1 X106.934 Y116.038 E.03376
G1 X106.934 Y114.962 E.03373
G1 X107.069 Y113.894 E.03376
G1 X107.337 Y112.852 E.03373
G1 X107.733 Y111.852 E.03374
G1 X108.253 Y110.908 E.03378
G1 X108.887 Y110.038 E.03375
G1 X109.624 Y109.253 E.03375
G1 X110.455 Y108.567 E.03379
G1 X111.365 Y107.991 E.03377
G1 X112.341 Y107.532 E.03381
G1 X113.367 Y107.2 E.03381
G1 X114.424 Y106.999 E.03376
G1 X115.473 Y106.932 E.03295
G1 X116.574 Y106.999 E.03457
G1 X117.633 Y107.2 E.03381
G1 X118.659 Y107.532 E.03381
G1 X119.635 Y107.991 E.03381
G1 X120.545 Y108.567 E.03377
G1 X121.376 Y109.253 E.03379
G1 X122.113 Y110.038 E.03375
G1 X122.747 Y110.908 E.03375
G1 X123.267 Y111.852 E.03378
G1 X123.663 Y112.852 E.03374
G1 X123.931 Y113.893 E.03371
G1 X124.054 Y114.855 E.03039
G1 X123.687 Y114.962 F9000
G1 F900
G1 X123.69 Y116.015 E.03301
G1 X123.56 Y117.036 E.03227
G1 X123.304 Y118.031 E.03223
G1 X122.925 Y118.987 E.03225
G1 X122.428 Y119.889 E.03229
G1 X121.822 Y120.721 E.03227
G1 X121.117 Y121.471 E.03227
G1 X120.323 Y122.127 E.0323
G1 X119.453 Y122.678 E.03228
G1 X118.52 Y123.116 E.03232
G1 X117.54 Y123.434 E.03231
G1 X116.528 Y123.626 E.03228
G1 X115.5 Y123.691 E.03231
G1 X114.472 Y123.626 E.0323
G1 X113.46 Y123.434 E.03228
G1 X112.48 Y123.116 E.03231
G1 X111.547 Y122.678 E.03232
G1 X110.677 Y122.127 E.03228
G1 X109.883 Y121.471 E.0323
G1 X109.178 Y120.721 E.03227
G1 X108.572 Y119.889 E.03227
G1 X108.075 Y118.987 E.03229
G1 X107.696 Y118.031 E.03225
G1 X107.44 Y117.035 E.03224
G1 X107.311 Y116.014 E.03227
G1 X107.311 Y114.986 E.03224
G1 X107.44 Y113.965 E.03227
G1 X107.696 Y112.969 E.03224
G1 X108.075 Y112.013 E.03225
G1 X108.572 Y111.111 E.03229
G1 X109.178 Y110.279 E.03227
G1 X109.883 Y109.529 E.03227
G1 X110.677 Y108.873 E.0323
G1 X111.547 Y108.322 E.03228
G1 X112.48 Y107.884 E.03233
G1 X113.46 Y107.566 E.03231
G1 X114.472 Y107.374 E.03228
G1 X115.474 Y107.31 E.03148
G1 X116.527 Y107.374 E.03309
G1 X117.54 Y107.566 E.03231
G1 X118.52 Y107.884 E.03231
G1 X119.453 Y108.322 E.03232
G1 X120.323 Y108.873 E.03228
G1 X121.117 Y109.529 E.0323
G1 X121.822 Y110.279 E.03227
G1 X122.428 Y111.111 E.03227
G1 X122.925 Y112.013 E.03229
G1 X123.304 Y112.969 E.03225
G1 X123.56 Y113.964 E.03223
G1 X123.679 Y114.902 E.02964
G1 X123.313 Y115.009 F9000
;TYPE:External perimeter
G1 F900
G1 X123.313 Y115.991 E.03077
G1 X123.189 Y116.964 E.03078
G1 X122.944 Y117.914 E.03075
G1 X122.583 Y118.826 E.03077
G1 X122.109 Y119.687 E.0308
G1 X121.531 Y120.48 E.03078
G1 X120.859 Y121.196 E.03079
G1 X120.101 Y121.821 E.0308
G1 X119.271 Y122.346 E.03079
G1 X118.381 Y122.765 E.03084
G1 X117.446 Y123.068 E.03082
G1 X116.481 Y123.251 E.0308
G1 X115.5 Y123.314 E.03082
G1 X114.519 Y123.251 E.03082
G1 X113.554 Y123.068 E.0308
G1 X112.619 Y122.765 E.03082
G1 X111.729 Y122.346 E.03084
G1 X110.899 Y121.821 E.03079
G1 X110.141 Y121.196 E.0308
G1 X109.469 Y120.48 E.03079
G1 X108.891 Y119.687 E.03078
G1 X108.417 Y118.826 E.0308
G1 X108.056 Y117.914 E.03077
G1 X107.811 Y116.964 E.03075
G1 X107.688 Y115.99 E.03078
G1 X107.688 Y115.01 E.03076
G1 X107.811 Y114.036 E.03078
G1 X108.056 Y113.086 E.03075
G1 X108.417 Y112.174 E.03077
G1 X108.891 Y111.313 E.0308
G1 X109.469 Y110.52 E.03078
G1 X110.141 Y109.804 E.03079
G1 X110.899 Y109.179 E.0308
G1 X111.729 Y108.654 E.03079
G1 X112.619 Y108.235 E.03084
G1 X113.554 Y107.932 E.03082
G1 X114.519 Y107.749 E.0308
G1 X115.474 Y107.688 E.03002
G1 X116.48 Y107.749 E.0316
G1 X117.446 Y107.932 E.03081
G1 X118.381 Y108.235 E.03082
G1 X119.271 Y108.654 E.03084
G1 X120.101 Y109.179 E.03079
G1 X120.859 Y109.804 E.0308
G1 X121.531 Y110.52 E.03079
G1 X122.109 Y111.313 E.03078
G1 X122.583 Y112.174 E.0308
G1 X122.944 Y113.086 E.03077
G1 X123.189 Y114.036 E.03075
G1 X123.305 Y114.95 E.0289
G1 X123.671 Y115.187 F9000
G1 E-2.8 F2700
;WIPE_START
G1 F7200
G1 X123.313 Y115.991 E-.3708
G1 X123.189 Y116.964 E-.34973
G1 X122.944 Y117.914 E-.34937
G1 X122.872 Y118.097 E-.07011
;WIPE_END
G1 E-.06 F2700
G1 X105.284 Y115.048 F9000
G1 E4 F2400
;TYPE:Perimeter
G1 F900
G1 X105.196 Y114.705 E.01111
G1 X105.076 Y114.405 E.01014
G1 X104.921 Y114.123 E.01007
G1 X104.714 Y113.838 E.01107
G1 X104.286 Y113.437 E.01837
G1 X103.987 Y113.247 E.01112
G1 X103.694 Y113.111 E.01012
G1 X103.39 Y113.013 E.01003
G1 X103.075 Y112.951 E.01006
G1 X102.75 Y112.931 E.01021
G1 X102.396 Y112.953 E.01112
G1 X102.268 Y112.986 E.00415
G1 X102.616 Y111.601 E.04479
G1 X103.061 Y110.359 E.04135
G1 X103.626 Y109.168 E.04134
G1 X104.305 Y108.037 E.04138
G1 X105.092 Y106.978 E.04135
G1 X105.98 Y106.001 E.04138
G1 X106.958 Y105.115 E.04139
G1 X108.019 Y104.33 E.04138
G1 X109.152 Y103.652 E.04141
G1 X110.347 Y103.089 E.04141
G1 X111.592 Y102.644 E.04144
G1 X112.873 Y102.324 E.04142
G1 X114.18 Y102.13 E.04141
G1 X115.519 Y102.066 E.04205
G1 X116.82 Y102.13 E.04082
G1 X118.127 Y102.324 E.04143
G1 X119.408 Y102.644 E.04142
G1 X120.653 Y103.089 E.04144
G1 X121.848 Y103.652 E.04141
G1 X122.981 Y104.33 E.04142
G1 X124.042 Y105.115 E.04138
G1 X125.02 Y106.001 E.04139
G1 X125.908 Y106.978 E.04138
G1 X126.695 Y108.037 E.04135
G1 X127.374 Y109.168 E.04138
G1 X127.939 Y110.359 E.04134
G1 X128.384 Y111.601 E.04135
G1 X128.731 Y112.982 E.04464
G1 X128.575 Y112.951 E.00498
G1 X128.25 Y112.931 E.01021
G1 X127.896 Y112.953 E.01112
G1 X127.332 Y113.098 E.01826
G1 X127.013 Y113.247 E.01103
G1 X126.714 Y113.437 E.01112
G1 X126.264 Y113.858 E.01932
G1 X125.935 Y114.377 E.01926
G1 X125.804 Y114.705 E.01108
G1 X125.723 Y115.02 E.01018
G1 X125.68 Y115.371 E.01109
G1 X125.716 Y115.952 E.01827
G1 X125.804 Y116.295 E.01111
G1 X125.924 Y116.595 E.01014
G1 X126.079 Y116.877 E.01007
G1 X126.286 Y117.162 E.01107
G1 X126.714 Y117.563 E.01837
G1 X127.013 Y117.753 E.01112
G1 X127.306 Y117.889 E.01012
G1 X127.61 Y117.987 E.01003
G1 X127.925 Y118.049 E.01006
G1 X128.25 Y118.069 E.01021
G1 X128.604 Y118.047 E.01112
G1 X128.732 Y118.014 E.00415
G1 X128.384 Y119.399 E.04479
G1 X127.939 Y120.641 E.04135
G1 X127.374 Y121.832 E.04134
G1 X126.695 Y122.963 E.04138
G1 X125.908 Y124.022 E.04135
G1 X125.02 Y124.999 E.04138
G1 X124.042 Y125.885 E.04139
G1 X122.981 Y126.67 E.04138
G1 X121.848 Y127.348 E.04141
G1 X120.653 Y127.911 E.04141
G1 X119.408 Y128.356 E.04144
G1 X118.127 Y128.676 E.04142
G1 X116.82 Y128.87 E.04143
G1 X115.5 Y128.935 E.04143
G1 X114.18 Y128.87 E.04142
G1 X112.873 Y128.676 E.04143
G1 X111.592 Y128.356 E.04142
G1 X110.347 Y127.911 E.04144
G1 X109.152 Y127.348 E.04141
G1 X108.019 Y126.67 E.04142
G1 X106.958 Y125.885 E.04138
G1 X105.98 Y124.999 E.04139
G1 X105.092 Y124.022 E.04138
G1 X104.305 Y122.963 E.04135
G1 X103.626 Y121.832 E.04138
G1 X103.061 Y120.641 E.04134
G1 X102.616 Y119.399 E.04135
G1 X102.269 Y118.018 E.04464
G1 X102.425 Y118.049 E.00498
G1 X102.75 Y118.069 E.01021
G1 X103.104 Y118.047 E.01112
G1 X103.668 Y117.902 E.01826
G1 X103.987 Y117.753 E.01103
G1 X104.286 Y117.563 E.01112
G1 X104.736 Y117.142 E.01932
G1 X105.065 Y116.623 E.01926
G1 X105.196 Y116.295 E.01108
G1 X105.277 Y115.98 E.01018
G1 X105.32 Y115.629 E.01109
G1 X105.288 Y115.108 E.01638
G1 X104.937 Y115.652 F9000
G1 F900
G1 X104.906 Y115.91 E.00815
G1 X104.836 Y116.178 E.00866
G1 X104.728 Y116.451 E.00922
G1 X104.443 Y116.899 E.01665
G1 X104.055 Y117.264 E.0167
G1 X103.805 Y117.421 E.00925
G1 X103.54 Y117.545 E.00918
G1 X103.044 Y117.673 E.01605
G1 X102.75 Y117.691 E.00925
G1 X102.473 Y117.674 E.00869
G1 X102.204 Y117.622 E.00859
G1 X101.944 Y117.538 E.00858
G1 X101.695 Y117.421 E.00863
G1 X101.445 Y117.264 E.00925
G1 X101.057 Y116.899 E.0167
G1 X100.772 Y116.451 E.01665
G1 X100.664 Y116.178 E.00922
G1 X100.595 Y115.912 E.00861
G1 X100.56 Y115.638 E.00867
G1 X100.56 Y115.362 E.00863
G1 X100.595 Y115.088 E.00867
G1 X100.664 Y114.822 E.00861
G1 X100.772 Y114.549 E.00922
G1 X101.057 Y114.101 E.01665
G1 X101.445 Y113.736 E.0167
G1 X101.695 Y113.579 E.00925
G1 X101.96 Y113.455 E.00918
G1 X102.456 Y113.327 E.01605
G1 X102.75 Y113.309 E.00925
G1 X103.027 Y113.326 E.00869
