; generated by PrusaSlicer 2.4.0+linux-x64-GTK3 on 2022-07-05 at 18:41:49 UTC

; 

; external perimeters extrusion width = 0.45mm
; perimeters extrusion width = 0.45mm
; infill extrusion width = 0.45mm
; solid infill extrusion width = 0.45mm
; top infill extrusion width = 0.40mm
; support material extrusion width = 0.38mm
; first layer extrusion width = 0.42mm

M201 X500 Y500 Z100 E5000 ; sets maximum accelerations, mm/sec^2
M203 X500 Y500 Z10 E60 ; sets maximum feedrates, mm/sec
M204 P500 R1000 T500 ; sets acceleration (P, T) and retract acceleration (R), mm/sec^2
M205 X8.00 Y8.00 Z0.40 E5.00 ; sets the jerk limits, mm/sec
M205 S0 T0 ; sets the minimum extruding and travel feed rate, mm/sec
M107
;TYPE:Custom
G90 ; use absolute coordinates
M83 ; extruder relative mode
M140 S50 ; set final bed temp
M104 S150 ; set temporary nozzle temp to prevent oozing during homing and auto bed leveling
G4 S10 ; allow partial nozzle warmup
G28 ; home all axis
G29 ; auto bed levelling
G1 Z50 F240
G1 X2 Y10 F3000
M104 S205 ; set final nozzle temp
M190 S50 ; wait for bed temp to stabilize
M109 S205 ; wait for nozzle temp to stabilize
G1 Z0.28 F240
G92 E0
G1 Y140 E10 F1500 ; prime the nozzle
G1 X2.3 F5000
G92 E0
G1 Y10 E10 F1200 ; prime the nozzle
G92 E0
G21 ; set units to millimeters
G90 ; use absolute coordinates
M83 ; use relative distances for extrusion
; Filament gcode
M107
;LAYER_CHANGE
;Z:0.2
;HEIGHT:0.2
;BEFORE_LAYER_CHANGE
G92 E0
;0.2


G1 E-5 F3600
G1 Z.2 F9000
;AFTER_LAYER_CHANGE
;0.2
G1 X99.585 Y99.189
G1 E5 F2400
M204 S500
;TYPE:Skirt/Brim
;WIDTH:0.42
G1 F1200
G1 X101.134 Y97.81 E.06242
G1 X102.937 Y96.49 E.06728
G1 X104.864 Y95.351 E.06737
G1 X106.891 Y94.408 E.06727
G1 X109.004 Y93.666 E.06742
G1 X111.175 Y93.137 E.06727
G1 X113.387 Y92.821 E.06726
G1 X115.655 Y92.724 E.06832
G1 X117.857 Y92.845 E.06639
G1 X120.064 Y93.184 E.0672
G1 X122.233 Y93.738 E.06738
G1 X124.109 Y94.408 E.05999
G1 X126.136 Y95.351 E.06727
G1 X128.063 Y96.49 E.06737
G1 X129.866 Y97.81 E.06728
G1 X131.415 Y99.189 E.06242
G1 X133.045 Y100.948 E.07218
G1 X134.527 Y102.943 E.0748
G1 X138.746 Y110.149 E.25136
G1 X139.405 Y111.702 E.05078
G1 X139.794 Y113.132 E.0446
G1 X140.001 Y114.604 E.04475
G1 X140.027 Y115.871 E.03812
G1 X139.747 Y118.078 E.06696
G1 X139.405 Y119.298 E.03815
G1 X138.746 Y120.851 E.05078
G1 X134.527 Y128.057 E.25136
G1 X133.045 Y130.052 E.0748
G1 X131.415 Y131.811 E.07218
G1 X129.866 Y133.19 E.06242
G1 X128.063 Y134.51 E.06728
G1 X126.136 Y135.649 E.06737
G1 X124.109 Y136.592 E.06727
G1 X121.996 Y137.334 E.06742
G1 X119.825 Y137.863 E.06727
G1 X117.613 Y138.179 E.06726
G1 X115.377 Y138.277 E.06736
G1 X113.143 Y138.155 E.06735
G1 X110.936 Y137.816 E.0672
G1 X108.767 Y137.262 E.06738
G1 X106.891 Y136.592 E.05999
G1 X104.864 Y135.649 E.06727
G1 X102.937 Y134.51 E.06737
G1 X101.134 Y133.19 E.06728
G1 X99.585 Y131.811 E.06242
G1 X97.955 Y130.052 E.07218
G1 X96.473 Y128.057 E.0748
G1 X92.254 Y120.851 E.25136
G1 X91.595 Y119.298 E.05078
G1 X91.206 Y117.868 E.0446
G1 X90.999 Y116.396 E.04475
G1 X90.973 Y115.129 E.03812
G1 X91.253 Y112.922 E.06696
G1 X91.595 Y111.702 E.03815
G1 X92.254 Y110.149 E.05078
G1 X96.473 Y102.943 E.25136
G1 X97.955 Y100.948 E.0748
G1 X99.545 Y99.233 E.07038
G1 E-3.5 F3600
;WIPE_START
G1 F7200
G1 X101.134 Y97.81 E-1.01335
G1 X101.833 Y97.298 E-.41165
;WIPE_END
G1 E-.075 F3600
G1 X102.014 Y101.941 F9000
G1 E5 F2400
G1 F1200
G1 X103.259 Y100.805 E.05073
G1 X104.757 Y99.681 E.05637
G1 X106.36 Y98.706 E.05648
G1 X108.053 Y97.893 E.05654
G1 X109.816 Y97.249 E.05651
G1 X111.636 Y96.781 E.05656
G1 X113.494 Y96.492 E.05659
G1 X115.654 Y96.388 E.06508
G1 X117.491 Y96.491 E.05539
G1 X119.306 Y96.769 E.05528
G1 X121.105 Y97.224 E.05586
G1 X122.834 Y97.845 E.05528
G1 X124.494 Y98.628 E.05526
G1 X126.089 Y99.578 E.05587
G1 X127.569 Y100.664 E.05526
G1 X128.94 Y101.891 E.05538
G1 X130.3 Y103.379 E.06067
G1 X131.439 Y104.917 E.05761
G1 X132.374 Y106.477 E.05474
G1 X133.188 Y108.192 E.05715
G1 X133.637 Y109.447 E.04012
G1 X133.893 Y109.666 E.01015
G1 X134.546 Y110.376 E.02902
G1 X135.165 Y111.247 E.03218
G1 X135.581 Y112.013 E.02622
G1 X135.931 Y112.867 E.02779
G1 X136.197 Y113.833 E.03015
G1 X136.339 Y114.796 E.0293
G1 X136.365 Y115.791 E.02995
G1 X136.265 Y116.805 E.03068
G1 X136.032 Y117.818 E.03127
G1 X135.534 Y119.085 E.041
G1 X135.061 Y119.917 E.02882
G1 X134.509 Y120.668 E.02805
G1 X133.818 Y121.405 E.0304
G1 X133.631 Y121.564 E.00739
G1 X133.134 Y122.937 E.04395
G1 X132.392 Y124.491 E.05183
G1 X131.484 Y126.017 E.05345
G1 X130.213 Y127.727 E.06414
G1 X129.038 Y129.012 E.05241
G1 X127.741 Y130.195 E.05283
G1 X126.243 Y131.319 E.05637
G1 X124.64 Y132.294 E.05648
G1 X122.947 Y133.107 E.05654
G1 X121.184 Y133.751 E.05651
G1 X119.364 Y134.219 E.05656
G1 X117.507 Y134.508 E.05655
G1 X115.369 Y134.613 E.06443
G1 X113.531 Y134.512 E.05543
G1 X111.697 Y134.232 E.05583
G1 X109.915 Y133.782 E.05533
G1 X108.185 Y133.162 E.05531
G1 X106.507 Y132.373 E.05583
G1 X104.927 Y131.433 E.05533
G1 X103.432 Y130.337 E.05579
G1 X102.06 Y129.11 E.0554
G1 X100.7 Y127.621 E.06071
G1 X99.56 Y126.083 E.05761
G1 X98.626 Y124.523 E.05473
G1 X97.812 Y122.808 E.05714
G1 X97.363 Y121.553 E.04012
G1 X97.107 Y121.334 E.01015
G1 X96.454 Y120.624 E.02902
G1 X95.835 Y119.753 E.03218
G1 X95.419 Y118.987 E.02622
G1 X95.069 Y118.133 E.02779
G1 X94.803 Y117.167 E.03015
G1 X94.661 Y116.204 E.0293
G1 X94.635 Y115.209 E.02995
G1 X94.735 Y114.195 E.03068
G1 X94.968 Y113.182 E.03127
G1 X95.466 Y111.915 E.041
G1 X95.939 Y111.083 E.02882
G1 X96.491 Y110.332 E.02805
G1 X97.182 Y109.595 E.0304
G1 X97.369 Y109.436 E.00739
G1 X97.866 Y108.063 E.04395
G1 X98.608 Y106.509 E.05183
G1 X99.516 Y104.983 E.05345
G1 X100.787 Y103.273 E.06414
G1 X101.969 Y101.981 E.0527
G1 X102.234 Y102.249 F9000
G1 F1200
G1 X103.506 Y101.09 E.05178
G1 X104.975 Y99.988 E.05528
G1 X106.547 Y99.033 E.05537
G1 X108.208 Y98.237 E.05543
G1 X109.937 Y97.606 E.0554
G1 X111.721 Y97.148 E.05545
G1 X113.542 Y96.866 E.05546
G1 X115.643 Y96.765 E.0633
G1 X117.443 Y96.865 E.05427
G1 X119.24 Y97.14 E.05472
G1 X121.004 Y97.588 E.05477
G1 X122.697 Y98.197 E.05418
G1 X124.325 Y98.965 E.05418
G1 X125.888 Y99.897 E.05478
G1 X127.338 Y100.963 E.05417
G1 X128.682 Y102.165 E.05427
G1 X130.015 Y103.626 E.05953
G1 X131.121 Y105.118 E.05591
G1 X132.037 Y106.647 E.05364
G1 X132.843 Y108.345 E.05659
G1 X133.316 Y109.67 E.04234
G1 X133.624 Y109.931 E.01216
G1 X134.245 Y110.605 E.02758
G1 X134.851 Y111.456 E.03146
G1 X135.245 Y112.183 E.02488
G1 X135.57 Y112.979 E.02587
G1 X135.826 Y113.9 E.02877
G1 X135.965 Y114.839 E.02859
G1 X135.988 Y115.788 E.02855
G1 X135.891 Y116.755 E.02927
G1 X135.668 Y117.719 E.02976
G1 X135.189 Y118.934 E.03933
G1 X134.739 Y119.721 E.02727
G1 X134.212 Y120.436 E.02673
G1 X133.552 Y121.138 E.02903
G1 X133.311 Y121.34 E.00944
G1 X132.79 Y122.783 E.04618
G1 X132.055 Y124.32 E.05129
G1 X131.165 Y125.816 E.05238
G1 X129.928 Y127.48 E.06241
G1 X128.766 Y128.751 E.05186
G1 X127.494 Y129.91 E.05178
G1 X126.025 Y131.012 E.05528
G1 X124.453 Y131.967 E.05537
G1 X122.792 Y132.763 E.05543
G1 X121.063 Y133.394 E.0554
G1 X119.279 Y133.852 E.05545
G1 X117.459 Y134.134 E.05543
G1 X115.38 Y134.236 E.06266
G1 X113.578 Y134.137 E.05432
G1 X111.781 Y133.864 E.05473
G1 X110.016 Y133.418 E.05478
G1 X108.321 Y132.81 E.05421
G1 X106.676 Y132.035 E.05474
G1 X105.128 Y131.114 E.05423
G1 X103.663 Y130.038 E.0547
G1 X102.319 Y128.835 E.05429
G1 X100.985 Y127.374 E.05956
G1 X99.879 Y125.881 E.05592
G1 X98.963 Y124.353 E.05363
G1 X98.157 Y122.655 E.05658
G1 X97.684 Y121.33 E.04234
G1 X97.376 Y121.069 E.01216
G1 X96.755 Y120.395 E.02758
G1 X96.149 Y119.544 E.03146
G1 X95.755 Y118.817 E.02488
G1 X95.43 Y118.021 E.02587
G1 X95.174 Y117.1 E.02876
G1 X95.035 Y116.161 E.02859
G1 X95.012 Y115.212 E.02855
G1 X95.109 Y114.245 E.02927
G1 X95.332 Y113.281 E.02976
G1 X95.811 Y112.066 E.03933
G1 X96.261 Y111.279 E.02727
G1 X96.788 Y110.564 E.02673
G1 X97.448 Y109.862 E.02903
G1 X97.689 Y109.66 E.00944
G1 X98.21 Y108.217 E.04618
G1 X98.945 Y106.68 E.05129
G1 X99.835 Y105.184 E.05238
G1 X101.072 Y103.52 E.06241
G1 X102.194 Y102.293 E.05005
G1 X102.472 Y102.547 F9000
G1 F1200
G1 X103.753 Y101.375 E.05227
G1 X105.194 Y100.296 E.05418
G1 X106.735 Y99.361 E.05426
G1 X108.362 Y98.581 E.05431
G1 X110.057 Y97.964 E.05429
G1 X111.805 Y97.516 E.05433
G1 X113.59 Y97.24 E.05434
G1 X115.632 Y97.142 E.06154
G1 X117.395 Y97.239 E.05316
G1 X119.156 Y97.508 E.05363
G1 X120.885 Y97.946 E.05367
G1 X122.545 Y98.542 E.0531
G1 X124.14 Y99.294 E.05308
G1 X125.672 Y100.206 E.05368
G1 X127.108 Y101.261 E.05362
G1 X128.423 Y102.44 E.05316
G1 X129.73 Y103.873 E.05839
G1 X130.802 Y105.32 E.05422
G1 X131.701 Y106.817 E.05253
G1 X132.498 Y108.498 E.05602
G1 X132.995 Y109.893 E.04457
G1 X133.356 Y110.196 E.01417
G1 X133.945 Y110.833 E.02612
G1 X134.537 Y111.665 E.03074
G1 X134.908 Y112.353 E.02353
G1 X135.21 Y113.091 E.02399
G1 X135.455 Y113.967 E.02739
G1 X135.588 Y114.86 E.02718
G1 X135.61 Y115.785 E.02784
G1 X135.517 Y116.705 E.02784
G1 X135.304 Y117.619 E.02826
G1 X134.843 Y118.782 E.03765
G1 X134.417 Y119.523 E.02572
G1 X133.916 Y120.202 E.02541
G1 X133.286 Y120.871 E.02765
G1 X132.992 Y121.115 E.0115
G1 X132.445 Y122.629 E.04844
G1 X131.719 Y124.15 E.05074
G1 X130.846 Y125.614 E.05131
G1 X129.644 Y127.233 E.06068
G1 X128.505 Y128.478 E.05079
G1 X127.247 Y129.625 E.05125
G1 X125.806 Y130.704 E.05418
G1 X124.265 Y131.639 E.05426
G1 X122.638 Y132.419 E.05431
G1 X120.943 Y133.036 E.05429
G1 X119.195 Y133.484 E.05433
G1 X117.412 Y133.759 E.0543
G1 X115.391 Y133.859 E.0609
G1 X113.626 Y133.763 E.05321
G1 X111.864 Y133.496 E.05364
G1 X110.134 Y133.06 E.05368
G1 X108.473 Y132.465 E.05312
G1 X106.861 Y131.707 E.05364
G1 X105.329 Y130.794 E.05368
G1 X103.893 Y129.74 E.0536
G1 X102.578 Y128.561 E.05318
G1 X101.27 Y127.127 E.05842
G1 X100.198 Y125.679 E.05423
G1 X99.299 Y124.183 E.05252
G1 X98.502 Y122.502 E.05602
G1 X98.005 Y121.107 E.04457
G1 X97.644 Y120.804 E.01417
G1 X97.055 Y120.167 E.02612
G1 X96.463 Y119.335 E.03074
G1 X96.092 Y118.647 E.02353
G1 X95.79 Y117.909 E.02399
G1 X95.545 Y117.033 E.02739
G1 X95.412 Y116.14 E.02718
G1 X95.39 Y115.215 E.02784
G1 X95.483 Y114.295 E.02784
G1 X95.696 Y113.381 E.02826
G1 X96.157 Y112.218 E.03765
G1 X96.583 Y111.477 E.02572
G1 X97.084 Y110.798 E.02541
G1 X97.714 Y110.129 E.02765
G1 X98.008 Y109.885 E.0115
G1 X98.555 Y108.371 E.04844
G1 X99.281 Y106.85 E.05074
G1 X100.154 Y105.386 E.05131
G1 X101.356 Y103.767 E.06068
G1 X102.431 Y102.591 E.04796
G1 X102.71 Y102.846 F9000
G1 F1200
G1 X104 Y101.66 E.05276
G1 X105.412 Y100.603 E.05309
G1 X106.923 Y99.688 E.05315
G1 X108.517 Y98.925 E.0532
G1 X110.177 Y98.321 E.05318
G1 X111.89 Y97.883 E.05322
G1 X113.637 Y97.615 E.05321
G1 X115.621 Y97.519 E.05978
G1 X117.347 Y97.613 E.05204
G1 X119.073 Y97.876 E.05254
G1 X120.766 Y98.304 E.05257
G1 X122.392 Y98.887 E.052
G1 X123.971 Y99.631 E.05253
G1 X125.471 Y100.525 E.05257
G1 X126.877 Y101.559 E.05252
G1 X128.164 Y102.714 E.05205
G1 X129.445 Y104.12 E.05724
G1 X130.484 Y105.522 E.05254
G1 X131.364 Y106.987 E.05142
G1 X132.153 Y108.651 E.05545
G1 X132.675 Y110.117 E.04683
G1 X133.088 Y110.461 E.0162
G1 X133.645 Y111.062 E.02465
G1 X134.223 Y111.874 E.03001
G1 X134.571 Y112.523 E.02217
G1 X134.85 Y113.204 E.02213
G1 X135.083 Y114.035 E.02599
G1 X135.213 Y114.904 E.02646
G1 X135.233 Y115.781 E.0264
G1 X135.143 Y116.654 E.02641
G1 X134.94 Y117.52 E.02677
G1 X134.509 Y118.606 E.03519
G1 X134.108 Y119.308 E.02433
G1 X133.619 Y119.969 E.02473
G1 X133.02 Y120.603 E.02626
G1 X132.672 Y120.889 E.01357
G1 X132.101 Y122.475 E.05073
G1 X131.382 Y123.979 E.05019
G1 X130.527 Y125.413 E.05024
G1 X129.359 Y126.985 E.05896
G1 X128.233 Y128.217 E.05024
G1 X127 Y129.34 E.05019
G1 X125.588 Y130.397 E.05309
G1 X124.077 Y131.312 E.05315
G1 X122.483 Y132.075 E.0532
G1 X120.823 Y132.679 E.05318
G1 X119.11 Y133.117 E.05322
G1 X117.364 Y133.385 E.05318
G1 X115.402 Y133.482 E.05914
G1 X113.655 Y133.387 E.05264
G1 X111.93 Y133.125 E.05254
G1 X110.236 Y132.697 E.05259
G1 X108.609 Y132.113 E.05202
G1 X107.03 Y131.37 E.05254
G1 X105.53 Y130.475 E.05257
G1 X104.124 Y129.442 E.0525
G1 X102.837 Y128.287 E.05206
G1 X101.555 Y126.88 E.05728
G1 X100.516 Y125.477 E.05255
G1 X99.636 Y124.013 E.05141
G1 X98.847 Y122.349 E.05545
G1 X98.325 Y120.883 E.04683
G1 X97.912 Y120.539 E.0162
G1 X97.355 Y119.938 E.02465
G1 X96.777 Y119.126 E.03001
G1 X96.429 Y118.477 E.02217
G1 X96.15 Y117.796 E.02213
G1 X95.917 Y116.965 E.02599
G1 X95.787 Y116.096 E.02646
G1 X95.767 Y115.219 E.0264
G1 X95.857 Y114.346 E.02641
G1 X96.06 Y113.48 E.02677
G1 X96.491 Y112.393 E.03519
G1 X96.892 Y111.692 E.02433
G1 X97.381 Y111.031 E.02473
G1 X97.98 Y110.397 E.02626
G1 X98.328 Y110.111 E.01357
G1 X98.899 Y108.525 E.05073
G1 X99.618 Y107.021 E.05019
G1 X100.473 Y105.587 E.05024
G1 X101.641 Y104.015 E.05896
G1 X102.669 Y102.89 E.04586
G1 X102.947 Y103.144 F9000
G1 F1200
G1 X104.247 Y101.945 E.05323
G1 X105.631 Y100.911 E.05199
G1 X107.11 Y100.015 E.05204
G1 X108.671 Y99.269 E.05208
G1 X110.297 Y98.679 E.05207
G1 X111.974 Y98.251 E.0521
G1 X113.685 Y97.989 E.05209
G1 X115.61 Y97.896 E.05802
G1 X117.318 Y97.989 E.05148
G1 X119.007 Y98.247 E.05143
G1 X120.665 Y98.667 E.05148
G1 X122.256 Y99.239 E.05091
G1 X123.802 Y99.968 E.05144
G1 X125.27 Y100.845 E.05147
G1 X126.646 Y101.858 E.05143
G1 X127.905 Y102.988 E.05094
G1 X129.16 Y104.366 E.0561
G1 X130.165 Y105.725 E.05087
G1 X131.027 Y107.157 E.05031
G1 X131.809 Y108.804 E.05488
G1 X132.354 Y110.341 E.0491
G1 X132.82 Y110.727 E.01821
G1 X133.36 Y111.309 E.02389
G1 X133.896 Y112.064 E.02786
G1 X134.226 Y112.675 E.02092
G1 X134.497 Y113.336 E.02149
G1 X134.717 Y114.125 E.02464
G1 X134.838 Y114.947 E.02503
G1 X134.856 Y115.777 E.02498
G1 X134.769 Y116.602 E.02498
G1 X134.576 Y117.42 E.02528
G1 X134.175 Y118.431 E.03274
G1 X133.786 Y119.111 E.02359
G1 X133.323 Y119.735 E.02338
G1 X132.755 Y120.334 E.02486
G1 X132.353 Y120.663 E.01564
G1 X131.757 Y122.321 E.05304
G1 X131.054 Y123.794 E.04912
G1 X130.208 Y125.211 E.04969
G1 X129.074 Y126.738 E.05725
G1 X127.972 Y127.944 E.04917
G1 X126.753 Y129.055 E.04965
G1 X125.369 Y130.089 E.05199
G1 X123.89 Y130.985 E.05204
G1 X122.329 Y131.731 E.05208
G1 X120.703 Y132.321 E.05207
G1 X119.026 Y132.749 E.0521
G1 X117.316 Y133.011 E.05206
G1 X115.412 Y133.105 E.05739
G1 X113.703 Y133.013 E.05152
G1 X112.013 Y132.757 E.05145
G1 X110.354 Y132.339 E.05148
G1 X108.745 Y131.762 E.05147
G1 X107.199 Y131.032 E.05145
G1 X105.731 Y130.156 E.05147
G1 X104.355 Y129.143 E.05141
G1 X103.096 Y128.012 E.05095
G1 X101.84 Y126.634 E.05614
G1 X100.834 Y125.275 E.05087
G1 X99.973 Y123.843 E.0503
G1 X99.191 Y122.196 E.05487
G1 X98.646 Y120.659 E.0491
G1 X98.18 Y120.273 E.01821
G1 X97.64 Y119.691 E.02389
G1 X97.104 Y118.936 E.02786
G1 X96.774 Y118.325 E.02092
G1 X96.503 Y117.664 E.02149
G1 X96.283 Y116.875 E.02464
G1 X96.162 Y116.053 E.02503
G1 X96.144 Y115.223 E.02498
G1 X96.231 Y114.398 E.02498
G1 X96.424 Y113.58 E.02528
G1 X96.825 Y112.569 E.03274
G1 X97.214 Y111.889 E.02359
G1 X97.677 Y111.265 E.02338
G1 X98.245 Y110.666 E.02486
G1 X98.647 Y110.337 E.01564
G1 X99.243 Y108.679 E.05304
G1 X99.946 Y107.206 E.04912
G1 X100.792 Y105.789 E.04969
G1 X101.926 Y104.262 E.05725
G1 X102.907 Y103.188 E.04377
G1 X103.185 Y103.442 F9000
G1 F1200
G1 X103.3 Y103.316 E.00514
G1 X104.494 Y102.23 E.04859
G1 X105.849 Y101.219 E.05089
G1 X107.297 Y100.343 E.05093
G1 X108.825 Y99.613 E.05097
G1 X110.416 Y99.036 E.05095
G1 X112.058 Y98.619 E.05098
G1 X113.732 Y98.363 E.05097
G1 X115.599 Y98.273 E.05628
G1 X117.27 Y98.363 E.05036
G1 X118.923 Y98.615 E.05034
G1 X120.546 Y99.025 E.05037
G1 X122.12 Y99.591 E.05035
G1 X123.632 Y100.305 E.05034
G1 X125.069 Y101.163 E.05037
G1 X126.415 Y102.156 E.05033
G1 X127.646 Y103.262 E.04983
G1 X128.874 Y104.613 E.05496
G1 X129.847 Y105.927 E.04921
G1 X130.691 Y107.327 E.04919
G1 X131.464 Y108.957 E.0543
G1 X132.034 Y110.566 E.05139
G1 X132.553 Y110.993 E.02023
G1 X133.075 Y111.557 E.02314
G1 X133.57 Y112.253 E.0257
G1 X133.889 Y112.845 E.02026
G1 X134.143 Y113.468 E.02024
G1 X134.35 Y114.214 E.02329
G1 X134.464 Y114.99 E.0236
