; generated by PrusaSlicer 2.5.0+linux-x64-GTK3 on 2022-09-22 at 12:33:28 UTC

; 

; external perimeters extrusion width = 0.31mm
; perimeters extrusion width = 0.33mm
; infill extrusion width = 0.33mm
; solid infill extrusion width = 0.33mm
; top infill extrusion width = 0.30mm
; first layer extrusion width = 0.31mm

M107
;TYPE:Custom
G90 ; use absolute coordinates
M83 ; extruder relative mode
M140 S50 ; set final bed temp
M104 S150 ; set temporary nozzle temp to prevent oozing during homing and auto bed leveling
G4 S10 ; allow partial nozzle warmup
G28 ; home all axis
G29 ; auto bed levelling
G1 Z30 F240
G1 X2 Y10 F3000
M104 S210 ; set final nozzle temp
M190 S50 ; wait for bed temp to stabilize
M109 S210 ; wait for nozzle temp to stabilize
G1 Z0.28 F240
G92 E0
G1 Y100 E11 F1500 ; prime the nozzle
G1 X2.3 F5000
G92 E0
G1 Y10 E11 F1000 ; prime the nozzle
G92 E0
G21 ; set units to millimeters
G90 ; use absolute coordinates
M83 ; use relative distances for extrusion
; Filament gcode
M107
;LAYER_CHANGE
;Z:0.2
;HEIGHT:0.2
;BEFORE_LAYER_CHANGE
G92 E0
;0.2


G1 E-5 F3600
G1 Z.2 F9000
;AFTER_LAYER_CHANGE
;0.2
G1 X95.874 Y96.038
G1 E5 F2400
M204 S500
;TYPE:Skirt/Brim
;WIDTH:0.31
G1 F900
G1 X98.498 Y93.673 E.07845
G1 X101.224 Y91.732 E.07432
G1 X103.699 Y90.351 E.06293
G1 X106.64 Y89.075 E.0712
G1 X107.93 Y88.63 E.03031
G1 X111.332 Y87.76 E.07798
G1 X113.954 Y87.374 E.05885
G1 X117.456 Y87.233 E.07783
G1 X120.698 Y87.473 E.07221
G1 X122.041 Y87.679 E.03017
G1 X125.131 Y88.396 E.07046
G1 X127.943 Y89.367 E.06606
G1 X130.818 Y90.708 E.07046
G1 X132 Y91.372 E.0301
G1 X134.709 Y93.189 E.07245
G1 X137.626 Y95.699 E.08547
G1 X139.41 Y97.627 E.05832
G1 X141.48 Y100.36 E.07614
G1 X142.079 Y101.302 E.02479
G1 X143.613 Y104.131 E.07147
G1 X144.626 Y106.524 E.0577
G1 X145.652 Y109.937 E.07915
G1 X146.261 Y113.422 E.07857
G1 X146.383 Y114.781 E.0303
G1 X146.426 Y117.954 E.07046
G1 X146.157 Y120.916 E.06606
G1 X145.543 Y124.029 E.07046
G1 X145.19 Y125.308 E.02948
G1 X144.035 Y128.474 E.07484
G1 X142.493 Y131.532 E.07605
G1 X141.078 Y133.755 E.05852
G1 X138.888 Y136.501 E.078
G1 X137.956 Y137.493 E.03023
G1 X135.332 Y139.858 E.07845
G1 X132.606 Y141.799 E.07432
G1 X130.131 Y143.18 E.06293
G1 X127.19 Y144.456 E.0712
G1 X125.9 Y144.901 E.03031
G1 X122.498 Y145.771 E.07798
G1 X119.876 Y146.156 E.05885
G1 X116.374 Y146.298 E.07783
G1 X113.132 Y146.058 E.07221
G1 X111.789 Y145.852 E.03017
G1 X108.699 Y145.134 E.07046
G1 X105.887 Y144.164 E.06606
G1 X103.012 Y142.823 E.07046
G1 X101.83 Y142.159 E.0301
G1 X99.121 Y140.342 E.07245
G1 X96.204 Y137.831 E.08547
G1 X94.42 Y135.904 E.05832
G1 X92.35 Y133.171 E.07614
G1 X91.751 Y132.229 E.02479
G1 X90.217 Y129.4 E.07147
G1 X89.204 Y127.007 E.0577
G1 X88.178 Y123.594 E.07915
G1 X87.569 Y120.109 E.07857
G1 X87.447 Y118.75 E.0303
G1 X87.404 Y115.577 E.07046
G1 X87.673 Y112.615 E.06606
G1 X88.287 Y109.502 E.07046
G1 X88.64 Y108.223 E.02948
G1 X89.795 Y105.057 E.07484
G1 X91.337 Y101.999 E.07605
G1 X92.753 Y99.776 E.05852
G1 X94.942 Y97.03 E.078
G1 X95.843 Y96.071 E.02923
G1 E-3.5 F3600
;WIPE_START
G1 F7200
G1 X98.07 Y94.06 E-1.425
;WIPE_END
G1 E-.075 F3600
G1 X98.632 Y98.445 F9000
G1 E5 F2400
G1 F900
G1 X99.884 Y97.295 E.03775
G1 X100.431 Y96.995 E.01387
G1 X100.817 Y96.518 E.01363
G1 X102.167 Y95.488 E.0377
G1 X102.929 Y95.156 E.01845
G1 X103.497 Y94.632 E.01718
G1 X105.036 Y93.785 E.03901
G1 X105.649 Y93.621 E.01409
G1 X106.15 Y93.244 E.01393
G1 X107.713 Y92.574 E.03775
G1 X108.52 Y92.439 E.01819
G1 X109.24 Y92.047 E.01819
G1 X110.884 Y91.611 E.03777
G1 X111.514 Y91.599 E.014
G1 X112.186 Y91.324 E.01612
G1 X113.926 Y91.064 E.03909
G1 X114.587 Y91.129 E.01474
G1 X115.317 Y90.935 E.01678
G1 X117.36 Y90.937 E.04538
G1 X117.764 Y91.032 E.00922
G1 X118.503 Y90.932 E.01656
G1 X120.195 Y91.106 E.03779
G1 X120.788 Y91.319 E.01398
G1 X121.417 Y91.292 E.01398
G1 X123.083 Y91.629 E.03775
G1 X123.825 Y91.975 E.01818
G1 X124.665 Y92.067 E.01876
G1 X126.324 Y92.677 E.03926
G1 X126.793 Y92.992 E.01254
G1 X127.566 Y93.176 E.01765
G1 X129.081 Y93.937 E.03765
G1 X129.562 Y94.348 E.01404
G1 X130.174 Y94.552 E.01433
G1 X131.656 Y95.498 E.03905
G1 X132.175 Y96.039 E.01665
G1 X132.882 Y96.395 E.01757
G1 X134.172 Y97.486 E.03752
G1 X134.53 Y97.971 E.01339
G1 X134.763 Y98.11 E.00601
G1 X135.38 Y98.638 E.01803
G1 X136.436 Y99.805 E.03495
G1 X136.703 Y100.297 E.01245
G1 X137.177 Y100.685 E.01359
G1 X138.201 Y102.041 E.03775
G1 X138.527 Y102.796 E.01827
G1 X139.092 Y103.419 E.01868
G1 X139.929 Y104.976 E.03925
G1 X140.067 Y105.505 E.01214
G1 X140.427 Y105.981 E.01324
G1 X141.099 Y107.525 E.0374
G1 X141.25 Y108.367 E.01899
G1 X141.615 Y109.029 E.01678
G1 X142.059 Y110.657 E.03748
G1 X142.082 Y111.366 E.01576
G1 X142.358 Y112.051 E.01641
G1 X142.613 Y113.792 E.03906
G1 X142.548 Y114.434 E.01433
G1 X142.725 Y115.04 E.01404
G1 X142.798 Y116.739 E.03775
G1 X142.639 Y117.538 E.0181
G1 X142.751 Y118.348 E.01816
G1 X142.58 Y120.031 E.03756
G1 X142.356 Y120.67 E.01504
G1 X142.365 Y121.482 E.01803
G1 X141.959 Y123.202 E.03926
G1 X141.709 Y123.695 E.01227
G1 X141.66 Y124.306 E.0136
G1 X141.126 Y125.915 E.03764
G1 X140.707 Y126.595 E.01775
G1 X140.599 Y127.143 E.01239
G1 X139.858 Y128.748 E.03926
G1 X139.335 Y129.401 E.01859
G1 X139.052 Y130.183 E.01847
G1 X138.11 Y131.598 E.03775
G1 X137.645 Y132.025 E.01401
G1 X137.378 Y132.59 E.01389
G1 X136.306 Y133.909 E.03775
G1 X135.653 Y134.405 E.01819
G1 X135.198 Y135.086 E.01819
G1 X133.946 Y136.236 E.03775
G1 X133.399 Y136.536 E.01387
G1 X133.013 Y137.013 E.01363
G1 X131.663 Y138.043 E.0377
G1 X130.902 Y138.375 E.01845
G1 X130.333 Y138.899 E.01718
G1 X128.794 Y139.746 E.03901
G1 X128.181 Y139.91 E.01409
G1 X127.68 Y140.287 E.01393
G1 X126.121 Y140.955 E.03766
G1 X125.315 Y141.095 E.01817
G1 X124.767 Y141.413 E.01407
G1 X123.135 Y141.89 E.03777
G1 X122.318 Y141.927 E.01816
G1 X121.542 Y142.233 E.01851
G1 X119.791 Y142.469 E.03924
G1 X119.228 Y142.408 E.01259
G1 X118.617 Y142.584 E.01411
G1 X116.913 Y142.647 E.03787
G1 X116.132 Y142.49 E.0177
G1 X115.326 Y142.599 E.01807
G1 X113.635 Y142.424 E.03775
G1 X113.042 Y142.212 E.01398
G1 X112.413 Y142.239 E.01398
G1 X110.747 Y141.902 E.03775
G1 X110.005 Y141.555 E.01818
G1 X109.165 Y141.464 E.01876
G1 X107.506 Y140.854 E.03926
G1 X107.037 Y140.539 E.01254
G1 X106.264 Y140.355 E.01765
G1 X104.749 Y139.594 E.03765
G1 X104.268 Y139.183 E.01404
G1 X103.657 Y138.979 E.01433
G1 X102.174 Y138.033 E.03905
G1 X101.655 Y137.492 E.01665
G1 X100.948 Y137.136 E.01757
G1 X99.658 Y136.045 E.03752
G1 X99.3 Y135.56 E.01339
G1 X99.068 Y135.421 E.00601
G1 X98.451 Y134.893 E.01803
G1 X97.394 Y133.726 E.03495
G1 X97.127 Y133.234 E.01245
G1 X96.653 Y132.846 E.01359
G1 X95.629 Y131.49 E.03775
G1 X95.303 Y130.735 E.01827
G1 X94.738 Y130.112 E.01868
G1 X93.901 Y128.555 E.03925
G1 X93.763 Y128.026 E.01214
G1 X93.403 Y127.55 E.01324
G1 X92.731 Y126.006 E.0374
G1 X92.58 Y125.164 E.01899
G1 X92.215 Y124.502 E.01678
G1 X91.771 Y122.874 E.03748
G1 X91.748 Y122.165 E.01576
G1 X91.472 Y121.48 E.01641
G1 X91.217 Y119.739 E.03906
G1 X91.282 Y119.097 E.01433
G1 X91.105 Y118.49 E.01404
G1 X91.033 Y116.792 E.03775
G1 X91.191 Y115.993 E.0181
G1 X91.079 Y115.183 E.01816
G1 X91.25 Y113.5 E.03756
G1 X91.468 Y112.876 E.01467
G1 X91.453 Y112.151 E.01612
G1 X91.833 Y110.434 E.03905
G1 X92.121 Y109.856 E.01433
G1 X92.17 Y109.226 E.01404
G1 X92.704 Y107.616 E.03766
G1 X93.123 Y106.936 E.01775
G1 X93.231 Y106.388 E.01239
G1 X93.972 Y104.783 E.03926
G1 X94.496 Y104.13 E.01859
G1 X94.778 Y103.348 E.01847
G1 X95.72 Y101.933 E.03775
G1 X96.185 Y101.506 E.01401
G1 X96.452 Y100.941 E.01389
G1 X97.524 Y99.622 E.03775
G1 X98.177 Y99.126 E.01819
G1 X98.607 Y98.483 E.01719
G1 X98.825 Y98.631 F9000
G1 F900
G1 X100.052 Y97.504 E.03701
G1 X100.606 Y97.204 E.01399
G1 X100.993 Y96.72 E.01376
G1 X102.315 Y95.71 E.03696
G1 X103.077 Y95.384 E.01839
G1 X103.641 Y94.858 E.01712
G1 X105.15 Y94.027 E.03825
G1 X105.768 Y93.867 E.01419
G1 X106.271 Y93.483 E.01404
G1 X107.803 Y92.826 E.03701
G1 X108.609 Y92.695 E.01814
G1 X109.325 Y92.301 E.01814
G1 X110.936 Y91.873 E.03702
G1 X111.569 Y91.866 E.01406
G1 X112.242 Y91.585 E.01619
G1 X113.949 Y91.331 E.03833
G1 X114.609 Y91.4 E.01474
G1 X115.335 Y91.202 E.01672
G1 X117.343 Y91.204 E.0446
G1 X117.75 Y91.304 E.0093
G1 X118.492 Y91.199 E.01664
G1 X120.151 Y91.37 E.03704
G1 X120.747 Y91.588 E.01409
G1 X121.381 Y91.558 E.01409
G1 X123.014 Y91.887 E.03701
G1 X123.752 Y92.237 E.01812
G1 X124.589 Y92.323 E.01868
G1 X126.216 Y92.922 E.03851
G1 X126.683 Y93.241 E.01257
G1 X127.46 Y93.422 E.01772
G1 X128.946 Y94.168 E.03692
G1 X129.427 Y94.585 E.01414
G1 X130.044 Y94.787 E.01442
G1 X131.498 Y95.714 E.0383
G1 X132.014 Y96.257 E.01663
G1 X132.722 Y96.609 E.01756
G1 X133.987 Y97.679 E.03679
G1 X134.347 Y98.173 E.01357
G1 X134.599 Y98.321 E.00648
G1 X135.187 Y98.823 E.01719
G1 X136.226 Y99.971 E.03438
G1 X136.493 Y100.471 E.01258
G1 X136.974 Y100.859 E.01373
G1 X137.978 Y102.189 E.037
G1 X138.299 Y102.943 E.01821
G1 X138.865 Y103.561 E.0186
G1 X139.686 Y105.088 E.0385
G1 X139.822 Y105.624 E.01229
G1 X140.189 Y106.103 E.01339
G1 X140.848 Y107.617 E.03667
G1 X140.994 Y108.457 E.01895
G1 X141.361 Y109.115 E.01672
G1 X141.797 Y110.711 E.03675
G1 X141.817 Y111.422 E.01579
G1 X142.097 Y112.106 E.01642
G1 X142.346 Y113.813 E.03831
G1 X142.277 Y114.459 E.01442
G1 X142.459 Y115.069 E.01414
G1 X142.53 Y116.734 E.03701
G1 X142.368 Y117.53 E.01805
G1 X142.484 Y118.338 E.01811
G1 X142.316 Y119.987 E.03683
G1 X142.088 Y120.626 E.01505
G1 X142.101 Y121.437 E.01801
G1 X141.703 Y123.125 E.03851
G1 X141.446 Y123.621 E.01241
G1 X141.401 Y124.238 E.01373
G1 X140.878 Y125.815 E.03691
G1 X140.454 Y126.497 E.01782
G1 X140.35 Y127.046 E.01242
G1 X139.623 Y128.621 E.03851
G1 X139.098 Y129.269 E.01851
G1 X138.82 Y130.049 E.01841
G1 X137.897 Y131.436 E.037
G1 X137.426 Y131.863 E.01412
G1 X137.16 Y132.435 E.01401
G1 X136.109 Y133.728 E.03701
G1 X135.456 Y134.219 E.01814
G1 X135.005 Y134.9 E.01814
G1 X133.778 Y136.027 E.03701
G1 X133.224 Y136.327 E.01399
G1 X132.837 Y136.811 E.01376
G1 X131.515 Y137.821 E.03696
G1 X130.754 Y138.147 E.01839
G1 X130.189 Y138.673 E.01712
G1 X128.68 Y139.504 E.03825
G1 X128.062 Y139.664 E.01419
G1 X127.559 Y140.048 E.01404
G1 X126.031 Y140.703 E.03692
G1 X125.222 Y140.84 E.01822
G1 X124.676 Y141.161 E.01407
G1 X123.076 Y141.629 E.03702
G1 X122.261 Y141.662 E.01811
G1 X121.49 Y141.971 E.01844
G1 X119.772 Y142.202 E.03849
G1 X119.204 Y142.136 E.01271
G1 X118.59 Y142.318 E.01422
G1 X116.92 Y142.379 E.03712
G1 X116.14 Y142.219 E.01767
G1 X115.337 Y142.332 E.01802
G1 X113.679 Y142.161 E.037
G1 X113.083 Y141.942 E.01409
G1 X112.449 Y141.973 E.01409
G1 X110.816 Y141.644 E.03701
G1 X110.078 Y141.294 E.01812
G1 X109.241 Y141.208 E.01868
G1 X107.614 Y140.609 E.03851
G1 X107.147 Y140.29 E.01257
G1 X106.37 Y140.109 E.01772
G1 X104.884 Y139.363 E.03692
G1 X104.403 Y138.946 E.01414
G1 X103.786 Y138.744 E.01442
G1 X102.332 Y137.817 E.0383
G1 X101.816 Y137.274 E.01663
G1 X101.108 Y136.922 E.01756
G1 X99.843 Y135.852 E.03679
G1 X99.483 Y135.358 E.01357
G1 X99.232 Y135.21 E.00648
G1 X98.643 Y134.708 E.01719
G1 X97.604 Y133.56 E.03438
G1 X97.337 Y133.06 E.01258
G1 X96.856 Y132.672 E.01373
G1 X95.852 Y131.342 E.037
G1 X95.531 Y130.588 E.01821
G1 X94.965 Y129.97 E.0186
G1 X94.144 Y128.443 E.0385
G1 X94.008 Y127.907 E.01229
G1 X93.641 Y127.428 E.01339
G1 X92.982 Y125.914 E.03667
G1 X92.836 Y125.073 E.01895
G1 X92.469 Y124.416 E.01672
G1 X92.033 Y122.82 E.03675
G1 X92.014 Y122.109 E.01579
G1 X91.734 Y121.425 E.01642
G1 X91.484 Y119.718 E.03831
G1 X91.553 Y119.072 E.01442
G1 X91.371 Y118.462 E.01414
G1 X91.3 Y116.797 E.03701
G1 X91.462 Y116.001 E.01805
G1 X91.346 Y115.193 E.01811
G1 X91.514 Y113.544 E.03682
G1 X91.736 Y112.919 E.01472
G1 X91.718 Y112.192 E.01615
G1 X92.09 Y110.508 E.0383
G1 X92.383 Y109.929 E.01442
G1 X92.429 Y109.294 E.01414
G1 X92.952 Y107.716 E.03692
G1 X93.376 Y107.034 E.01782
G1 X93.48 Y106.485 E.01242
G1 X94.208 Y104.91 E.03851
G1 X94.732 Y104.262 E.01851
G1 X95.01 Y103.482 E.01841
G1 X95.933 Y102.095 E.037
G1 X96.404 Y101.668 E.01412
G1 X96.67 Y101.096 E.01401
G1 X97.721 Y99.803 E.03701
G1 X98.374 Y99.312 E.01814
G1 X98.8 Y98.668 E.01714
G1 X99.018 Y98.816 F9000
G1 F900
G1 X100.22 Y97.712 E.03624
G1 X100.781 Y97.414 E.01412
G1 X101.169 Y96.922 E.0139
G1 X102.464 Y95.933 E.03619
G1 X103.225 Y95.611 E.01835
G1 X103.785 Y95.084 E.01708
G1 X105.263 Y94.269 E.03748
G1 X105.888 Y94.112 E.01431
G1 X106.392 Y93.721 E.01417
G1 X107.892 Y93.078 E.03624
G1 X108.697 Y92.952 E.0181
G1 X109.409 Y92.555 E.0181
G1 X110.987 Y92.136 E.03626
G1 X111.624 Y92.133 E.01413
G1 X112.298 Y91.847 E.01627
G1 X113.97 Y91.597 E.03755
G1 X114.63 Y91.672 E.01475
G1 X115.354 Y91.469 E.01668
G1 X117.326 Y91.471 E.04379
G1 X117.735 Y91.576 E.00939
G1 X118.481 Y91.466 E.01675
G1 X120.106 Y91.634 E.03627
G1 X120.706 Y91.858 E.01422
G1 X121.345 Y91.823 E.01422
G1 X122.945 Y92.146 E.03624
G1 X123.679 Y92.498 E.01808
G1 X124.513 Y92.58 E.01861
G1 X126.107 Y93.166 E.03773
G1 X126.573 Y93.49 E.01259
G1 X127.355 Y93.668 E.01781
G1 X128.81 Y94.399 E.03616
G1 X129.293 Y94.823 E.01426
G1 X129.916 Y95.021 E.01452
G1 X131.34 Y95.93 E.03752
G1 X131.852 Y96.475 E.01661
G1 X132.562 Y96.824 E.01756
G1 X133.801 Y97.872 E.03605
G1 X134.164 Y98.376 E.01377
G1 X134.435 Y98.533 E.00696
G1 X134.995 Y99.009 E.01633
G1 X136.017 Y100.137 E.0338
G1 X136.282 Y100.645 E.01272
G1 X136.771 Y101.034 E.01388
G1 X137.755 Y102.336 E.03624
G1 X138.071 Y103.09 E.01816
G1 X138.638 Y103.702 E.01853
G1 X139.442 Y105.199 E.03773
G1 X139.576 Y105.743 E.01245
G1 X139.951 Y106.225 E.01356
G1 X140.596 Y107.708 E.03592
G1 X140.739 Y108.548 E.01892
G1 X141.108 Y109.202 E.01667
G1 X141.535 Y110.766 E.036
G1 X141.55 Y111.478 E.01583
G1 X141.835 Y112.162 E.01644
G1 X142.079 Y113.834 E.03753
G1 X142.005 Y114.484 E.01452
G1 X142.193 Y115.098 E.01426
G1 X142.262 Y116.728 E.03624
G1 X142.097 Y117.522 E.01802
G1 X142.216 Y118.328 E.01808
G1 X142.052 Y119.944 E.03607
G1 X141.82 Y120.582 E.01508
G1 X141.838 Y121.393 E.01801
G1 X141.447 Y123.046 E.03774
G1 X141.183 Y123.547 E.01256
G1 X141.142 Y124.17 E.01388
G1 X140.63 Y125.716 E.03616
G1 X140.2 Y126.398 E.01791
G1 X140.1 Y126.95 E.01245
G1 X139.387 Y128.493 E.03774
G1 X138.861 Y129.136 E.01844
G1 X138.589 Y129.916 E.01835
G1 X137.685 Y131.274 E.03623
G1 X137.206 Y131.701 E.01425
G1 X136.942 Y132.28 E.01414
G1 X135.912 Y133.546 E.03624
G1 X135.258 Y134.033 E.0181
G1 X134.812 Y134.715 E.0181
G1 X133.61 Y135.819 E.03624
G1 X133.049 Y136.117 E.01412
G1 X132.662 Y136.609 E.0139
G1 X131.366 Y137.598 E.03619
G1 X130.605 Y137.92 E.01835
G1 X130.045 Y138.447 E.01708
G1 X128.567 Y139.262 E.03748
G1 X127.942 Y139.419 E.01431
G1 X127.438 Y139.81 E.01417
G1 X125.941 Y140.451 E.03617
G1 X125.129 Y140.584 E.01828
G1 X124.585 Y140.91 E.01408
G1 X123.017 Y141.367 E.03626
G1 X122.204 Y141.397 E.01807
G1 X121.437 Y141.708 E.01838
G1 X119.754 Y141.935 E.03771
G1 X119.181 Y141.864 E.01284
G1 X118.563 Y142.052 E.01434
G1 X116.927 Y142.112 E.03636
G1 X116.149 Y141.947 E.01765
G1 X115.347 Y142.064 E.01799
G1 X113.724 Y141.897 E.03624
G1 X113.124 Y141.672 E.01422
G1 X112.485 Y141.708 E.01422
G1 X110.885 Y141.385 E.03624
G1 X110.151 Y141.033 E.01808
G1 X109.317 Y140.951 E.01861
G1 X107.723 Y140.365 E.03773
G1 X107.257 Y140.041 E.01259
G1 X106.475 Y139.863 E.01781
G1 X105.02 Y139.132 E.03616
G1 X104.537 Y138.708 E.01426
G1 X103.914 Y138.509 E.01452
G1 X102.49 Y137.601 E.03752
G1 X101.978 Y137.056 E.01661
G1 X101.268 Y136.707 E.01756
G1 X100.029 Y135.659 E.03605
G1 X99.666 Y135.155 E.01377
G1 X99.395 Y134.998 E.00696
G1 X98.835 Y134.522 E.01633
G1 X97.813 Y133.393 E.0338
G1 X97.548 Y132.886 E.01272
G1 X97.059 Y132.497 E.01388
G1 X96.076 Y131.195 E.03624
G1 X95.759 Y130.441 E.01816
G1 X95.192 Y129.829 E.01853
G1 X94.388 Y128.332 E.03773
G1 X94.254 Y127.788 E.01245
G1 X93.879 Y127.306 E.01356
G1 X93.234 Y125.823 E.03592
G1 X93.091 Y124.983 E.01892
G1 X92.722 Y124.329 E.01667
G1 X92.295 Y122.765 E.036
G1 X92.28 Y122.053 E.01583
G1 X91.995 Y121.369 E.01644
G1 X91.751 Y119.697 E.03753
G1 X91.825 Y119.047 E.01452
G1 X91.637 Y118.433 E.01426
