; generated by PrusaSlicer 2.5.0+linux-x64-GTK3 on 2022-09-22 at 14:28:21 UTC

; 

; external perimeters extrusion width = 0.31mm
; perimeters extrusion width = 0.33mm
; infill extrusion width = 0.33mm
; solid infill extrusion width = 0.33mm
; top infill extrusion width = 0.30mm
; first layer extrusion width = 0.31mm

M107
;TYPE:Custom
G90 ; use absolute coordinates
M83 ; extruder relative mode
M140 S50 ; set final bed temp
M104 S150 ; set temporary nozzle temp to prevent oozing during homing and auto bed leveling
G4 S10 ; allow partial nozzle warmup
G28 ; home all axis
G29 ; auto bed levelling
G1 Z30 F240
G1 X2 Y10 F3000
M104 S210 ; set final nozzle temp
M190 S50 ; wait for bed temp to stabilize
M109 S210 ; wait for nozzle temp to stabilize
G1 Z0.28 F240
G92 E0
G1 Y100 E11 F1500 ; prime the nozzle
G1 X2.3 F5000
G92 E0
G1 Y10 E11 F1000 ; prime the nozzle
G92 E0
G21 ; set units to millimeters
G90 ; use absolute coordinates
M83 ; use relative distances for extrusion
; Filament gcode
M107
;LAYER_CHANGE
;Z:0.2
;HEIGHT:0.2
;BEFORE_LAYER_CHANGE
G92 E0
;0.2


G1 E-5 F3600
G1 Z.2 F9000
;AFTER_LAYER_CHANGE
;0.2
G1 X99.421 Y99.151
G1 E5 F2400
M204 S500
;TYPE:Skirt/Brim
;WIDTH:0.31
G1 F900
G1 X100.389 Y98.24 E.02951
G1 X102.697 Y96.409 E.06543
G1 X104.948 Y95.009 E.05888
G1 X107.832 Y93.659 E.07071
G1 X109.815 Y92.975 E.04657
G1 X112.638 Y92.309 E.06441
G1 X115.534 Y91.973 E.06476
G1 X116.83 Y91.94 E.02877
G1 X119.611 Y92.085 E.06185
G1 X122.566 Y92.59 E.06658
G1 X124.776 Y93.21 E.05098
G1 X127.182 Y94.162 E.05746
G1 X129.831 Y95.564 E.06658
G1 X130.947 Y96.286 E.02951
G1 X133.139 Y97.966 E.06133
G1 X134.644 Y99.38 E.04586
G1 X136.51 Y101.522 E.0631
G1 X137.298 Y102.593 E.02951
G1 X138.758 Y104.964 E.06185
G1 X139.795 Y107.117 E.05308
G1 X140.731 Y109.733 E.0617
G1 X141.349 Y112.375 E.06025
G1 X141.549 Y113.688 E.02951
G1 X141.741 Y116.467 E.06185
G1 X141.664 Y118.792 E.05168
G1 X141.319 Y121.324 E.05675
G1 X140.591 Y124.233 E.06658
G1 X140.158 Y125.489 E.02951
G1 X139.036 Y128.038 E.06185
G1 X137.638 Y130.446 E.06184
G1 X136.273 Y132.311 E.05133
G1 X134.409 Y134.38 E.06185
G1 X133.441 Y135.291 E.02951
G1 X131.133 Y137.122 E.06543
G1 X128.962 Y138.479 E.05686
G1 X126.831 Y139.527 E.05273
G1 X124.015 Y140.556 E.06658
G1 X121.306 Y141.2 E.06185
G1 X120.118 Y141.388 E.02672
G1 X117.149 Y141.592 E.06609
G1 X114.219 Y141.446 E.06514
G1 X112.146 Y141.13 E.04657
G1 X109.182 Y140.362 E.06799
G1 X106.648 Y139.369 E.06044
G1 X103.999 Y137.966 E.06658
G1 X102.883 Y137.245 E.02951
G1 X100.691 Y135.565 E.06133
G1 X99.186 Y134.151 E.04586
G1 X97.32 Y132.009 E.0631
G1 X96.533 Y130.938 E.02951
G1 X95.072 Y128.567 E.06185
G1 X94.036 Y126.414 E.05308
G1 X93.099 Y123.798 E.0617
G1 X92.481 Y121.156 E.06025
G1 X92.281 Y119.843 E.02951
G1 X92.09 Y117.064 E.06185
G1 X92.166 Y114.739 E.05168
G1 X92.512 Y112.207 E.05675
G1 X93.239 Y109.298 E.06658
G1 X93.673 Y108.042 E.02951
G1 X94.794 Y105.493 E.06185
G1 X96.192 Y103.085 E.06184
G1 X97.557 Y101.22 E.05133
G1 X99.391 Y99.184 E.06085
G1 X99.589 Y99.363 F9000
G1 F900
G1 X100.56 Y98.445 E.02966
G1 X102.842 Y96.633 E.06471
G1 X105.073 Y95.245 E.05837
G1 X107.935 Y93.906 E.07015
G1 X109.887 Y93.232 E.04586
G1 X112.685 Y92.572 E.06386
G1 X115.559 Y92.239 E.06425
G1 X116.822 Y92.207 E.02804
G1 X119.587 Y92.351 E.06149
G1 X122.51 Y92.851 E.06586
G1 X124.689 Y93.463 E.05026
G1 X127.079 Y94.409 E.0571
G1 X129.7 Y95.797 E.06586
G1 X130.789 Y96.501 E.02879
G1 X132.969 Y98.171 E.06097
G1 X134.459 Y99.573 E.04546
G1 X136.305 Y101.693 E.06242
G1 X137.073 Y102.738 E.02879
G1 X138.525 Y105.095 E.06149
G1 X139.548 Y107.219 E.05236
G1 X140.474 Y109.804 E.06098
G1 X141.088 Y112.431 E.0599
G1 X141.283 Y113.712 E.02879
G1 X141.474 Y116.475 E.06149
G1 X141.398 Y118.768 E.05096
G1 X141.054 Y121.284 E.0564
G1 X140.334 Y124.161 E.06586
G1 X139.911 Y125.387 E.02879
G1 X138.796 Y127.921 E.06149
G1 X137.414 Y130.301 E.06112
G1 X136.068 Y132.14 E.05061
G1 X134.214 Y134.197 E.06149
G1 X133.27 Y135.086 E.02879
G1 X130.989 Y136.898 E.06471
G1 X128.83 Y138.246 E.05651
G1 X126.729 Y139.28 E.05201
G1 X123.944 Y140.299 E.06586
G1 X121.25 Y140.939 E.06149
G1 X120.093 Y141.122 E.02601
G1 X117.146 Y141.325 E.06561
G1 X114.244 Y141.18 E.06453
G1 X112.202 Y140.869 E.04586
G1 X109.26 Y140.106 E.0675
G1 X106.751 Y139.122 E.05986
G1 X104.13 Y137.734 E.06586
G1 X103.041 Y137.03 E.02879
G1 X100.862 Y135.36 E.06097
G1 X99.371 Y133.957 E.04546
G1 X97.525 Y131.838 E.06242
G1 X96.757 Y130.793 E.02879
G1 X95.305 Y128.436 E.06149
G1 X94.282 Y126.311 E.05236
G1 X93.356 Y123.727 E.06098
G1 X92.742 Y121.1 E.0599
G1 X92.547 Y119.819 E.02879
G1 X92.357 Y117.056 E.06149
G1 X92.432 Y114.763 E.05096
G1 X92.776 Y112.247 E.0564
G1 X93.496 Y109.37 E.06586
G1 X93.919 Y108.144 E.02879
G1 X95.034 Y105.61 E.06149
G1 X96.416 Y103.23 E.06112
G1 X97.762 Y101.391 E.05061
G1 X99.559 Y99.396 E.05962
; printing object Merged id:0 copy 0
G1 E-3.5 F3600
;WIPE_START
G1 F7200
G1 X100.56 Y98.445 E-.65572
G1 X101.828 Y97.438 E-.76928
;WIPE_END
G1 E-.075 F3600
G1 X102.153 Y103.724 F9000
G1 E5 F2400
;TYPE:External perimeter
;WIDTH:0.309999
G1 F900
G1 X102.437 Y103.699 E.00633
G1 X102.845 Y103.376 E.01154
G1 X102.98 Y103.161 E.00565
G1 X103.015 Y102.878 E.00633
G1 X102.917 Y102.603 E.00648
G1 X102.308 Y101.628 E.02552
G1 X102.687 Y101.271 E.01155
G1 X103.623 Y101.938 E.02552
G1 X103.833 Y102.039 E.00517
G1 X104.118 Y102.049 E.00633
G1 X104.561 Y101.778 E.01154
G1 X104.722 Y101.58 E.00565
G1 X104.79 Y101.303 E.00633
G1 X104.726 Y101.019 E.00648
G1 X104.239 Y99.976 E.02557
G1 X104.654 Y99.666 E.0115
G1 X105.508 Y100.444 E.02565
G1 X105.703 Y100.57 E.00517
G1 X105.985 Y100.614 E.00633
G1 X106.458 Y100.398 E.01154
G1 X106.641 Y100.221 E.00565
G1 X106.743 Y99.955 E.00633
G1 X106.713 Y99.664 E.00648
G1 X106.354 Y98.568 E.02562
G1 X106.807 Y98.315 E.01151
G1 X107.558 Y99.188 E.02557
G1 X107.737 Y99.336 E.00517
G1 X108.012 Y99.414 E.00633
G1 X108.507 Y99.257 E.01154
G1 X108.71 Y99.103 E.00565
G1 X108.843 Y98.851 E.00633
G1 X108.849 Y98.559 E.00648
G1 X108.625 Y97.432 E.02552
G1 X109.106 Y97.233 E.01155
G1 X109.745 Y98.188 E.02552
G1 X109.905 Y98.357 E.00517
G1 X110.168 Y98.467 E.00633
G1 X110.679 Y98.371 E.01154
G1 X110.899 Y98.243 E.00565
G1 X111.061 Y98.009 E.00633
G1 X111.102 Y97.72 E.00648
G1 X111.016 Y96.574 E.02552
G1 X111.517 Y96.434 E.01155
G1 X112.037 Y97.459 E.02552
G1 X112.175 Y97.647 E.00517
G1 X112.423 Y97.787 E.00633
G1 X112.941 Y97.754 E.01154
G1 X113.175 Y97.653 E.00565
G1 X113.365 Y97.44 E.00633
G1 X113.44 Y97.158 E.00648
G1 X113.493 Y96.008 E.02557
G1 X114.006 Y95.928 E.01151
G1 X114.399 Y97.012 E.02561
G1 X114.514 Y97.215 E.00517
G1 X114.743 Y97.384 E.00633
G1 X115.262 Y97.413 E.01154
G1 X115.506 Y97.341 E.00565
G1 X115.72 Y97.153 E.00633
G1 X115.829 Y96.883 E.00645
G1 X116.021 Y95.743 E.02568
G1 X116.531 Y95.731 E.01133
G1 X116.798 Y96.848 E.0255
G1 X116.888 Y97.068 E.00527
G1 X117.095 Y97.264 E.00633
G1 X117.607 Y97.355 E.01154
G1 X117.858 Y97.313 E.00565
G1 X118.093 Y97.152 E.00633
G1 X118.234 Y96.896 E.00648
G1 X118.56 Y95.794 E.02552
G1 X119.078 Y95.841 E.01155
G1 X119.2 Y96.984 E.02552
G1 X119.263 Y97.208 E.00517
G1 X119.444 Y97.428 E.00633
G1 X119.941 Y97.58 E.01154
G1 X120.196 Y97.569 E.00565
G1 X120.449 Y97.437 E.00633
G1 X120.619 Y97.2 E.00648
G1 X121.075 Y96.145 E.02552
G1 X121.584 Y96.255 E.01155
G1 X121.567 Y97.403 E.02552
G1 X121.603 Y97.634 E.00517
G1 X121.757 Y97.874 E.00633
G1 X122.232 Y98.085 E.01154
G1 X122.486 Y98.104 E.00565
G1 X122.753 Y98.004 E.00633
G1 X122.95 Y97.789 E.00648
G1 X123.532 Y96.795 E.02558
G1 X124.022 Y96.964 E.01151
G1 X123.867 Y98.105 E.02559
G1 X123.875 Y98.338 E.00517
G1 X123.999 Y98.595 E.00633
G1 X124.445 Y98.862 E.01154
G1 X124.694 Y98.912 E.00565
G1 X124.971 Y98.844 E.00633
G1 X125.194 Y98.655 E.00648
G1 X125.889 Y97.74 E.02552
G1 X126.357 Y97.968 E.01155
G1 X126.066 Y99.079 E.02552
G1 X126.045 Y99.311 E.00517
G1 X126.137 Y99.581 E.00633
G1 X126.548 Y99.9 E.01154
G1 X126.79 Y99.98 E.00565
G1 X127.073 Y99.946 E.00633
G1 X127.316 Y99.785 E.00648
G1 X128.117 Y98.961 E.02552
G1 X128.554 Y99.243 E.01155
G1 X128.131 Y100.311 E.02552
G1 X128.082 Y100.539 E.00517
G1 X128.141 Y100.818 E.00633
G1 X128.511 Y101.184 E.01154
G1 X128.741 Y101.292 E.00565
G1 X129.026 Y101.293 E.00633
G1 X129.287 Y101.162 E.00648
G1 X130.183 Y100.44 E.02556
G1 X130.583 Y100.769 E.0115
G1 X130.033 Y101.783 E.02564
G1 X129.957 Y102.004 E.00517
G1 X129.982 Y102.288 E.00633
G1 X130.304 Y102.695 E.01154
G1 X130.52 Y102.83 E.00565
G1 X130.803 Y102.866 E.00633
G1 X131.078 Y102.767 E.00648
G1 X132.057 Y102.157 E.02562
G1 X132.41 Y102.535 E.0115
G1 X131.743 Y103.474 E.02558
G1 X131.641 Y103.683 E.00517
G1 X131.632 Y103.968 E.00633
G1 X131.903 Y104.412 E.01154
G1 X132.1 Y104.572 E.00565
G1 X132.377 Y104.641 E.00633
G1 X132.662 Y104.577 E.00648
G1 X133.703 Y104.09 E.02552
G1 X134.011 Y104.509 E.01155
G1 X133.237 Y105.358 E.02552
G1 X133.111 Y105.554 E.00517
G1 X133.067 Y105.835 E.00633
G1 X133.282 Y106.308 E.01154
G1 X133.46 Y106.491 E.00565
G1 X133.726 Y106.593 E.00633
G1 X134.016 Y106.563 E.00648
G1 X135.108 Y106.206 E.02552
G1 X135.364 Y106.659 E.01155
G1 X134.493 Y107.408 E.02552
G1 X134.344 Y107.588 E.00517
G1 X134.267 Y107.862 E.00633
G1 X134.424 Y108.358 E.01154
G1 X134.577 Y108.56 E.00565
G1 X134.829 Y108.694 E.00633
G1 X135.121 Y108.699 E.00648
G1 X136.251 Y108.476 E.02558
G1 X136.453 Y108.952 E.01149
G1 X135.493 Y109.595 E.02566
G1 X135.323 Y109.755 E.00517
G1 X135.213 Y110.018 E.00633
G1 X135.309 Y110.529 E.01154
G1 X135.438 Y110.749 E.00565
G1 X135.672 Y110.912 E.00633
G1 X135.961 Y110.952 E.00648
G1 X137.113 Y110.867 E.02565
G1 X137.248 Y111.366 E.0115
G1 X136.221 Y111.887 E.02557
G1 X136.034 Y112.025 E.00517
G1 X135.893 Y112.273 E.00633
G1 X135.927 Y112.792 E.01154
G1 X136.028 Y113.026 E.00565
G1 X136.241 Y113.215 E.00633
G1 X136.523 Y113.291 E.00648
G1 X137.671 Y113.343 E.02552
G1 X137.749 Y113.858 E.01155
G1 X136.669 Y114.25 E.02552
G1 X136.466 Y114.364 E.00517
G1 X136.296 Y114.594 E.00633
G1 X136.267 Y115.113 E.01154
G1 X136.339 Y115.357 E.00565
G1 X136.528 Y115.571 E.00633
G1 X136.799 Y115.679 E.00648
G1 X137.932 Y115.87 E.02552
G1 X137.947 Y116.39 E.01155
G1 X136.828 Y116.649 E.02552
G1 X136.613 Y116.739 E.00517
G1 X136.417 Y116.946 E.00633
G1 X136.325 Y117.457 E.01154
G1 X136.367 Y117.708 E.00565
G1 X136.529 Y117.943 E.00633
G1 X136.784 Y118.084 E.00648
G1 X137.889 Y118.411 E.02558
G1 X137.843 Y118.927 E.01151
G1 X136.697 Y119.05 E.0256
G1 X136.472 Y119.113 E.00517
G1 X136.253 Y119.295 E.00633
G1 X136.101 Y119.792 E.01154
G1 X136.112 Y120.046 E.00565
G1 X136.244 Y120.299 E.00633
G1 X136.481 Y120.469 E.00648
G1 X137.535 Y120.926 E.02552
G1 X137.426 Y121.434 E.01155
G1 X136.277 Y121.418 E.02552
G1 X136.047 Y121.453 E.00517
G1 X135.807 Y121.607 E.00633
G1 X135.596 Y122.082 E.01154
G1 X135.576 Y122.336 E.00565
G1 X135.677 Y122.603 E.00633
G1 X135.892 Y122.801 E.00648
G1 X136.883 Y123.381 E.02552
G1 X136.714 Y123.873 E.01155
G1 X135.575 Y123.718 E.02552
G1 X135.342 Y123.725 E.00517
G1 X135.086 Y123.849 E.00633
G1 X134.819 Y124.295 E.01154
G1 X134.769 Y124.545 E.00565
G1 X134.836 Y124.822 E.00633
G1 X135.026 Y125.044 E.00648
G1 X135.94 Y125.74 E.02552
G1 X135.713 Y126.207 E.01155
G1 X134.601 Y125.916 E.02552
G1 X134.369 Y125.896 E.00517
G1 X134.099 Y125.988 E.00633
G1 X133.781 Y126.398 E.01154
G1 X133.701 Y126.64 E.00565
G1 X133.735 Y126.923 E.00633
G1 X133.896 Y127.167 E.00648
G1 X134.722 Y127.97 E.02559
G1 X134.44 Y128.405 E.01151
G1 X133.369 Y127.981 E.02558
G1 X133.141 Y127.933 E.00517
G1 X132.862 Y127.992 E.00633
G1 X132.497 Y128.361 E.01154
G1 X132.388 Y128.592 E.00565
G1 X132.388 Y128.877 E.00633
G1 X132.518 Y129.138 E.00648
G1 X133.24 Y130.032 E.02552
G1 X132.907 Y130.432 E.01155
G1 X131.897 Y129.883 E.02552
G1 X131.677 Y129.807 E.00517
G1 X131.393 Y129.832 E.00633
G1 X130.985 Y130.155 E.01154
G1 X130.85 Y130.37 E.00565
G1 X130.815 Y130.653 E.00633
G1 X130.913 Y130.928 E.00648
G1 X131.522 Y131.903 E.02552
G1 X131.143 Y132.259 E.01155
G1 X130.207 Y131.593 E.02552
G1 X129.997 Y131.492 E.00517
G1 X129.712 Y131.482 E.00633
G1 X129.269 Y131.753 E.01154
G1 X129.109 Y131.951 E.00565
G1 X129.04 Y132.228 E.00633
G1 X129.104 Y132.512 E.00648
G1 X129.591 Y133.555 E.02557
G1 X129.176 Y133.865 E.0115
G1 X128.323 Y133.087 E.02565
G1 X128.127 Y132.961 E.00517
G1 X127.845 Y132.917 E.00633
G1 X127.372 Y133.133 E.01154
G1 X127.189 Y133.31 E.00565
G1 X127.088 Y133.576 E.00633
G1 X127.117 Y133.867 E.00648
G1 X127.476 Y134.963 E.02562
G1 X127.023 Y135.216 E.01151
G1 X126.272 Y134.343 E.02557
G1 X126.093 Y134.194 E.00517
G1 X125.819 Y134.117 E.00633
G1 X125.323 Y134.274 E.01154
G1 X125.12 Y134.428 E.00565
G1 X124.987 Y134.68 E.00633
G1 X124.981 Y134.972 E.00648
G1 X125.205 Y136.099 E.02552
G1 X124.724 Y136.298 E.01155
G1 X124.085 Y135.343 E.02552
G1 X123.925 Y135.174 E.00517
G1 X123.662 Y135.064 E.00633
G1 X123.151 Y135.16 E.01154
G1 X122.931 Y135.288 E.00565
G1 X122.769 Y135.522 E.00633
G1 X122.728 Y135.811 E.00648
G1 X122.814 Y136.957 E.02552
G1 X122.313 Y137.097 E.01155
G1 X121.794 Y136.072 E.02552
G1 X121.655 Y135.884 E.00517
G1 X121.407 Y135.744 E.00633
G1 X120.889 Y135.777 E.01154
G1 X120.655 Y135.878 E.00565
G1 X120.465 Y136.091 E.00633
G1 X120.39 Y136.373 E.00648
G1 X120.337 Y137.523 E.02557
G1 X119.825 Y137.603 E.01151
G1 X119.431 Y136.519 E.02561
G1 X119.316 Y136.316 E.00517
G1 X119.087 Y136.147 E.00633
G1 X118.568 Y136.118 E.01154
G1 X118.324 Y136.19 E.00565
G1 X118.11 Y136.378 E.00633
G1 X118.001 Y136.649 E.00648
G1 X117.809 Y137.788 E.02565
G1 X117.291 Y137.8 E.0115
G1 X117.031 Y136.678 E.02557
G1 X116.942 Y136.463 E.00517
G1 X116.735 Y136.267 E.00633
G1 X116.223 Y136.176 E.01154
G1 X115.972 Y136.218 E.00565
G1 X115.737 Y136.379 E.00633
G1 X115.597 Y136.635 E.00648
G1 X115.271 Y137.737 E.02552
G1 X114.752 Y137.69 E.01155
G1 X114.63 Y136.547 E.02552
G1 X114.568 Y136.323 E.00517
G1 X114.386 Y136.103 E.00633
G1 X113.889 Y135.951 E.01154
G1 X113.634 Y135.962 E.00565
G1 X113.382 Y136.094 E.00633
G1 X113.211 Y136.331 E.00648
G1 X112.755 Y137.386 E.02552
G1 X112.246 Y137.276 E.01155
G1 X112.263 Y136.127 E.02552
G1 X112.227 Y135.897 E.00517
G1 X112.073 Y135.657 E.00633
G1 X111.598 Y135.446 E.01154
G1 X111.344 Y135.427 E.00565
G1 X111.078 Y135.527 E.00633
G1 X110.88 Y135.742 E.00648
G1 X110.298 Y136.736 E.02558
G1 X109.808 Y136.567 E.01151
G1 X109.963 Y135.426 E.02559
G1 X109.955 Y135.193 E.00517
G1 X109.831 Y134.936 E.00633
G1 X109.385 Y134.669 E.01154
G1 X109.136 Y134.619 E.00565
G1 X108.859 Y134.687 E.00633
G1 X108.636 Y134.876 E.00648
G1 X107.941 Y135.791 E.02552
G1 X107.473 Y135.563 E.01155
G1 X107.764 Y134.451 E.02552
G1 X107.785 Y134.22 E.00517
G1 X107.693 Y133.95 E.00633
G1 X107.282 Y133.631 E.01154
G1 X107.04 Y133.551 E.00565
G1 X106.757 Y133.585 E.00633
G1 X106.514 Y133.746 E.00648
G1 X105.713 Y134.57 E.02552
G1 X105.276 Y134.288 E.01155
G1 X105.699 Y133.219 E.02552
G1 X105.748 Y132.992 E.00517
G1 X105.689 Y132.713 E.00633
G1 X105.319 Y132.347 E.01154
G1 X105.089 Y132.239 E.00565
G1 X104.804 Y132.238 E.00633
G1 X104.543 Y132.369 E.00648
G1 X103.647 Y133.091 E.02556
G1 X103.247 Y132.762 E.0115
G1 X103.798 Y131.748 E.02564
G1 X103.873 Y131.527 E.00517
G1 X103.848 Y131.243 E.00633
G1 X103.526 Y130.836 E.01154
G1 X103.31 Y130.7 E.00565
G1 X103.027 Y130.665 E.00633
G1 X102.752 Y130.764 E.00648
G1 X101.773 Y131.374 E.02562
G1 X101.42 Y130.996 E.0115
G1 X102.087 Y130.057 E.02558
G1 X102.189 Y129.848 E.00517
G1 X102.198 Y129.563 E.00633
G1 X101.927 Y129.119 E.01154
G1 X101.73 Y128.959 E.00565
G1 X101.453 Y128.89 E.00633
G1 X101.168 Y128.954 E.00648
G1 X100.127 Y129.441 E.02552
G1 X99.819 Y129.022 E.01155
G1 X100.593 Y128.173 E.02552
G1 X100.719 Y127.977 E.00517
G1 X100.763 Y127.696 E.00633
G1 X100.548 Y127.223 E.01154
G1 X100.371 Y127.04 E.00565
G1 X100.104 Y126.938 E.00633
G1 X99.814 Y126.967 E.00648
G1 X98.722 Y127.325 E.02552
G1 X98.466 Y126.872 E.01155
G1 X99.337 Y126.122 E.02552
G1 X99.486 Y125.943 E.00517
G1 X99.563 Y125.669 E.00633
G1 X99.406 Y125.173 E.01154
G1 X99.253 Y124.971 E.00565
G1 X99.001 Y124.837 E.00633
