; generated by PrusaSlicer 2.4.0+linux-x64-GTK3 on 2022-07-27 at 17:27:11 UTC

; 

; external perimeters extrusion width = 0.45mm
; perimeters extrusion width = 0.45mm
; infill extrusion width = 0.45mm
; solid infill extrusion width = 0.45mm
; top infill extrusion width = 0.45mm
; support material extrusion width = 0.38mm
; first layer extrusion width = 0.42mm

M201 X500 Y500 Z100 E5000 ; sets maximum accelerations, mm/sec^2
M203 X500 Y500 Z10 E60 ; sets maximum feedrates, mm/sec
M204 P500 R1000 T500 ; sets acceleration (P, T) and retract acceleration (R), mm/sec^2
M205 X8.00 Y8.00 Z0.40 E5.00 ; sets the jerk limits, mm/sec
M205 S0 T0 ; sets the minimum extruding and travel feed rate, mm/sec
M107
;TYPE:Custom
G90 ; use absolute coordinates
M83 ; extruder relative mode
M140 S50 ; set final bed temp
M104 S150 ; set temporary nozzle temp to prevent oozing during homing and auto bed leveling
G4 S10 ; allow partial nozzle warmup
G28 ; home all axis
G29 ; auto bed levelling
G1 Z50 F240
G1 X2 Y10 F3000
M104 S205 ; set final nozzle temp
M190 S50 ; wait for bed temp to stabilize
M109 S205 ; wait for nozzle temp to stabilize
G1 Z0.28 F240
G92 E0
G1 Y140 E10 F1500 ; prime the nozzle
G1 X2.3 F5000
G92 E0
G1 Y10 E10 F1200 ; prime the nozzle
G92 E0
G21 ; set units to millimeters
G90 ; use absolute coordinates
M83 ; use relative distances for extrusion
; Filament gcode
M107
;LAYER_CHANGE
;Z:0.2
;HEIGHT:0.2
;BEFORE_LAYER_CHANGE
G92 E0
;0.2


G1 E-5 F3600
G1 Z.2 F9000
;AFTER_LAYER_CHANGE
;0.2
G1 X98.964 Y79.332
G1 E5 F2400
M204 S500
;TYPE:Skirt/Brim
;WIDTH:0.42
G1 F1200
G1 X100.199 Y78.15 E.05146
G1 X101.497 Y77.19 E.04858
G1 X102.912 Y76.383 E.04906
G1 X104.628 Y75.684 E.05576
G1 X106.401 Y75.232 E.05509
G1 X123.465 Y72.333 E.52098
G1 X124.936 Y72.137 E.04468
G1 X126.402 Y72.214 E.04419
G1 X127.163 Y72.314 E.02309
G1 X128.016 Y72.542 E.02659
G1 X129.27 Y73.062 E.04086
G1 X130.032 Y73.502 E.02647
G1 X131.109 Y74.328 E.04085
G1 X131.732 Y74.951 E.02653
G1 X132.559 Y76.028 E.04087
G1 X133.001 Y76.794 E.02663
G1 X133.52 Y78.049 E.04088
G1 X133.748 Y78.9 E.02649
G1 X133.925 Y80.246 E.04086
G1 X135.543 Y148.386 E2.05161
G1 X135.285 Y150.345 E.05948
G1 X135.057 Y151.196 E.02651
G1 X134.301 Y153.022 E.05949
G1 X133.86 Y153.785 E.02654
G1 X132.658 Y155.352 E.05945
G1 X132.034 Y155.976 E.02656
G1 X130.466 Y157.179 E.05949
G1 X129.703 Y157.62 E.02653
G1 X127.878 Y158.376 E.05946
G1 X127.027 Y158.604 E.02652
G1 X124.614 Y158.892 E.07316
G1 X118.299 Y158.877 E.19008
G1 X116.236 Y158.168 E.06564
G1 X100.087 Y145.614 E.6157
G1 X98.818 Y144.368 E.05351
G1 X97.726 Y142.965 E.05352
G1 X96.815 Y141.4 E.05451
G1 X96.107 Y139.674 E.05616
G1 X95.635 Y137.807 E.05797
G1 X95.429 Y135.547 E.0683
G1 X95.428 Y88.391 E1.4194
G1 X95.493 Y87.079 E.03954
G1 X95.766 Y85.405 E.05108
G1 X96.304 Y83.632 E.05576
G1 X97.072 Y81.967 E.05519
G1 X97.813 Y80.767 E.04245
G1 X98.927 Y79.379 E.05357
G1 E-3.5 F3600
;WIPE_START
G1 F7200
G1 X100.199 Y78.15 E-.84026
G1 X101.189 Y77.418 E-.58474
;WIPE_END
G1 E-.075 F3600
G1 X121.072 Y142.149 F9000
G1 E5 F2400
;TYPE:Perimeter
G1 F1200
G1 X124.702 Y142.149 E.10926
G1 X126.13 Y142.337 E.04336
G1 X127.529 Y142.918 E.04561
G1 X128.732 Y143.84 E.04561
G1 X129.654 Y145.042 E.04561
G1 X130.234 Y146.442 E.04562
G1 X130.432 Y147.945 E.04562
G1 X130.234 Y149.448 E.04562
G1 X129.654 Y150.848 E.04561
G1 X128.732 Y152.051 E.04563
G1 X127.529 Y152.974 E.04563
G1 X126.129 Y153.553 E.0456
G1 X124.702 Y153.741 E.04335
G1 X119.518 Y153.741 E.15604
G1 X119.518 Y142.149 E.34893
G1 X121.012 Y142.149 E.04497
G1 X120.672 Y142.526 F9000
G1 F1200
G1 X124.677 Y142.526 E.12056
G1 X126.031 Y142.705 E.04112
G1 X127.339 Y143.247 E.04262
G1 X128.463 Y144.109 E.04262
G1 X129.325 Y145.232 E.04262
G1 X129.867 Y146.541 E.04263
G1 X130.052 Y147.945 E.04264
G1 X129.867 Y149.349 E.04264
G1 X129.325 Y150.657 E.04262
G1 X128.463 Y151.782 E.04265
G1 X127.339 Y152.644 E.04264
G1 X126.031 Y153.185 E.04261
G1 X124.677 Y153.364 E.04111
G1 X119.895 Y153.364 E.14395
G1 X119.895 Y142.526 E.32623
G1 X120.612 Y142.526 E.02158
G1 X120.272 Y142.903 F9000
;TYPE:External perimeter
G1 F1200
G1 X124.652 Y142.903 E.13185
G1 X125.933 Y143.072 E.03888
G1 X127.149 Y143.576 E.03963
G1 X128.194 Y144.378 E.03964
G1 X128.995 Y145.423 E.03964
G1 X129.5 Y146.639 E.03964
G1 X129.671 Y147.945 E.03965
G1 X129.5 Y149.251 E.03965
G1 X128.995 Y150.467 E.03963
G1 X128.194 Y151.513 E.03966
G1 X127.149 Y152.315 E.03964
G1 X125.933 Y152.818 E.03962
G1 X124.652 Y152.987 E.03888
G1 X120.272 Y152.987 E.13185
G1 X120.272 Y142.963 E.30172
G1 X120.217 Y142.507 F9000
G1 E-3.5 F3600
;WIPE_START
G1 F7200
G1 X123.271 Y142.922 E-1.425
;WIPE_END
G1 E-.075 F3600
G1 X106.527 Y139.594 F9000
G1 E5 F2400
;TYPE:Perimeter
G1 F1200
G1 X108.364 Y141.43 E.07818
G1 X124.552 Y141.439 E.48726
G1 X126.308 Y141.671 E.05332
G1 X127.874 Y142.32 E.05103
G1 X129.22 Y143.352 E.05105
G1 X130.251 Y144.697 E.05103
G1 X130.9 Y146.264 E.05103
G1 X131.121 Y147.945 E.05104
G1 X130.9 Y149.626 E.05104
G1 X130.251 Y151.193 E.05106
G1 X129.22 Y152.538 E.05101
G1 X127.874 Y153.57 E.05105
G1 X126.308 Y154.219 E.05103
G1 X124.553 Y154.451 E.05327
G1 X118.672 Y154.437 E.17702
G1 X103.344 Y142.542 E.584
G1 X102.721 Y142.013 E.02461
G1 X102.284 Y141.574 E.01865
G1 X101.91 Y141.151 E.01698
G1 X101.531 Y140.655 E.01878
G1 X101.219 Y140.19 E.01688
G1 X100.814 Y139.468 E.02489
G1 X100.645 Y139.109 E.01196
G1 X100.406 Y138.512 E.01935
G1 X100.217 Y137.935 E.01829
G1 X100.022 Y137.111 E.02548
G1 X99.958 Y136.723 E.01184
G1 X99.879 Y135.873 E.0257
G1 X99.869 Y88.415 E1.4285
G1 X99.908 Y87.567 E.02555
G1 X100.021 Y86.754 E.0247
G1 X100.107 Y86.345 E.01258
G1 X100.208 Y85.953 E.01217
G1 X100.406 Y85.348 E.01918
G1 X100.634 Y84.775 E.01853
G1 X100.993 Y84.053 E.02429
G1 X101.434 Y83.342 E.02518
G1 X101.938 Y82.674 E.02518
G1 X102.194 Y82.38 E.01175
G1 X102.793 Y81.78 E.02551
G1 X103.088 Y81.524 E.01175
G1 X103.764 Y81.013 E.02551
G1 X104.091 Y80.8 E.01175
G1 X104.832 Y80.388 E.02551
G1 X105.185 Y80.222 E.01175
G1 X105.965 Y79.92 E.02518
G1 X106.759 Y79.694 E.02484
G1 X107.57 Y79.542 E.02484
G1 X108.392 Y79.466 E.02485
G1 X121.596 Y79.455 E.39744
G1 X121.843 Y78.569 E.02767
G1 X122.459 Y77.767 E.03043
G1 X123.313 Y77.111 E.03242
G1 X124.309 Y76.699 E.03243
G1 X125.377 Y76.558 E.03243
G1 X126.445 Y76.699 E.03243
G1 X127.44 Y77.111 E.03243
G1 X128.295 Y77.767 E.03243
G1 X128.951 Y78.622 E.03243
G1 X129.363 Y79.617 E.03244
G1 X129.503 Y80.686 E.03244
G1 X129.363 Y81.754 E.03244
G1 X128.951 Y82.749 E.03241
G1 X128.295 Y83.604 E.03244
G1 X127.438 Y84.262 E.03251
G1 X127.283 Y84.327 E.00508
G1 X108.364 Y84.327 E.56946
G1 X105.741 Y86.95 E.11167
G1 X105.741 Y138.807 E1.56089
G1 X106.485 Y139.551 E.03168
G1 X106.511 Y139.044 F9000
G1 F1200
G1 X108.52 Y141.053 E.08552
G1 X124.576 Y141.062 E.4833
G1 X126.406 Y141.303 E.05555
G1 X128.064 Y141.99 E.05402
G1 X129.489 Y143.083 E.05404
G1 X130.58 Y144.507 E.05402
G1 X131.267 Y146.165 E.05402
G1 X131.502 Y147.945 E.05403
G1 X131.267 Y149.725 E.05403
G1 X130.58 Y151.384 E.05404
G1 X129.489 Y152.807 E.054
G1 X128.064 Y153.9 E.05404
G1 X126.406 Y154.587 E.05402
G1 X124.577 Y154.828 E.05552
G1 X118.543 Y154.813 E.18165
G1 X103.106 Y142.835 E.58812
G1 X102.465 Y142.29 E.02533
G1 X102.009 Y141.832 E.01946
G1 X101.618 Y141.391 E.01774
G1 X101.225 Y140.875 E.01954
G1 X100.897 Y140.387 E.01767
G1 X100.479 Y139.641 E.02574
G1 X100.299 Y139.26 E.0127
G1 X100.052 Y138.641 E.02006
G1 X99.854 Y138.037 E.01913
G1 X99.652 Y137.185 E.02635
G1 X99.584 Y136.771 E.01263
G1 X99.502 Y135.895 E.02649
G1 X99.492 Y88.406 E1.42942
G1 X99.532 Y87.532 E.02634
G1 X99.649 Y86.689 E.02561
G1 X99.739 Y86.259 E.01324
G1 X99.846 Y85.847 E.01279
G1 X100.052 Y85.219 E.01988
G1 X100.287 Y84.626 E.01923
G1 X100.666 Y83.866 E.02556
G1 X101.122 Y83.129 E.02609
G1 X101.645 Y82.437 E.0261
G1 X101.918 Y82.122 E.01254
G1 X102.536 Y81.505 E.0263
G1 X102.85 Y81.231 E.01254
G1 X103.547 Y80.705 E.0263
G1 X103.896 Y80.477 E.01254
G1 X104.66 Y80.052 E.0263
G1 X105.037 Y79.875 E.01254
G1 X105.845 Y79.562 E.0261
G1 X106.673 Y79.326 E.02589
G1 X107.518 Y79.168 E.02589
G1 X108.375 Y79.089 E.0259
G1 X121.31 Y79.078 E.38935
G1 X121.5 Y78.398 E.02126
G1 X122.19 Y77.498 E.03413
G1 X123.123 Y76.782 E.03541
G1 X124.21 Y76.331 E.03542
G1 X125.377 Y76.178 E.03542
G1 X126.543 Y76.331 E.03542
G1 X127.63 Y76.782 E.03542
G1 X128.564 Y77.498 E.03542
G1 X129.28 Y78.431 E.03542
G1 X129.73 Y79.519 E.03543
G1 X129.884 Y80.686 E.03543
G1 X129.73 Y81.853 E.03542
G1 X129.281 Y82.939 E.0354
G1 X128.564 Y83.873 E.03543
G1 X127.629 Y84.591 E.03547
G1 X127.359 Y84.704 E.00883
G1 X108.52 Y84.704 E.56704
G1 X106.118 Y87.107 E.10227
G1 X106.118 Y138.651 E1.55149
G1 X106.468 Y139.002 E.01494
G1 X106.495 Y138.495 F9000
;TYPE:External perimeter
G1 F1200
G1 X108.676 Y140.676 E.09286
G1 X124.601 Y140.685 E.47935
G1 X126.505 Y140.936 E.05779
G1 X128.254 Y141.661 E.057
G1 X129.758 Y142.814 E.05703
G1 X130.91 Y144.317 E.05701
G1 X131.635 Y146.067 E.05701
G1 X131.882 Y147.945 E.05702
G1 X131.635 Y149.823 E.05702
G1 X130.91 Y151.574 E.05703
G1 X129.758 Y153.076 E.05699
G1 X128.254 Y154.229 E.05703
G1 X126.505 Y154.954 E.057
G1 X124.602 Y155.205 E.05778
G1 X118.413 Y155.19 E.18628
G1 X102.869 Y143.127 E.59225
G1 X102.209 Y142.567 E.02605
G1 X101.734 Y142.09 E.02026
G1 X101.326 Y141.63 E.01849
G1 X100.918 Y141.094 E.02029
G1 X100.576 Y140.585 E.01847
G1 X100.144 Y139.814 E.02659
G1 X99.953 Y139.41 E.01345
G1 X99.697 Y138.769 E.02076
G1 X99.49 Y138.14 E.01996
G1 X99.282 Y137.259 E.02723
G1 X99.209 Y136.819 E.01342
G1 X99.125 Y135.917 E.02728
G1 X99.115 Y88.397 E1.43034
G1 X99.156 Y87.497 E.02712
G1 X99.278 Y86.625 E.02652
G1 X99.372 Y86.173 E.0139
G1 X99.484 Y85.741 E.01342
G1 X99.697 Y85.091 E.02059
G1 X99.941 Y84.476 E.01992
G1 X100.338 Y83.678 E.02682
G1 X100.811 Y82.915 E.02701
G1 X101.351 Y82.199 E.02701
G1 X101.642 Y81.865 E.01333
G1 X102.278 Y81.229 E.02709
G1 X102.612 Y80.938 E.01333
G1 X103.331 Y80.396 E.02709
G1 X103.702 Y80.154 E.01333
G1 X104.488 Y79.716 E.02709
G1 X104.888 Y79.528 E.01333
G1 X105.725 Y79.204 E.02701
G1 X106.586 Y78.959 E.02694
G1 X107.466 Y78.794 E.02694
G1 X108.357 Y78.712 E.02694
G1 X121.024 Y78.701 E.38126
G1 X121.156 Y78.226 E.01485
G1 X121.921 Y77.229 E.03782
G1 X122.933 Y76.453 E.0384
G1 X124.112 Y75.964 E.03841
G1 X125.377 Y75.798 E.03841
G1 X126.642 Y75.964 E.03841
G1 X127.82 Y76.453 E.03841
G1 X128.833 Y77.229 E.0384
G1 X129.61 Y78.241 E.03841
G1 X130.098 Y79.421 E.03842
G1 X130.264 Y80.686 E.03841
G1 X130.098 Y81.951 E.03841
G1 X129.61 Y83.13 E.03839
G1 X128.833 Y84.142 E.03842
G1 X127.82 Y84.919 E.03843
G1 X127.434 Y85.081 E.01259
G1 X108.676 Y85.081 E.56462
G1 X106.495 Y87.263 E.09287
G1 X106.495 Y138.435 E1.54028
G1 X106.29 Y138.838 F9000
G1 E-3.5 F3600
;WIPE_START
G1 F7200
G1 X108.587 Y140.584 E-1.425
;WIPE_END
G1 E-.075 F3600
G1 X129.255 Y79.666 F9000
G1 E5 F2400
;TYPE:Solid infill
;WIDTH:0.422096
G1 F1200
G1 X126.699 Y77.11 E.1094
G1 X126.371 Y76.974 E.01076
G1 X125.975 Y76.922 E.01209
G1 X129.139 Y80.087 E.13545
G1 X129.216 Y80.7 E.01871
G1 X125.362 Y76.845 E.16499
G1 X124.888 Y76.908 E.01447
G1 X129.154 Y81.174 E.1826
G1 X129.092 Y81.648 E.01447
G1 X124.414 Y76.97 E.20022
G1 X124.029 Y77.121 E.01253
G1 X128.941 Y82.034 E.21028
G1 X128.784 Y82.413 E.01242
G1 X123.65 Y77.278 E.21979
G1 X123.456 Y77.358 E.00634
G1 X123.308 Y77.472 E.00566
G1 X128.59 Y82.755 E.22612
G1 X128.357 Y83.058 E.01158
G1 X123.004 Y77.705 E.22914
G1 X122.701 Y77.938 E.01158
G1 X128.124 Y83.362 E.23216
G1 X127.831 Y83.604 E.01153
G1 X122.458 Y78.232 E.22995
G1 X122.226 Y78.535 E.01158
G1 X127.527 Y83.837 E.22693
G1 X127.295 Y84.015 E.00886
G1 X127.226 Y84.044 E.00227
G1 X127.198 Y84.044 E.00083
G1 X122.047 Y78.893 E.22051
G1 X121.93 Y79.312 E.01317
G1 X126.662 Y84.044 E.20257
G1 X126.126 Y84.044 E.01623
G1 X121.813 Y79.731 E.18462
G1 X121.283 Y79.738 E.01603
G1 X125.59 Y84.044 E.18434
G1 X125.053 Y84.044 E.01623
G1 X120.747 Y79.738 E.18432
G1 X120.212 Y79.739 E.01622
G1 X124.517 Y84.044 E.1843
G1 X123.981 Y84.044 E.01623
G1 X119.676 Y79.739 E.18428
G1 X119.14 Y79.74 E.01622
G1 X123.445 Y84.044 E.18426
G1 X122.908 Y84.044 E.01623
G1 X118.604 Y79.74 E.18424
G1 X118.069 Y79.741 E.01622
G1 X122.372 Y84.044 E.18422
G1 X121.836 Y84.044 E.01623
G1 X117.533 Y79.741 E.1842
G1 X116.997 Y79.741 E.01622
G1 X121.3 Y84.044 E.18418
G1 X120.764 Y84.044 E.01623
G1 X116.461 Y79.742 E.18416
G1 X115.925 Y79.742 E.01622
G1 X120.227 Y84.044 E.18414
G1 X119.691 Y84.044 E.01623
G1 X115.39 Y79.743 E.18412
G1 X114.854 Y79.743 E.01622
G1 X119.155 Y84.044 E.1841
G1 X118.619 Y84.044 E.01623
G1 X114.318 Y79.744 E.18408
G1 X113.782 Y79.744 E.01622
G1 X118.082 Y84.044 E.18406
G1 X117.546 Y84.044 E.01623
G1 X113.246 Y79.745 E.18404
G1 X112.711 Y79.745 E.01622
G1 X117.01 Y84.044 E.18403
G1 X116.474 Y84.044 E.01623
G1 X112.175 Y79.746 E.18401
G1 X111.639 Y79.746 E.01622
G1 X115.937 Y84.044 E.18399
G1 X115.401 Y84.044 E.01623
G1 X111.103 Y79.746 E.18397
G1 X110.568 Y79.747 E.01622
G1 X114.865 Y84.044 E.18395
G1 X114.329 Y84.044 E.01623
G1 X110.032 Y79.747 E.18393
G1 X109.496 Y79.748 E.01622
G1 X113.792 Y84.044 E.18391
G1 X113.256 Y84.044 E.01623
G1 X108.96 Y79.748 E.18389
G1 X108.424 Y79.749 E.01622
G1 X112.72 Y84.044 E.18387
G1 X112.184 Y84.044 E.01623
G1 X107.932 Y79.793 E.18199
G1 X107.455 Y79.851 E.01456
G1 X111.648 Y84.044 E.17947
G1 X111.111 Y84.044 E.01623
G1 X107.003 Y79.936 E.17586
G1 X106.572 Y80.041 E.01343
G1 X110.575 Y84.044 E.17136
G1 X110.039 Y84.044 E.01623
G1 X106.154 Y80.16 E.16627
G1 X105.761 Y80.302 E.01268
G1 X109.503 Y84.044 E.16018
G1 X108.966 Y84.044 E.01623
G1 X105.374 Y80.452 E.15377
G1 X105.297 Y80.482 E.00251
G1 X105.005 Y80.619 E.00976
G1 X108.43 Y84.044 E.14662
G1 X108.247 Y84.044 E.00555
G1 X108.07 Y84.221 E.00755
G1 X104.658 Y80.808 E.14607
G1 X104.313 Y81 E.01193
G1 X107.802 Y84.489 E.14933
G1 X107.534 Y84.757 E.01148
G1 X103.984 Y81.207 E.15194
G1 X103.676 Y81.435 E.01161
G1 X107.266 Y85.025 E.15369
G1 X106.998 Y85.293 E.01148
G1 X103.37 Y81.665 E.15529
G1 X103.077 Y81.908 E.01153
G1 X106.73 Y85.561 E.15636
G1 X106.462 Y85.829 E.01148
G1 X102.803 Y82.171 E.15661
G1 X102.535 Y82.439 E.01148
G1 X106.193 Y86.098 E.15661
G1 X105.925 Y86.366 E.01148
G1 X102.276 Y82.716 E.15621
G1 X102.036 Y83.013 E.01154
G1 X105.657 Y86.634 E.15499
G1 X105.458 Y86.833 E.00854
G1 X105.458 Y86.97 E.00415
G1 X101.806 Y83.318 E.15633
G1 X101.585 Y83.634 E.01166
G1 X105.458 Y87.507 E.16576
G1 X105.458 Y88.043 E.01623
G1 X101.38 Y83.965 E.17454
G1 X101.181 Y84.303 E.01185
G1 X105.458 Y88.579 E.18305
G1 X105.458 Y89.115 E.01623
G1 X101.001 Y84.659 E.19078
G1 X100.893 Y84.888 E.00767
G1 X100.837 Y85.031 E.00465
G1 X105.458 Y89.652 E.19781
G1 X105.458 Y90.188 E.01623
G1 X100.684 Y85.414 E.20433
G1 X100.55 Y85.817 E.01284
G1 X105.458 Y90.724 E.21005
G1 X105.458 Y91.26 E.01623
G1 X100.428 Y86.231 E.21528
G1 X100.328 Y86.667 E.01354
G1 X105.458 Y91.797 E.21957
G1 X105.458 Y92.333 E.01623
G1 X100.254 Y87.129 E.22273
G1 X100.19 Y87.601 E.0144
G1 X105.458 Y92.869 E.2255
G1 X105.458 Y93.405 E.01623
G1 X100.166 Y88.113 E.22652
G1 X100.152 Y88.635 E.01581
G1 X105.458 Y93.942 E.22713
G1 X105.458 Y94.478 E.01623
G1 X100.152 Y89.172 E.22713
G1 X100.152 Y89.708 E.01623
G1 X105.458 Y95.014 E.22713
G1 X105.458 Y95.55 E.01623
G1 X100.152 Y90.244 E.22713
G1 X100.152 Y90.78 E.01623
G1 X105.458 Y96.086 E.22713
G1 X105.458 Y96.623 E.01623
G1 X100.152 Y91.317 E.22713
G1 X100.152 Y91.853 E.01623
G1 X105.458 Y97.159 E.22713
G1 X105.458 Y97.695 E.01623
G1 X100.152 Y92.389 E.22713
G1 X100.152 Y92.925 E.01623
G1 X105.458 Y98.231 E.22713
G1 X105.458 Y98.768 E.01623
G1 X100.152 Y93.462 E.22713
G1 X100.152 Y93.998 E.01623
G1 X105.458 Y99.304 E.22713
G1 X105.458 Y99.84 E.01623
G1 X100.152 Y94.534 E.22713
G1 X100.152 Y95.07 E.01623
G1 X105.458 Y100.376 E.22713
G1 X105.458 Y100.913 E.01623
G1 X100.152 Y95.607 E.22713
G1 X100.152 Y96.143 E.01623
G1 X105.458 Y101.449 E.22713
G1 X105.458 Y101.985 E.01623
G1 X100.152 Y96.679 E.22713
G1 X100.152 Y97.215 E.01623
G1 X105.458 Y102.521 E.22713
G1 X105.458 Y103.058 E.01623
G1 X100.152 Y97.751 E.22713
