; generated by PrusaSlicer 2.4.0+linux-x64-GTK3 on 2022-07-31 at 12:12:58 UTC

; 

; external perimeters extrusion width = 0.45mm
; perimeters extrusion width = 0.45mm
; infill extrusion width = 0.45mm
; solid infill extrusion width = 0.45mm
; top infill extrusion width = 0.45mm
; support material extrusion width = 0.38mm
; first layer extrusion width = 0.42mm

M201 X500 Y500 Z100 E5000 ; sets maximum accelerations, mm/sec^2
M203 X500 Y500 Z10 E60 ; sets maximum feedrates, mm/sec
M204 P500 R1000 T500 ; sets acceleration (P, T) and retract acceleration (R), mm/sec^2
M205 X8.00 Y8.00 Z0.40 E5.00 ; sets the jerk limits, mm/sec
M205 S0 T0 ; sets the minimum extruding and travel feed rate, mm/sec
M107
;TYPE:Custom
G90 ; use absolute coordinates
M83 ; extruder relative mode
M140 S50 ; set final bed temp
M104 S150 ; set temporary nozzle temp to prevent oozing during homing and auto bed leveling
G4 S10 ; allow partial nozzle warmup
G28 ; home all axis
G29 ; auto bed levelling
G1 Z50 F240
G1 X2 Y10 F3000
M104 S205 ; set final nozzle temp
M190 S50 ; wait for bed temp to stabilize
M109 S205 ; wait for nozzle temp to stabilize
G1 Z0.28 F240
G92 E0
G1 Y140 E10 F1500 ; prime the nozzle
G1 X2.3 F5000
G92 E0
G1 Y10 E10 F1200 ; prime the nozzle
G92 E0
G21 ; set units to millimeters
G90 ; use absolute coordinates
M83 ; use relative distances for extrusion
; Filament gcode
M107
;LAYER_CHANGE
;Z:0.2
;HEIGHT:0.2
;BEFORE_LAYER_CHANGE
G92 E0
;0.2


G1 E-5 F3600
G1 Z.2 F9000
;AFTER_LAYER_CHANGE
;0.2
G1 X98.374 Y93.845
G1 E5 F2400
M204 S500
;TYPE:Skirt/Brim
;WIDTH:0.42
G1 F1200
G1 X99.883 Y92.893 E.05368
G1 X100.872 Y92.745 E.03013
G1 X113.888 Y92.745 E.39178
G1 X115.471 Y93.139 E.04911
G1 X116.276 Y93.734 E.03013
G1 X116.651 Y94.142 E.01667
G1 X134.552 Y116.852 E.8704
G1 X135.277 Y118.942 E.0666
G1 X135.277 Y132.058 E.39478
G1 X134.883 Y133.641 E.04911
G1 X134.288 Y134.446 E.03012
G1 X131.359 Y137.375 E.12467
G1 X129.961 Y138.215 E.04911
G1 X128.971 Y138.364 E.03012
G1 X102.029 Y138.363 E.81098
G1 X100.445 Y137.969 E.04911
G1 X99.641 Y137.374 E.03012
G1 X96.712 Y134.445 E.12467
G1 X95.871 Y133.047 E.04911
G1 X95.723 Y132.057 E.03012
G1 X95.732 Y118.696 E.40216
G1 X97.394 Y95.986 E.68541
G1 X98.349 Y93.899 E.06908
G1 E-3.5 F3600
;WIPE_START
G1 F7200
G1 X99.883 Y92.893 E-.87116
G1 X100.872 Y92.745 E-.47543
G1 X101.038 Y92.745 E-.07841
;WIPE_END
G1 E-.075 F3600
G1 X103.573 Y116.3 F9000
G1 E5 F2400
G1 F1200
G1 X127.386 Y116.303 E.71679
G1 X128.335 Y116.487 E.02907
G1 X129.243 Y116.878 E.02977
G1 X130.462 Y117.902 E.04791
G1 X131.253 Y119.119 E.0437
G1 X131.614 Y120.506 E.04313
G1 X131.565 Y130.834 E.31089
G1 X131.299 Y131.774 E.0294
G1 X130.814 Y132.666 E.03057
G1 X129.963 Y133.592 E.03786
G1 X129.165 Y134.165 E.02956
G1 X127.427 Y134.7 E.05474
G1 X103.652 Y134.7 E.71563
G1 X102.561 Y134.478 E.03352
G1 X101.542 Y133.983 E.0341
G1 X100.504 Y133.059 E.04181
G1 X99.923 Y132.252 E.02995
G1 X99.387 Y130.513 E.05476
G1 X99.392 Y120.459 E.30264
G1 X99.685 Y119.282 E.03652
G1 X100.094 Y118.465 E.0275
G1 X101.017 Y117.427 E.0418
G1 X101.83 Y116.839 E.03022
G1 X103.516 Y116.318 E.0531
G1 X103.601 Y116.677 F9000
G1 F1200
G1 X127.368 Y116.68 E.71538
G1 X128.241 Y116.853 E.02679
G1 X129.067 Y117.212 E.0271
G1 X130.197 Y118.171 E.04462
G1 X130.896 Y119.245 E.03858
G1 X131.237 Y120.529 E.03999
G1 X131.196 Y130.756 E.30782
G1 X130.942 Y131.65 E.02797
G1 X130.495 Y132.463 E.02794
G1 X129.7 Y133.321 E.0352
G1 X128.971 Y133.84 E.02692
G1 X127.399 Y134.323 E.04952
G1 X103.672 Y134.323 E.7142
G1 X102.662 Y134.113 E.03105
G1 X101.732 Y133.656 E.03117
G1 X100.772 Y132.793 E.03886
G1 X100.247 Y132.058 E.02719
G1 X99.764 Y130.485 E.04953
G1 X99.764 Y120.528 E.29973
G1 X100.045 Y119.394 E.03517
G1 X100.418 Y118.658 E.02482
G1 X101.283 Y117.695 E.03896
G1 X102.025 Y117.163 E.02747
G1 X103.544 Y116.695 E.04785
G1 X103.629 Y117.054 F9000
G1 F1200
G1 X127.348 Y117.058 E.71396
G1 X128.146 Y117.218 E.02448
G1 X128.888 Y117.546 E.02443
G1 X129.93 Y118.439 E.0413
G1 X130.563 Y119.423 E.03523
G1 X130.859 Y120.553 E.03514
G1 X130.826 Y130.68 E.30483
G1 X130.601 Y131.488 E.02524
G1 X130.176 Y132.261 E.02655
G1 X129.439 Y133.049 E.03249
G1 X128.779 Y133.514 E.02429
G1 X127.371 Y133.946 E.04433
G1 X103.692 Y133.946 E.71275
G1 X102.764 Y133.75 E.02854
G1 X101.925 Y133.331 E.02823
G1 X101.041 Y132.529 E.03591
G1 X100.573 Y131.865 E.02445
G1 X100.141 Y130.457 E.04434
G1 X100.141 Y120.551 E.29816
G1 X100.405 Y119.508 E.0324
G1 X100.742 Y118.853 E.02216
G1 X101.548 Y117.964 E.03613
G1 X102.218 Y117.488 E.02473
G1 X103.572 Y117.072 E.04263
G1 X103.657 Y117.432 F9000
G1 F1200
G1 X127.329 Y117.435 E.71252
G1 X128.048 Y117.583 E.02212
G1 X128.708 Y117.878 E.02175
G1 X129.662 Y118.706 E.03802
G1 X130.206 Y119.55 E.03023
G1 X130.482 Y120.577 E.03201
G1 X130.455 Y130.605 E.30184
G1 X130.258 Y131.328 E.02256
G1 X129.884 Y132.021 E.02371
G1 X129.177 Y132.777 E.03114
G1 X128.588 Y133.188 E.02162
G1 X127.343 Y133.569 E.03919
G1 X103.711 Y133.568 E.71133
G1 X102.91 Y133.401 E.02462
G1 X102.117 Y133.006 E.02668
G1 X101.312 Y132.266 E.0329
G1 X100.899 Y131.674 E.02173
G1 X100.518 Y130.429 E.03919
G1 X100.518 Y120.576 E.29658
G1 X100.765 Y119.624 E.02959
G1 X101.064 Y119.05 E.01949
G1 X101.812 Y118.234 E.03331
G1 X102.41 Y117.814 E.02201
G1 X103.6 Y117.449 E.03746
G1 X103.685 Y117.809 F9000
G1 F1200
G1 X127.31 Y117.812 E.7111
G1 X127.913 Y117.936 E.01855
G1 X128.528 Y118.211 E.02026
G1 X129.392 Y118.97 E.03464
G1 X129.872 Y119.727 E.02697
G1 X130.105 Y120.601 E.02723
G1 X130.084 Y130.533 E.29894
G1 X129.916 Y131.169 E.01982
G1 X129.564 Y131.82 E.02226
G1 X128.918 Y132.503 E.02831
G1 X128.398 Y132.861 E.01899
G1 X127.315 Y133.192 E.03409
G1 X103.731 Y133.191 E.70988
G1 X103.014 Y133.038 E.02207
G1 X102.312 Y132.682 E.02368
G1 X101.585 Y132.005 E.02992
G1 X101.226 Y131.484 E.01903
G1 X100.895 Y130.401 E.03409
G1 X100.895 Y120.601 E.29499
G1 X101.123 Y119.743 E.02672
G1 X101.385 Y119.25 E.01682
G1 X102.073 Y118.506 E.0305
G1 X102.6 Y118.141 E.0193
G1 X103.628 Y117.826 E.03234
G1 X103.713 Y118.186 F9000
G1 F1200
G1 X127.289 Y118.189 E.70965
G1 X127.814 Y118.3 E.01614
G1 X128.345 Y118.541 E.01756
G1 X129.122 Y119.234 E.03133
G1 X129.516 Y119.855 E.02214
G1 X129.728 Y120.627 E.0241
G1 X129.713 Y130.463 E.29607
G1 X129.573 Y131.011 E.01703
G1 X129.245 Y131.617 E.02075
G1 X128.66 Y132.227 E.02542
G1 X128.21 Y132.533 E.01639
G1 X127.287 Y132.815 E.02905
G1 X103.752 Y132.814 E.7084
G1 X103.12 Y132.675 E.01947
G1 X102.51 Y132.36 E.02067
G1 X101.86 Y131.746 E.02693
G1 X101.554 Y131.296 E.01636
G1 X101.272 Y130.373 E.02905
G1 X101.272 Y120.627 E.29336
G1 X101.48 Y119.865 E.02378
G1 X101.704 Y119.452 E.01415
G1 X102.334 Y118.78 E.02772
G1 X102.789 Y118.468 E.0166
G1 X103.656 Y118.203 E.02728
G1 X103.741 Y118.563 F9000
G1 F1200
G1 X127.268 Y118.566 E.70817
G1 X127.711 Y118.664 E.01366
G1 X128.159 Y118.871 E.01486
G1 X128.85 Y119.496 E.02803
G1 X129.162 Y119.985 E.01745
G1 X129.351 Y120.653 E.02092
G1 X129.342 Y130.395 E.29324
G1 X129.228 Y130.857 E.01431
G1 X128.954 Y131.376 E.01767
G1 X128.402 Y131.95 E.02396
G1 X128.024 Y132.204 E.01372
G1 X127.259 Y132.438 E.02407
G1 X103.774 Y132.437 E.70691
G1 X103.229 Y132.314 E.01681
G1 X102.711 Y132.04 E.01765
G1 X102.136 Y131.489 E.02396
G1 X101.883 Y131.11 E.01372
G1 X101.649 Y130.345 E.02407
G1 X101.649 Y120.654 E.29171
G1 X101.837 Y119.99 E.02076
G1 X102.022 Y119.657 E.01148
G1 X102.592 Y119.055 E.02495
G1 X102.976 Y118.797 E.01392
G1 X103.684 Y118.58 E.02228
G1 X103.769 Y118.94 F9000
G1 F1200
G1 X127.246 Y118.943 E.70665
G1 X127.605 Y119.026 E.01111
G1 X127.971 Y119.199 E.01218
G1 X128.576 Y119.756 E.02477
G1 X128.808 Y120.118 E.01293
G1 X128.974 Y120.681 E.01768
G1 X128.97 Y130.332 E.29048
G1 X128.883 Y130.703 E.01148
G1 X128.633 Y131.175 E.01606
G1 X128.148 Y131.671 E.02089
G1 X127.84 Y131.874 E.01112
G1 X127.231 Y132.061 E.01917
G1 X103.794 Y132.06 E.70544
G1 X103.383 Y131.968 E.01269
G1 X102.912 Y131.72 E.01603
G1 X102.416 Y131.235 E.02089
G1 X102.213 Y130.926 E.01112
G1 X102.026 Y130.317 E.01917
G1 X102.026 Y120.682 E.29002
G1 X102.191 Y120.12 E.01764
G1 X102.337 Y119.865 E.00882
G1 X102.848 Y119.332 E.02223
G1 X103.16 Y119.127 E.01125
G1 X103.712 Y118.957 E.01737
G1 X103.798 Y119.317 F9000
G1 F1200
G1 X127.224 Y119.32 E.70514
G1 X127.462 Y119.375 E.00736
G1 X127.782 Y119.527 E.01065
G1 X128.301 Y120.015 E.02143
G1 X128.456 Y120.255 E.00862
G1 X128.597 Y120.711 E.01435
G1 X128.597 Y130.273 E.28782
G1 X128.536 Y130.551 E.00857
G1 X128.314 Y130.973 E.01436
G1 X127.898 Y131.389 E.01771
G1 X127.658 Y131.543 E.00857
G1 X127.202 Y131.684 E.01436
G1 X103.814 Y131.683 E.704
G1 X103.536 Y131.623 E.00857
G1 X103.114 Y131.4 E.01436
G1 X102.698 Y130.984 E.01771
G1 X102.544 Y130.744 E.00857
G1 X102.403 Y130.289 E.01436
G1 X102.403 Y120.711 E.28827
G1 X102.544 Y120.254 E.0144
G1 X102.648 Y120.078 E.00618
G1 X103.102 Y119.612 E.01957
G1 X103.342 Y119.458 E.00858
G1 X103.74 Y119.335 E.01255
G1 X103.829 Y119.694 F9000
G1 F1200
G1 X127.202 Y119.697 E.70352
G1 X127.319 Y119.725 E.00362
G1 X127.592 Y119.854 E.0091
G1 X128.023 Y120.27 E.01805
G1 X128.107 Y120.398 E.0046
G1 X128.22 Y120.743 E.01091
G1 X128.22 Y130.254 E.2863
G1 X128.188 Y130.405 E.00465
G1 X128.025 Y130.729 E.01091
G1 X127.644 Y131.109 E.01619
G1 X127.515 Y131.193 E.00465
G1 X127.171 Y131.307 E.01091
G1 X103.833 Y131.306 E.70248
G1 X103.682 Y131.274 E.00465
G1 X103.358 Y131.111 E.01091
G1 X102.978 Y130.73 E.01619
G1 X102.893 Y130.601 E.00465
G1 X102.78 Y130.257 E.01091
G1 X102.78 Y120.743 E.28637
G1 X102.894 Y120.397 E.01098
G1 X102.956 Y120.296 E.00356
G1 X103.356 Y119.891 E.01713
G1 X103.485 Y119.807 E.00463
G1 X103.772 Y119.713 E.0091
G1 X103.864 Y120.071 F9000
G1 F1200
G1 X127.182 Y120.077 E.70185
G1 X127.4 Y120.18 E.00727
G1 X127.743 Y120.523 E.01461
G1 X127.843 Y120.778 E.00822
G1 X127.836 Y130.268 E.28567
G1 X127.733 Y130.487 E.00727
G1 X127.39 Y130.83 E.01461
G1 X127.136 Y130.929 E.00822
G1 X103.818 Y130.923 E.70185
G1 X103.6 Y130.819 E.00727
G1 X103.257 Y130.476 E.01461
G1 X103.157 Y130.222 E.00822
G1 X103.157 Y120.778 E.28425
G1 X103.257 Y120.524 E.00822
G1 X103.61 Y120.171 E.01504
G1 X103.808 Y120.091 E.00642
G1 X103.906 Y120.448 F9000
G1 F1200
G1 X127.094 Y120.448 E.69794
G1 X127.163 Y120.476 E.00226
G1 X127.437 Y120.75 E.01166
G1 X127.466 Y120.82 E.00226
G1 X127.466 Y130.18 E.28176
G1 X127.437 Y130.25 E.00226
G1 X127.163 Y130.524 E.01166
G1 X127.094 Y130.552 E.00226
G1 X103.906 Y130.552 E.69794
G1 X103.837 Y130.523 E.00226
G1 X103.563 Y130.249 E.01166
G1 X103.534 Y130.18 E.00226
G1 X103.534 Y120.82 E.28173
G1 X103.563 Y120.751 E.00226
G1 X103.851 Y120.471 E.01208
G1 X104.022 Y120.825 F9000
G1 F1200
G1 X126.978 Y120.825 E.69098
G1 X127.089 Y120.935 E.0047
G1 X127.089 Y130.065 E.27481
G1 X126.978 Y130.175 E.0047
G1 X104.022 Y130.175 E.69098
G1 X103.911 Y130.064 E.0047
G1 X103.911 Y120.936 E.27477
G1 X103.979 Y120.868 E.0029
G1 E-3.5 F3600
;WIPE_START
G1 F7200
G1 X106.979 Y120.862 E-1.425
;WIPE_END
G1 E-.075 F3600
G1 X113.81 Y115.703 F9000
G1 E5 F2400
;TYPE:Support material
G1 F1200
G1 X103.98 Y115.704 E.29588
G1 X102.119 Y116.051 E.05699
G1 X100.951 Y116.798 E.04175
G1 X100.951 Y96.311 E.61668
G1 X113.81 Y96.311 E.38707
G1 X113.81 Y115.647 E.58201
G1 X113.405 Y115.534 F9000
G1 F1200
G1 X113.405 Y96.65 E.56839
G1 X112.986 Y96.65 E.01261
G1 X112.986 Y115.364 E.56329
G1 X112.567 Y115.364 E.01261
G1 X112.567 Y96.65 E.56329
G1 X112.148 Y96.65 E.01261
G1 X112.148 Y115.364 E.56329
G1 X111.729 Y115.364 E.01261
G1 X111.729 Y96.65 E.56329
G1 X111.31 Y96.65 E.01261
G1 X111.31 Y115.364 E.56329
G1 X110.891 Y115.364 E.01261
G1 X110.891 Y96.65 E.56329
G1 X110.472 Y96.65 E.01261
G1 X110.472 Y115.364 E.56329
G1 X110.053 Y115.364 E.01261
G1 X110.053 Y96.65 E.56329
G1 X109.634 Y96.65 E.01261
G1 X109.634 Y115.364 E.56329
G1 X109.215 Y115.364 E.01261
G1 X109.215 Y96.65 E.56329
G1 X108.796 Y96.65 E.01261
G1 X108.796 Y115.364 E.56329
G1 X108.377 Y115.364 E.01261
G1 X108.377 Y96.65 E.56329
G1 X107.958 Y96.65 E.01261
G1 X107.958 Y115.364 E.5633
G1 X107.539 Y115.364 E.01261
G1 X107.539 Y96.65 E.5633
G1 X107.12 Y96.65 E.01261
G1 X107.12 Y115.364 E.5633
G1 X106.701 Y115.364 E.01261
G1 X106.701 Y96.65 E.5633
G1 X106.283 Y96.65 E.01261
G1 X106.283 Y115.364 E.5633
G1 X105.864 Y115.364 E.01261
G1 X105.864 Y96.65 E.5633
G1 X105.445 Y96.65 E.01261
G1 X105.445 Y115.364 E.5633
G1 X105.026 Y115.364 E.01261
G1 X105.026 Y96.65 E.5633
G1 X104.607 Y96.65 E.01261
G1 X104.607 Y115.364 E.5633
G1 X104.188 Y115.364 E.01261
G1 X104.188 Y96.65 E.5633
G1 X103.769 Y96.65 E.01261
G1 X103.769 Y115.398 E.56431
G1 X103.35 Y115.476 E.01283
G1 X103.35 Y96.65 E.56667
G1 X102.931 Y96.65 E.01261
G1 X102.931 Y115.554 E.56902
G1 X102.512 Y115.633 E.01283
G1 X102.512 Y96.65 E.57137
G1 X102.093 Y96.65 E.01261
G1 X102.093 Y115.711 E.57372
G1 X101.992 Y115.73 E.0031
G1 X101.674 Y115.933 E.01136
G1 X101.674 Y96.48 E.58552
G1 E-3.5 F3600
;WIPE_START
G1 F7200
G1 X101.674 Y99.48 E-1.425
;WIPE_END
G1 E-.075 F3600
G1 X105.087 Y121.601 F9000
G1 E5 F2400
;TYPE:Perimeter
G1 F1200
G1 X126.313 Y121.6 E.6389
G1 X126.313 Y129.4 E.23476
G1 X104.687 Y129.399 E.65094
G1 X104.687 Y121.601 E.23473
G1 X105.027 Y121.601 E.01023
G1 X104.31 Y121.224 F9000
;TYPE:External perimeter
G1 F1200
G1 X126.69 Y121.223 E.67364
G1 X126.69 Y129.777 E.25746
G1 X104.31 Y129.776 E.67364
G1 X104.31 Y121.284 E.25562
G1 X104.707 Y121.272 F9000
G1 E-3.5 F3600
;WIPE_START
G1 F7200
G1 X107.31 Y121.276 E-1.425
;WIPE_END
G1 E-.075 F3600
G1 X126.2 Y122.483 F9000
G1 E5 F2400
;TYPE:Solid infill
;WIDTH:0.423286
G1 F1200
G1 X125.6 Y121.883 E.02574
G1 X125.062 Y121.883 E.01633
G1 X126.03 Y122.851 E.04155
G1 X126.03 Y123.389 E.01633
G1 X124.524 Y121.883 E.06465
G1 X123.987 Y121.883 E.01633
G1 X126.03 Y123.927 E.08775
G1 X126.03 Y124.465 E.01633
G1 X123.449 Y121.883 E.11085
G1 X122.911 Y121.883 E.01633
G1 X126.03 Y125.003 E.13394
G1 X126.03 Y125.54 E.01633
G1 X122.373 Y121.883 E.15704
G1 X121.835 Y121.883 E.01633
G1 X126.03 Y126.078 E.18014
G1 X126.03 Y126.616 E.01633
G1 X121.297 Y121.883 E.20323
G1 X120.759 Y121.883 E.01633
G1 X126.03 Y127.154 E.22633
G1 X126.03 Y127.692 E.01633
G1 X120.221 Y121.883 E.24943
G1 X119.683 Y121.883 E.01633
G1 X126.03 Y128.23 E.27253
G1 X126.03 Y128.768 E.01633
G1 X119.145 Y121.883 E.29562
G1 X118.608 Y121.883 E.01633
G1 X125.841 Y129.117 E.3106
G1 X125.303 Y129.117 E.01633
G1 X118.07 Y121.883 E.3106
G1 X117.532 Y121.883 E.01633
G1 X124.765 Y129.117 E.3106
G1 X124.227 Y129.117 E.01633
G1 X116.994 Y121.883 E.3106
G1 X116.456 Y121.883 E.01633
G1 X123.689 Y129.117 E.3106
G1 X123.151 Y129.117 E.01633
G1 X115.918 Y121.883 E.3106
G1 X115.38 Y121.883 E.01633
G1 X122.614 Y129.117 E.3106
G1 X122.076 Y129.117 E.01633
G1 X114.842 Y121.883 E.3106
G1 X114.304 Y121.883 E.01633
G1 X121.538 Y129.117 E.31059
G1 X121 Y129.117 E.01633
G1 X113.766 Y121.883 E.31059
G1 X113.228 Y121.883 E.01633
G1 X120.462 Y129.117 E.31059
G1 X119.924 Y129.117 E.01633
G1 X112.691 Y121.883 E.31059
G1 X112.153 Y121.883 E.01633
G1 X119.386 Y129.117 E.31059
G1 X118.848 Y129.117 E.01633
G1 X111.615 Y121.883 E.31059
G1 X111.077 Y121.883 E.01633
G1 X118.31 Y129.117 E.31059
G1 X117.772 Y129.117 E.01633
G1 X110.539 Y121.883 E.31059
G1 X110.001 Y121.883 E.01633
G1 X117.234 Y129.117 E.31058
G1 X116.696 Y129.117 E.01633
G1 X109.463 Y121.884 E.31058
G1 X108.925 Y121.884 E.01633
G1 X116.158 Y129.117 E.31058
G1 X115.62 Y129.117 E.01633
G1 X108.387 Y121.884 E.31058
G1 X107.849 Y121.884 E.01633
G1 X115.082 Y129.117 E.31058
G1 X114.545 Y129.117 E.01633
G1 X107.312 Y121.884 E.31058
G1 X106.774 Y121.884 E.01633
G1 X114.007 Y129.117 E.31058
G1 X113.469 Y129.117 E.01633
G1 X106.236 Y121.884 E.31058
G1 X105.698 Y121.884 E.01633
G1 X112.931 Y129.117 E.31058
G1 X112.393 Y129.117 E.01633
G1 X105.16 Y121.884 E.31057
G1 X104.97 Y121.884 E.00577
G1 X104.97 Y122.232 E.01056
G1 X111.855 Y129.117 E.29563
G1 X111.317 Y129.117 E.01633
G1 X104.97 Y122.769 E.27254
G1 X104.97 Y123.307 E.01633
G1 X110.779 Y129.116 E.24944
G1 X110.241 Y129.116 E.01633
G1 X104.97 Y123.845 E.22634
G1 X104.97 Y124.383 E.01633
G1 X109.703 Y129.116 E.20324
