; generated by PrusaSlicer 2.4.2 on 2022-08-26 at 15:41:21 UTC

; 

; external perimeters extrusion width = 0.45mm
; perimeters extrusion width = 0.45mm
; infill extrusion width = 0.45mm
; solid infill extrusion width = 0.45mm
; top infill extrusion width = 0.45mm
; support material extrusion width = 0.38mm
; first layer extrusion width = 0.42mm

M107
;TYPE:Custom
G90 ; use absolute coordinates
M83 ; extruder relative mode
M140 S50 ; set final bed temp
M104 S150 ; set temporary nozzle temp to prevent oozing during homing and auto bed leveling
G4 S10 ; allow partial nozzle warmup
G28 ; home all axis
G29 ; auto bed levelling
G1 Z30 F240
G1 X2 Y10 F3000
M104 S210 ; set final nozzle temp
M190 S50 ; wait for bed temp to stabilize
M109 S210 ; wait for nozzle temp to stabilize
G1 Z0.28 F240
G92 E0
G1 Y100 E11 F1500 ; prime the nozzle
G1 X2.3 F5000
G92 E0
G1 Y10 E11 F1000 ; prime the nozzle
G92 E0
G21 ; set units to millimeters
G90 ; use absolute coordinates
M83 ; use relative distances for extrusion
; Filament gcode
M107
;LAYER_CHANGE
;Z:0.2
;HEIGHT:0.2
;BEFORE_LAYER_CHANGE
G92 E0
;0.2


G1 E-5 F3600
G1 Z.2 F9000
;AFTER_LAYER_CHANGE
;0.2
G1 X93.572 Y65.501
G1 E5 F2400
M204 S500
;TYPE:Skirt/Brim
;WIDTH:0.42
G1 F900
G1 X107.464 Y45.656 E.75951
G1 X108.694 Y44.585 E.05115
G1 X110.23 Y44.216 E.04953
G1 X137.009 Y44.216 E.83963
G1 X138.592 Y44.61 E.05115
G1 X139.397 Y45.205 E.03138
G1 X141.717 Y47.525 E.10287
G1 X142.558 Y48.923 E.05115
G1 X142.706 Y49.913 E.03138
G1 X142.705 Y109.276 E1.86129
G1 X140.385 Y183.513 E2.32879
G1 X139.941 Y185.083 E.05115
G1 X138.814 Y186.262 E.05115
G1 X137.009 Y186.784 E.0589
G1 X93.991 Y186.784 E1.34881
G1 X92.408 Y186.39 E.05115
G1 X91.194 Y185.3 E.05115
G1 X90.614 Y183.407 E.06207
G1 X90.614 Y70.792 E3.53098
G1 X91.224 Y68.855 E.06367
G1 X93.538 Y65.55 E.1265
; printing object Transmitter Case V2-Transmitter Case001.stl id:0 copy 0
G1 E-3.5 F3600
;WIPE_START
G1 F7200
G1 X95.258 Y63.092 E-1.425
;WIPE_END
G1 E-.075 F3600
G1 X125.41 Y91.671 F9000
G1 E5 F2400
;TYPE:Support material
G1 F900
G1 X127.73 Y91.671 E.07274
G1 X127.73 Y100.951 E.29096
G1 X128.79 Y100.951 E.03324
G1 X128.79 Y93.991 E.21822
G1 X139.329 Y93.991 E.33046
G1 X139.329 Y109.17 E.47594
G1 X134.689 Y109.17 E.14548
G1 X134.689 Y168.228 E1.85172
G1 X137.009 Y168.228 E.07274
G1 X137.009 Y183.407 E.47594
G1 X121.83 Y183.407 E.47594
G1 X121.83 Y176.448 E.21822
G1 X106.85 Y176.448 E.46967
G1 X106.85 Y183.407 E.21822
G1 X93.991 Y183.407 E.4032
G1 X93.991 Y156.628 E.83963
G1 X110.23 Y156.628 E.50917
G1 X110.23 Y146.289 E.32419
G1 X109.17 Y146.289 E.03324
G1 X109.17 Y148.609 E.07274
G1 X93.991 Y148.609 E.47594
G1 X93.991 Y128.79 E.62142
G1 X110.23 Y128.79 E.50917
G1 X110.23 Y116.13 E.39693
G1 X93.991 Y116.13 E.50917
G1 X93.991 Y96.311 E.62142
G1 X104.53 Y96.311 E.33046
G1 X104.53 Y98.631 E.07274
G1 X107.91 Y98.631 E.10598
G1 X107.91 Y96.311 E.07274
G1 X110.23 Y96.311 E.07274
G1 X110.23 Y91.671 E.14548
G1 X112.55 Y91.671 E.07274
G1 X112.55 Y89.351 E.07274
G1 X125.41 Y89.351 E.4032
G1 X125.41 Y91.614 E.07097
G1 X124.41 Y104.02 F9000
G1 F900
G1 X121.189 Y104.02 E.10099
G1 X120.907 Y104.301 E.01247
G1 X120.907 Y106.85 E.07993
G1 X120.45 Y106.85 E.01434
G1 X120.45 Y170.868 E2.00723
G1 X120.907 Y170.868 E.01435
G1 X120.907 Y172.699 E.05741
G1 X121.189 Y172.98 E.01247
G1 X124.41 Y172.98 E.10099
G1 X124.41 Y173.868 E.02784
G1 X127.47 Y173.868 E.09595
G1 X127.47 Y103.53 E2.20538
G1 X124.41 Y103.53 E.09595
G1 X124.41 Y103.963 E.01358
G1 E-3.5 F3600
;WIPE_START
G1 F7200
G1 X124.41 Y103.53 E-.2057
G1 X126.977 Y103.53 E-1.2193
;WIPE_END
G1 E-.075 F3600
G1 X117.45 Y173.868 F9000
G1 E5 F2400
G1 F900
G1 X120.51 Y173.868 E.09595
G1 X120.51 Y172.56 E.04101
G1 X120.058 Y172.56 E.01418
G1 X120.023 Y172.525 E.00156
G1 X120.023 Y113.152 E1.8616
G1 X120.023 Y104.475 E.27205
G1 X120.058 Y104.44 E.00156
G1 X120.51 Y104.44 E.01418
G1 X120.51 Y103.53 E.02852
G1 X117.45 Y103.53 E.09595
G1 X117.45 Y173.811 E2.20361
G1 E-3.5 F3600
;WIPE_START
G1 F7200
G1 X117.45 Y170.811 E-1.425
;WIPE_END
G1 E-.075 F3600
G1 X138.125 Y109.001 F9000
G1 E5 F2400
G1 F900
G1 X138.125 Y94.33 E.45998
G1 X137.182 Y94.33 E.02956
G1 X137.182 Y108.831 E.45466
G1 X136.239 Y108.831 E.02956
G1 X136.239 Y94.33 E.45466
G1 X135.297 Y94.33 E.02956
G1 X135.297 Y109.001 E.45998
G1 E-3.5 F3600
;WIPE_START
G1 F7200
G1 X135.297 Y106.001 E-1.425
;WIPE_END
G1 E-.075 F3600
G1 X136.239 Y183.238 F9000
G1 E5 F2400
G1 F900
G1 X136.239 Y168.567 E.45998
G1 X135.297 Y168.567 E.02956
G1 X135.297 Y183.068 E.45466
G1 X134.354 Y183.068 E.02956
G1 X134.354 Y94.33 E2.78231
G1 X133.411 Y94.33 E.02956
G1 X133.411 Y183.068 E2.78231
G1 X132.469 Y183.068 E.02956
G1 X132.469 Y94.33 E2.78231
G1 X131.526 Y94.33 E.02956
G1 X131.526 Y183.068 E2.78231
G1 X130.583 Y183.068 E.02956
G1 X130.583 Y94.33 E2.78231
G1 X129.64 Y94.33 E.02956
G1 X129.64 Y183.068 E2.78231
G1 X128.698 Y183.068 E.02956
G1 X128.698 Y101.29 E2.56409
G1 X127.755 Y101.29 E.02956
G1 X127.755 Y183.068 E2.56409
G1 X126.812 Y183.068 E.02956
G1 X126.812 Y174.207 E.27782
G1 X125.87 Y174.207 E.02956
G1 X125.87 Y183.068 E.27782
G1 X124.927 Y183.068 E.02956
G1 X124.927 Y174.207 E.27782
G1 X124.07 Y174.207 E.02686
G1 X124.07 Y173.319 E.02784
G1 X123.984 Y173.319 E.00269
G1 X123.984 Y183.068 E.30566
G1 X123.042 Y183.068 E.02956
G1 X123.042 Y173.319 E.30566
G1 X122.099 Y173.319 E.02956
G1 X122.099 Y176.108 E.08744
G1 X121.156 Y176.108 E.02956
G1 X121.156 Y173.319 E.08744
G1 X121.048 Y173.319 E.00339
G1 X120.849 Y173.121 E.00881
G1 X120.849 Y174.207 E.03407
G1 X120.213 Y174.207 E.01993
G1 X120.213 Y176.108 E.05961
G1 X119.271 Y176.108 E.02956
G1 X119.271 Y174.207 E.05961
G1 X118.328 Y174.207 E.02956
G1 X118.328 Y176.108 E.05961
G1 X117.385 Y176.108 E.02956
G1 X117.385 Y174.207 E.05961
G1 X117.11 Y174.207 E.00862
G1 X117.11 Y103.191 E2.22666
G1 X117.385 Y103.191 E.00862
G1 X117.385 Y89.69 E.4233
G1 X118.328 Y89.69 E.02956
G1 X118.328 Y103.191 E.4233
G1 X119.271 Y103.191 E.02956
G1 X119.271 Y89.69 E.4233
G1 X120.213 Y89.69 E.02956
G1 X120.213 Y103.191 E.4233
G1 X120.849 Y103.191 E.01993
G1 X120.849 Y103.879 E.02158
G1 X121.048 Y103.681 E.00881
G1 X121.156 Y103.681 E.00339
G1 X121.156 Y89.69 E.43865
G1 X122.099 Y89.69 E.02956
G1 X122.099 Y103.681 E.43865
G1 X123.042 Y103.681 E.02956
G1 X123.042 Y89.69 E.43865
G1 X123.984 Y89.69 E.02956
G1 X123.984 Y103.681 E.43865
G1 X124.07 Y103.681 E.00269
G1 X124.07 Y103.191 E.01535
G1 X124.927 Y103.191 E.02686
G1 X124.927 Y89.69 E.4233
G1 X125.07 Y89.69 E.00449
G1 X125.07 Y92.01 E.07274
G1 X125.87 Y92.01 E.02507
G1 X125.87 Y103.191 E.35056
G1 X126.812 Y103.191 E.02956
G1 X126.812 Y91.841 E.35588
G1 E-3.5 F3600
;WIPE_START
G1 F7200
G1 X126.812 Y94.841 E-1.425
;WIPE_END
G1 E-.075 F3600
G1 X116.443 Y176.278 F9000
G1 E5 F2400
G1 F900
G1 X116.443 Y89.69 E2.71489
G1 X115.5 Y89.69 E.02956
G1 X115.5 Y176.108 E2.70957
G1 X114.557 Y176.108 E.02956
G1 X114.557 Y89.69 E2.70957
G1 X113.615 Y89.69 E.02956
G1 X113.615 Y176.108 E2.70957
G1 X112.672 Y176.108 E.02956
G1 X112.672 Y92.01 E2.63683
G1 X111.729 Y92.01 E.02956
G1 X111.729 Y176.108 E2.63683
G1 X110.787 Y176.108 E.02956
G1 X110.787 Y92.01 E2.63683
G1 X110.57 Y92.01 E.0068
G1 X110.57 Y96.65 E.14548
G1 X109.844 Y96.65 E.02276
G1 X109.844 Y115.791 E.60014
G1 X108.901 Y115.791 E.02956
G1 X108.901 Y96.65 E.60014
G1 X108.25 Y96.65 E.02042
G1 X108.25 Y98.97 E.07274
G1 X107.958 Y98.97 E.00913
G1 X107.958 Y115.791 E.5274
G1 X107.016 Y115.791 E.02956
G1 X107.016 Y98.97 E.5274
G1 X106.073 Y98.97 E.02956
G1 X106.073 Y115.791 E.5274
G1 X105.13 Y115.791 E.02956
G1 X105.13 Y98.97 E.5274
G1 X104.191 Y98.97 E.02945
G1 X104.191 Y96.65 E.07274
G1 X104.188 Y115.791 E.60014
G1 X103.245 Y115.791 E.02956
G1 X103.245 Y96.65 E.60014
G1 X102.302 Y96.65 E.02956
G1 X102.302 Y115.791 E.60014
G1 X101.36 Y115.791 E.02956
G1 X101.36 Y96.65 E.60014
G1 X100.417 Y96.65 E.02956
G1 X100.417 Y115.791 E.60014
G1 X99.474 Y115.791 E.02956
G1 X99.474 Y96.65 E.60014
G1 X98.531 Y96.65 E.02956
G1 X98.531 Y115.791 E.60014
G1 X97.589 Y115.791 E.02956
G1 X97.589 Y96.65 E.60014
G1 X96.646 Y96.65 E.02956
G1 X96.646 Y115.791 E.60014
G1 X95.703 Y115.791 E.02956
G1 X95.703 Y96.65 E.60014
G1 X94.761 Y96.65 E.02956
G1 X94.761 Y115.96 E.60546
G1 E-3.5 F3600
;WIPE_START
G1 F7200
G1 X94.761 Y112.96 E-1.425
;WIPE_END
G1 E-.075 F3600
G1 X109.844 Y176.278 F9000
G1 E5 F2400
G1 F900
G1 X109.844 Y156.968 E.60546
G1 X108.901 Y156.968 E.02956
G1 X108.901 Y176.108 E.60014
G1 X107.958 Y176.108 E.02956
G1 X107.958 Y156.968 E.60014
G1 X107.016 Y156.968 E.02956
G1 X107.016 Y176.108 E.60014
G1 X106.511 Y176.108 E.01583
G1 X106.511 Y183.068 E.21822
G1 X106.073 Y183.068 E.01373
G1 X106.073 Y156.968 E.81835
G1 X105.13 Y156.968 E.02956
G1 X105.13 Y183.068 E.81835
G1 X104.188 Y183.068 E.02956
G1 X104.188 Y156.968 E.81835
G1 X103.245 Y156.968 E.02956
G1 X103.245 Y183.068 E.81835
G1 X102.302 Y183.068 E.02956
G1 X102.302 Y156.968 E.81835
G1 X101.36 Y156.968 E.02956
G1 X101.36 Y183.068 E.81835
G1 X100.417 Y183.068 E.02956
G1 X100.417 Y156.968 E.81835
G1 X99.474 Y156.968 E.02956
G1 X99.474 Y183.068 E.81835
G1 X98.531 Y183.068 E.02956
G1 X98.531 Y156.968 E.81835
G1 X97.589 Y156.968 E.02956
G1 X97.589 Y183.068 E.81835
G1 X96.646 Y183.068 E.02956
G1 X96.646 Y156.968 E.81835
G1 X95.703 Y156.968 E.02956
G1 X95.703 Y183.068 E.81835
G1 X94.761 Y183.068 E.02956
G1 X94.761 Y156.798 E.82367
G1 E-3.5 F3600
;WIPE_START
G1 F7200
G1 X94.761 Y159.798 E-1.425
;WIPE_END
G1 E-.075 F3600
G1 X109.844 Y146.119 F9000
G1 E5 F2400
G1 F900
G1 X109.844 Y129.129 E.53272
G1 X108.901 Y129.129 E.02956
G1 X108.901 Y145.949 E.5274
G1 X108.831 Y145.949 E.0022
G1 X108.831 Y148.269 E.07274
G1 X107.958 Y148.269 E.02735
G1 X107.958 Y129.129 E.60014
G1 X107.016 Y129.129 E.02956
G1 X107.016 Y148.269 E.60014
G1 X106.073 Y148.269 E.02956
G1 X106.073 Y129.129 E.60014
G1 X105.13 Y129.129 E.02956
G1 X105.13 Y148.269 E.60014
G1 X104.188 Y148.269 E.02956
G1 X104.188 Y129.129 E.60014
G1 X103.245 Y129.129 E.02956
G1 X103.245 Y148.269 E.60014
G1 X102.302 Y148.269 E.02956
G1 X102.302 Y129.129 E.60014
G1 X101.36 Y129.129 E.02956
G1 X101.36 Y148.269 E.60014
G1 X100.417 Y148.269 E.02956
G1 X100.417 Y129.129 E.60014
G1 X99.474 Y129.129 E.02956
G1 X99.474 Y148.269 E.60014
G1 X98.531 Y148.269 E.02956
G1 X98.531 Y129.129 E.60014
G1 X97.589 Y129.129 E.02956
G1 X97.589 Y148.269 E.60014
G1 X96.646 Y148.269 E.02956
G1 X96.646 Y129.129 E.60014
G1 X95.703 Y129.129 E.02956
G1 X95.703 Y148.269 E.60014
G1 X94.761 Y148.269 E.02956
G1 X94.761 Y128.959 E.60546
G1 E-3.5 F3600
;WIPE_START
G1 F7200
G1 X94.761 Y131.959 E-1.425
;WIPE_END
G1 E-.075 F3600
G1 X119.772 Y104.202 F9000
G1 E5 F2400
;TYPE:Support material interface
;WIDTH:0.38
G1 F900
G1 X119.904 Y104.07 E.00523
G1 X120.14 Y104.07 E.0066
G1 X120.14 Y103.9 E.00475
G1 X119.659 Y103.9 E.01347
G1 X119.652 Y104.322 E.01181
G1 X119.659 Y173.498 E1.93888
G1 X119.139 Y173.498 E.01457
G1 X119.139 Y103.9 E1.95069
G1 X118.619 Y103.9 E.01457
G1 X118.619 Y173.498 E1.95069
G1 X118.1 Y173.498 E.01457
G1 X118.1 Y103.9 E1.95069
G1 X117.82 Y103.9 E.00784
G1 X117.82 Y173.498 E1.95069
G1 X117.94 Y173.498 E.00335
G1 X119.819 Y173.498 F9000
G1 F900
G1 X120.14 Y173.498 E.00899
G1 X120.14 Y172.93 E.01592
G1 X119.904 Y172.93 E.0066
G1 X119.772 Y172.798 E.00524
G1 E-3.5 F3600
;WIPE_START
G1 F7200
G1 X119.904 Y172.93 E-.08874
G1 X120.14 Y172.93 E-.11179
G1 X120.14 Y173.498 E-.26973
G1 X119.819 Y173.498 E-.15228
;WIPE_END
G1 E-.87745 F3600
G1 X124.858 Y173.498 F9000
G1 E5 F2400
G1 F900
G1 X124.858 Y172.93 E.01592
G1 X125.378 Y172.93 E.01457
G1 X125.378 Y173.498 E.01592
G1 X125.898 Y173.498 E.01457
G1 X125.898 Y172.93 E.01592
G1 X126.116 Y172.93 E.0061
G1 X126.162 Y172.884 E.00183
G1 E-3.5 F3600
;WIPE_START
G1 F7200
G1 X126.116 Y172.93 E-.03105
G1 X125.898 Y172.93 E-.10344
G1 X125.898 Y173.498 E-.26973
G1 X125.378 Y173.498 E-.24696
G1 X125.378 Y172.93 E-.26973
G1 X124.858 Y172.93 E-.24696
G1 X124.858 Y173.471 E-.25713
;WIPE_END
G1 E-.075 F3600
G1 X125.92 Y104.44 F9000
G1 E5 F2400
;TYPE:Support material
;WIDTH:0.42
G1 F900
G1 X125.965 Y104.44 E.0014
G1 X126 Y104.475 E.00156
G1 X125.998 Y172.525 E2.13365
G1 X125.963 Y172.56 E.00156
G1 X125.057 Y172.56 E.02838
G1 X125.058 Y104.44 E2.13585
G1 X125.864 Y104.44 E.02525
G1 X124.858 Y104.07 F9000
;TYPE:Support material interface
;WIDTH:0.38
G1 F900
G1 X124.858 Y103.9 E.00475
G1 X125.378 Y103.9 E.01457
G1 X125.378 Y104.07 E.00475
G1 X125.898 Y104.07 E.01457
G1 X125.898 Y103.9 E.00475
G1 X126.418 Y103.9 E.01457
G1 X126.418 Y173.498 E1.95069
G1 X126.938 Y173.498 E.01457
G1 X126.938 Y103.9 E1.95069
G1 X127.1 Y103.9 E.00453
G1 X127.1 Y104.246 E.00968
G1 E-3.5 F3600
;WIPE_START
G1 F7200
G1 X127.1 Y103.9 E-.16403
G1 X126.938 Y103.9 E-.07673
G1 X126.938 Y106.394 E-1.18424
;WIPE_END
G1 E-.075 F3600
G1 X137.009 Y49.913 F9000
G1 E5 F2400
;TYPE:Support material
;WIDTH:0.42
G1 F900
G1 X139.329 Y49.913 E.07274
G1 X139.329 Y85.971 E1.13059
G1 X128.79 Y85.971 E.33046
G1 X128.79 Y81.331 E.14548
G1 X116.13 Y81.331 E.39693
G1 X116.13 Y85.971 E.14548
G1 X111.49 Y85.971 E.14548
G1 X111.49 Y88.291 E.07274
G1 X93.991 Y88.291 E.54868
G1 X93.991 Y70.792 E.54868
G1 X110.23 Y70.792 E.50917
G1 X110.23 Y47.593 E.72739
G1 X137.009 Y47.593 E.83963
G1 X137.009 Y49.856 E.07097
G1 X123.09 Y60.452 F9000
G1 F900
G1 X123.09 Y68.472 E.25145
G1 X126.47 Y68.472 E.10598
G1 X126.47 Y60.452 E.25145
G1 X123.146 Y60.452 E.1042
G1 E-3.5 F3600
;WIPE_START
G1 F7200
G1 X126.146 Y60.452 E-1.425
;WIPE_END
G1 E-.075 F3600
G1 X138.125 Y85.801 F9000
G1 E5 F2400
G1 F900
G1 X138.125 Y50.252 E1.11463
G1 X137.182 Y50.252 E.02956
G1 X137.182 Y85.632 E1.10931
G1 X136.239 Y85.632 E.02956
G1 X136.239 Y47.932 E1.18205
G1 X135.297 Y47.932 E.02956
G1 X135.297 Y85.632 E1.18205
G1 X134.354 Y85.632 E.02956
G1 X134.354 Y47.932 E1.18205
G1 X133.411 Y47.932 E.02956
G1 X133.411 Y85.632 E1.18205
G1 X132.469 Y85.632 E.02956
G1 X132.469 Y47.932 E1.18205
G1 X131.526 Y47.932 E.02956
G1 X131.526 Y85.632 E1.18205
G1 X130.583 Y85.632 E.02956
G1 X130.583 Y47.932 E1.18205
G1 X129.64 Y47.932 E.02956
G1 X129.64 Y85.632 E1.18205
G1 X129.129 Y85.632 E.01604
G1 X129.129 Y80.992 E.14548
G1 X128.698 Y80.992 E.01352
G1 X128.698 Y47.932 E1.03657
G1 X127.755 Y47.932 E.02956
G1 X127.755 Y80.992 E1.03657
G1 X126.812 Y80.992 E.02956
G1 X126.812 Y47.932 E1.03657
G1 X125.87 Y47.932 E.02956
G1 X125.87 Y60.113 E.38192
G1 X124.927 Y60.113 E.02956
G1 X124.927 Y47.932 E.38192
G1 X123.984 Y47.932 E.02956
G1 X123.984 Y60.113 E.38192
G1 X123.042 Y60.113 E.02956
G1 X123.042 Y47.932 E.38192
G1 X122.099 Y47.932 E.02956
G1 X122.099 Y80.992 E1.03657
G1 X121.156 Y80.992 E.02956
G1 X121.156 Y47.932 E1.03657
G1 X120.214 Y47.932 E.02956
G1 X120.213 Y80.992 E1.03657
G1 X119.271 Y80.992 E.02956
G1 X119.271 Y47.932 E1.03657
G1 X118.328 Y47.932 E.02956
G1 X118.328 Y80.992 E1.03657
G1 X117.385 Y80.992 E.02956
G1 X117.385 Y47.932 E1.03657
G1 X116.443 Y47.932 E.02956
G1 X116.443 Y80.992 E1.03657
G1 X115.791 Y80.992 E.02045
G1 X115.791 Y85.632 E.14548
G1 X115.5 Y85.632 E.00911
G1 X115.5 Y47.932 E1.18205
G1 X114.557 Y47.932 E.02956
G1 X114.557 Y85.632 E1.18205
G1 X113.615 Y85.632 E.02956
G1 X113.615 Y47.932 E1.18205
G1 X112.672 Y47.932 E.02956
G1 X112.672 Y85.632 E1.18205
G1 X111.729 Y85.632 E.02956
G1 X111.729 Y47.932 E1.18205
G1 X110.787 Y47.932 E.02956
G1 X110.787 Y87.952 E1.25479
G1 X109.844 Y87.952 E.02956
G1 X109.844 Y71.131 E.5274
G1 X108.901 Y71.131 E.02956
G1 X108.901 Y87.952 E.5274
G1 X107.958 Y87.952 E.02956
G1 X107.958 Y71.131 E.5274
G1 X107.016 Y71.131 E.02956
G1 X107.016 Y87.952 E.5274
G1 X106.073 Y87.952 E.02956
G1 X106.073 Y71.131 E.5274
G1 X105.13 Y71.131 E.02956
G1 X105.13 Y87.952 E.5274
G1 X104.188 Y87.952 E.02956
G1 X104.188 Y71.131 E.5274
G1 X103.245 Y71.131 E.02956
G1 X103.245 Y87.952 E.5274
G1 X102.302 Y87.952 E.02956
G1 X102.302 Y71.131 E.5274
G1 X101.36 Y71.131 E.02956
G1 X101.36 Y87.952 E.5274
G1 X100.417 Y87.952 E.02956
G1 X100.417 Y71.131 E.5274
G1 X99.474 Y71.131 E.02956
G1 X99.474 Y87.952 E.5274
G1 X98.531 Y87.952 E.02956
G1 X98.531 Y71.131 E.5274
G1 X97.589 Y71.131 E.02956
G1 X97.589 Y87.952 E.5274
G1 X96.646 Y87.952 E.02956
G1 X96.646 Y71.131 E.5274
