; generated by PrusaSlicer 2.4.0+linux-x64-GTK3 on 2022-07-22 at 07:13:39 UTC

; 

; external perimeters extrusion width = 0.45mm
; perimeters extrusion width = 0.45mm
; infill extrusion width = 0.45mm
; solid infill extrusion width = 0.45mm
; top infill extrusion width = 0.45mm
; support material extrusion width = 0.38mm
; first layer extrusion width = 0.42mm

; external perimeters extrusion width = 0.45mm
; perimeters extrusion width = 0.45mm
; infill extrusion width = 0.45mm
; solid infill extrusion width = 0.45mm
; top infill extrusion width = 0.45mm
; support material extrusion width = 0.38mm
; first layer extrusion width = 0.42mm

M201 X500 Y500 Z100 E5000 ; sets maximum accelerations, mm/sec^2
M203 X500 Y500 Z10 E60 ; sets maximum feedrates, mm/sec
M204 P500 R1000 T500 ; sets acceleration (P, T) and retract acceleration (R), mm/sec^2
M205 X8.00 Y8.00 Z0.40 E5.00 ; sets the jerk limits, mm/sec
M205 S0 T0 ; sets the minimum extruding and travel feed rate, mm/sec
M107
;TYPE:Custom
G90 ; use absolute coordinates
M83 ; extruder relative mode
M140 S50 ; set final bed temp
M104 S150 ; set temporary nozzle temp to prevent oozing during homing and auto bed leveling
G4 S10 ; allow partial nozzle warmup
G28 ; home all axis
G29 ; auto bed levelling
G1 Z50 F240
G1 X2 Y10 F3000
M104 S205 ; set final nozzle temp
M190 S50 ; wait for bed temp to stabilize
M109 S205 ; wait for nozzle temp to stabilize
G1 Z0.28 F240
G92 E0
G1 Y140 E10 F1500 ; prime the nozzle
G1 X2.3 F5000
G92 E0
G1 Y10 E10 F1200 ; prime the nozzle
G92 E0
G21 ; set units to millimeters
G90 ; use absolute coordinates
M83 ; use relative distances for extrusion
; Filament gcode
M107
;LAYER_CHANGE
;Z:0.2
;HEIGHT:0.2
;BEFORE_LAYER_CHANGE
G92 E0
;0.2


G1 E-5 F3600
G1 Z.2 F9000
;AFTER_LAYER_CHANGE
;0.2
G1 X54.358 Y84.842
G1 E5 F2400
M204 S500
;TYPE:Skirt/Brim
;WIDTH:0.42
G1 F1200
G1 X55.889 Y83.935 E.05356
G1 X57.577 Y83.299 E.05429
G1 X59.175 Y82.987 E.04902
G1 X113.332 Y76.987 E1.64009
G1 X124.623 Y76.974 E.33988
G1 X163.824 Y79.608 E1.18259
G1 X164.822 Y79.805 E.03063
G1 X165.74 Y80.092 E.02896
G1 X167.41 Y80.902 E.05585
G1 X168.947 Y82.081 E.05834
G1 X169.634 Y82.806 E.03006
G1 X170.225 Y83.575 E.02918
G1 X170.844 Y84.614 E.03641
G1 X171.337 Y85.756 E.03743
G1 X171.667 Y86.919 E.0364
G1 X171.849 Y88.157 E.03764
G1 X174.28 Y133.632 E1.37078
G1 X174.285 Y146.693 E.39314
G1 X173.585 Y148.753 E.06547
G1 X173.396 Y148.998 E.00931
G1 X172.118 Y150.012 E.04911
G1 X170.907 Y150.31 E.03754
G1 X58.051 Y156.592 E3.40224
G1 X57.082 Y156.579 E.02919
G1 X55.718 Y156.418 E.04134
G1 X54.591 Y156.154 E.03482
G1 X53.414 Y155.742 E.03754
G1 X51.557 Y154.763 E.06319
G1 X50.532 Y154.009 E.0383
G1 X49.812 Y153.36 E.02919
G1 X49.03 Y152.507 E.03482
G1 X48.29 Y151.504 E.03754
G1 X47.705 Y150.505 E.03482
G1 X47.297 Y149.625 E.0292
G1 X46.885 Y148.448 E.03754
G1 X46.621 Y147.322 E.03482
G1 X46.461 Y145.958 E.04134
G1 X46.454 Y144.801 E.03482
G1 X50.13 Y92.047 E1.59176
G1 X50.443 Y90.432 E.0495
G1 X51.074 Y88.755 E.05392
G1 X51.986 Y87.214 E.05392
G1 X52.998 Y86.008 E.04738
G1 X54.312 Y84.881 E.05212
G1 E-3.5 F3600
;WIPE_START
G1 F7200
G1 X55.889 Y83.935 E-.87333
G1 X56.976 Y83.525 E-.55167
;WIPE_END
G1 E-.075 F3600
G1 X116.287 Y88.789 F9000
G1 E5 F2400
G1 F1200
G1 X116.372 Y87.916 E.02641
G1 X116.579 Y87.066 E.02633
G1 X117.496 Y85.38 E.05776
G1 X118.377 Y84.475 E.03801
G1 X119.42 Y83.794 E.0375
G1 X120.611 Y83.35 E.03826
G1 X121.856 Y83.178 E.03781
G1 X162.669 Y83.18 E1.22848
G1 X163.72 Y83.311 E.0319
G1 X164.763 Y83.645 E.03298
G1 X165.691 Y84.153 E.03181
G1 X166.523 Y84.834 E.03238
G1 X167.217 Y85.668 E.03265
G1 X167.732 Y86.596 E.03196
G1 X168.067 Y87.61 E.03214
G1 X168.207 Y88.658 E.03182
G1 X168.214 Y138.582 E1.50271
G1 X167.888 Y140.31 E.05294
G1 X167.56 Y141.044 E.02417
G1 X167.135 Y141.736 E.02447
G1 X166.245 Y142.706 E.03961
G1 X165.152 Y143.45 E.03982
G1 X163.936 Y143.921 E.03923
G1 X162.65 Y144.105 E.0391
G1 X121.898 Y144.105 E1.22665
G1 X121.025 Y144.02 E.02641
G1 X120.175 Y143.813 E.02634
G1 X118.493 Y142.898 E.05761
G1 X117.585 Y142.016 E.03812
G1 X116.906 Y140.975 E.03742
G1 X116.468 Y139.812 E.03739
G1 X116.287 Y138.534 E.03884
G1 X116.287 Y88.849 E1.49554
G1 X116.664 Y88.849 F9000
G1 F1200
G1 X116.746 Y87.966 E.02668
G1 X116.939 Y87.179 E.02439
G1 X117.784 Y85.625 E.05326
G1 X118.633 Y84.753 E.03661
G1 X119.573 Y84.14 E.03379
G1 X120.685 Y83.721 E.03577
G1 X121.869 Y83.555 E.03599
G1 X162.657 Y83.557 E1.22772
G1 X163.655 Y83.683 E.0303
G1 X164.63 Y83.998 E.03083
G1 X165.493 Y84.474 E.02967
G1 X166.269 Y85.113 E.03026
G1 X166.914 Y85.894 E.0305
G1 X167.394 Y86.762 E.02985
G1 X167.703 Y87.71 E.03001
G1 X167.831 Y88.695 E.02988
G1 X167.837 Y138.565 E1.5011
G1 X167.534 Y140.177 E.04938
G1 X167.221 Y140.878 E.02312
G1 X166.824 Y141.523 E.0228
G1 X166.014 Y142.407 E.03608
G1 X164.994 Y143.107 E.03724
G1 X163.86 Y143.551 E.03663
G1 X162.637 Y143.728 E.03722
G1 X121.908 Y143.728 E1.22595
G1 X121.076 Y143.646 E.02516
G1 X120.289 Y143.453 E.02438
G1 X118.698 Y142.581 E.05461
G1 X117.864 Y141.762 E.03517
G1 X117.234 Y140.788 E.03494
G1 X116.829 Y139.7 E.03492
G1 X116.664 Y138.521 E.03582
G1 X116.664 Y88.909 E1.49335
G1 X117.041 Y88.909 F9000
G1 F1200
G1 X117.115 Y88.043 E.02617
G1 X117.299 Y87.293 E.02322
G1 X118.102 Y85.83 E.05025
G1 X118.886 Y85.033 E.03365
G1 X119.76 Y84.468 E.03134
G1 X120.758 Y84.091 E.03211
G1 X121.882 Y83.932 E.03417
G1 X162.645 Y83.934 E1.22697
G1 X163.557 Y84.047 E.02767
G1 X164.465 Y84.338 E.02869
G1 X165.268 Y84.777 E.02756
G1 X165.991 Y85.369 E.02811
G1 X166.593 Y86.093 E.02834
G1 X167.055 Y86.929 E.02875
G1 X167.339 Y87.809 E.02784
G1 X167.456 Y88.73 E.02795
G1 X167.46 Y138.547 E1.49951
G1 X167.181 Y140.044 E.04584
G1 X166.893 Y140.691 E.02131
G1 X166.512 Y141.31 E.02186
G1 X165.752 Y142.135 E.03379
G1 X164.8 Y142.783 E.03465
G1 X163.745 Y143.191 E.03405
G1 X162.624 Y143.351 E.03409
G1 X121.917 Y143.351 E1.22529
G1 X121.152 Y143.277 E.02312
G1 X120.403 Y143.093 E.0232
G1 X118.904 Y142.264 E.05157
G1 X118.145 Y141.51 E.0322
G1 X117.562 Y140.602 E.03247
G1 X117.19 Y139.59 E.03246
G1 X117.041 Y138.509 E.03284
G1 X117.041 Y88.969 E1.49116
G1 X117.418 Y88.969 F9000
G1 F1200
G1 X117.489 Y88.094 E.02643
G1 X117.659 Y87.409 E.02123
G1 X118.419 Y86.036 E.04723
G1 X119.138 Y85.314 E.03067
G1 X119.946 Y84.796 E.0289
G1 X120.87 Y84.452 E.02968
G1 X121.895 Y84.309 E.03115
G1 X162.633 Y84.311 E1.22622
G1 X163.492 Y84.419 E.02606
G1 X164.331 Y84.691 E.02654
G1 X165.07 Y85.099 E.02541
G1 X165.737 Y85.648 E.02599
G1 X166.291 Y86.318 E.02618
G1 X166.715 Y87.093 E.02659
G1 X166.974 Y87.906 E.02568
G1 X167.08 Y88.764 E.02603
G1 X167.083 Y138.53 E1.49796
G1 X166.827 Y139.912 E.04229
G1 X166.554 Y140.527 E.02024
G1 X166.202 Y141.095 E.02014
G1 X165.49 Y141.863 E.03151
G1 X164.642 Y142.44 E.03085
G1 X163.669 Y142.821 E.03146
G1 X162.61 Y142.973 E.03221
G1 X121.926 Y142.973 E1.2246
G1 X121.203 Y142.903 E.02186
G1 X120.518 Y142.733 E.02123
G1 X119.15 Y141.977 E.04706
G1 X118.45 Y141.287 E.02959
G1 X117.908 Y140.45 E.03001
G1 X117.56 Y139.517 E.02998
G1 X117.418 Y138.496 E.03103
G1 X117.418 Y89.029 E1.48896
G1 X117.795 Y89.029 F9000
G1 F1200
G1 X117.795 Y88.825 E.00612
G1 X117.858 Y88.171 E.0198
G1 X118.019 Y87.524 E.02007
G1 X118.705 Y86.282 E.0427
G1 X119.361 Y85.619 E.02806
G1 X120.099 Y85.141 E.02647
G1 X120.944 Y84.822 E.02719
G1 X121.908 Y84.686 E.02931
G1 X162.622 Y84.688 E1.22547
G1 X163.395 Y84.784 E.02344
G1 X164.165 Y85.03 E.02436
G1 X164.872 Y85.42 E.0243
G1 X165.482 Y85.926 E.02383
G1 X165.987 Y86.543 E.02401
G1 X166.374 Y87.256 E.02444
G1 X166.609 Y88.002 E.02352
G1 X166.704 Y88.798 E.02412
G1 X166.706 Y138.513 E1.49645
G1 X166.473 Y139.78 E.03877
G1 X166.226 Y140.339 E.01839
G1 X165.891 Y140.881 E.01917
G1 X165.229 Y141.59 E.02919
G1 X164.45 Y142.115 E.02828
G1 X163.554 Y142.461 E.02892
G1 X162.597 Y142.596 E.02909
G1 X121.935 Y142.596 E1.22394
G1 X121.28 Y142.533 E.0198
G1 X120.634 Y142.373 E.02004
G1 X119.357 Y141.661 E.044
G1 X118.732 Y141.035 E.02663
G1 X118.237 Y140.264 E.02757
G1 X117.921 Y139.406 E.02752
G1 X117.795 Y138.483 E.02805
G1 X117.795 Y89.089 E1.48677
G1 X118.172 Y89.089 F9000
G1 F1200
G1 X118.172 Y88.835 E.00765
G1 X118.232 Y88.222 E.01854
G1 X118.379 Y87.64 E.01805
G1 X119.021 Y86.49 E.03967
G1 X119.612 Y85.901 E.0251
G1 X120.285 Y85.47 E.02406
G1 X121.056 Y85.183 E.02477
G1 X121.921 Y85.063 E.0263
G1 X162.61 Y85.065 E1.22473
G1 X163.329 Y85.155 E.02183
G1 X164.031 Y85.383 E.02219
G1 X164.673 Y85.74 E.02212
G1 X165.225 Y86.203 E.02169
G1 X165.683 Y86.766 E.02185
G1 X166.033 Y87.418 E.02229
G1 X166.244 Y88.096 E.02136
G1 X166.329 Y88.83 E.02223
G1 X166.329 Y138.496 E1.49497
G1 X166.119 Y139.649 E.03525
G1 X165.887 Y140.175 E.01731
G1 X165.581 Y140.665 E.01739
G1 X164.97 Y141.315 E.02686
G1 X164.259 Y141.789 E.02574
G1 X163.479 Y142.091 E.02516
G1 X162.583 Y142.219 E.02724
G1 X121.944 Y142.219 E1.22325
G1 X121.331 Y142.159 E.01854
G1 X120.75 Y142.013 E.01803
G1 X119.605 Y141.376 E.03944
G1 X119.013 Y140.784 E.02521
G1 X118.567 Y140.08 E.02507
G1 X118.283 Y139.298 E.02506
G1 X118.172 Y138.471 E.02511
G1 X118.172 Y89.149 E1.4846
G1 X118.55 Y89.149 F9000
G1 F1200
G1 X118.55 Y88.844 E.00919
G1 X118.602 Y88.3 E.01644
G1 X118.738 Y87.756 E.01687
G1 X119.306 Y86.738 E.03508
G1 X119.863 Y86.183 E.02367
G1 X120.469 Y85.8 E.02158
G1 X121.166 Y85.544 E.02235
G1 X121.934 Y85.44 E.02332
G1 X162.598 Y85.442 E1.22402
G1 X163.232 Y85.52 E.01922
G1 X163.866 Y85.722 E.02001
G1 X164.446 Y86.043 E.01996
G1 X164.946 Y86.456 E.01952
G1 X165.361 Y86.963 E.0197
G1 X165.679 Y87.548 E.02006
G1 X165.878 Y88.191 E.02025
G1 X165.952 Y88.84 E.01967
G1 X165.952 Y138.48 E1.49416
G1 X165.765 Y139.517 E.03173
G1 X165.548 Y140.01 E.01621
G1 X165.272 Y140.448 E.01558
G1 X164.712 Y141.04 E.02452
G1 X164.069 Y141.463 E.02316
G1 X163.365 Y141.731 E.02267
G1 X162.571 Y141.842 E.02416
G1 X121.953 Y141.842 E1.2226
G1 X121.409 Y141.79 E.01644
G1 X120.867 Y141.654 E.01683
G1 X119.815 Y141.061 E.03636
G1 X119.297 Y140.535 E.02222
G1 X118.897 Y139.898 E.02262
G1 X118.645 Y139.191 E.02261
G1 X118.55 Y138.459 E.02221
G1 X118.55 Y89.209 E1.48243
G1 X118.927 Y89.209 F9000
G1 F1200
G1 X118.927 Y88.853 E.01072
G1 X118.975 Y88.351 E.01517
G1 X119.097 Y87.875 E.0148
G1 X119.62 Y86.948 E.03203
G1 X120.111 Y86.468 E.02066
G1 X120.65 Y86.131 E.01915
G1 X121.274 Y85.906 E.01995
G1 X121.946 Y85.817 E.0204
G1 X162.586 Y85.819 E1.22329
G1 X163.167 Y85.892 E.01761
G1 X163.731 Y86.075 E.01784
G1 X164.246 Y86.363 E.01777
G1 X164.689 Y86.733 E.01738
G1 X165.056 Y87.186 E.01753
G1 X165.338 Y87.71 E.0179
G1 X165.512 Y88.283 E.01804
G1 X165.574 Y88.85 E.01718
G1 X165.574 Y138.463 E1.49336
G1 X165.41 Y139.387 E.02825
G1 X165.22 Y139.822 E.01426
G1 X164.963 Y140.232 E.01459
G1 X164.485 Y140.738 E.02095
G1 X163.913 Y141.119 E.02069
G1 X163.29 Y141.361 E.0201
G1 X162.557 Y141.465 E.02229
G1 X121.962 Y141.465 E1.22191
G1 X121.46 Y141.416 E.01517
G1 X120.985 Y141.295 E.01478
G1 X120.063 Y140.776 E.03183
G1 X119.604 Y140.314 E.01961
G1 X119.244 Y139.749 E.02016
G1 X119.016 Y139.12 E.02014
G1 X118.927 Y138.446 E.02046
G1 X118.927 Y89.269 E1.48025
G1 X119.304 Y89.269 F9000
G1 F1200
G1 X119.304 Y88.861 E.01226
G1 X119.344 Y88.43 E.01305
G1 X119.456 Y87.993 E.01357
G1 X119.933 Y87.16 E.02889
G1 X120.356 Y86.755 E.01763
G1 X120.83 Y86.463 E.01676
G1 X121.38 Y86.268 E.01755
G1 X121.957 Y86.194 E.01753
G1 X162.575 Y86.196 E1.22261
G1 X163.07 Y86.257 E.01501
G1 X163.566 Y86.415 E.01566
G1 X164.02 Y86.665 E.01562
G1 X164.41 Y86.987 E.01521
G1 X164.734 Y87.383 E.01539
G1 X164.983 Y87.84 E.01569
G1 X165.14 Y88.343 E.01586
G1 X165.197 Y88.861 E.01568
G1 X165.197 Y138.447 E1.49256
G1 X165.055 Y139.257 E.02475
G1 X164.881 Y139.657 E.01313
G1 X164.655 Y140.014 E.01271
G1 X164.228 Y140.461 E.01862
G1 X163.724 Y140.792 E.01814
G1 X163.177 Y141.001 E.01762
G1 X162.545 Y141.088 E.01921
G1 X121.971 Y141.088 E1.22128
G1 X121.539 Y141.047 E.01305
G1 X121.103 Y140.936 E.01355
G1 X120.274 Y140.463 E.02872
G1 X119.889 Y140.067 E.01664
G1 X119.575 Y139.567 E.01775
G1 X119.378 Y139.014 E.01769
G1 X119.304 Y138.435 E.01758
G1 X119.304 Y89.329 E1.47809
G1 X119.681 Y89.329 F9000
G1 F1200
G1 X119.681 Y88.871 E.01379
G1 X119.718 Y88.482 E.01176
G1 X119.814 Y88.113 E.01147
G1 X120.215 Y87.412 E.02431
G1 X120.572 Y87.065 E.01498
G1 X121.011 Y86.794 E.01551
G1 X121.448 Y86.64 E.01397
G1 X121.97 Y86.571 E.01582
G1 X162.563 Y86.573 E1.22187
G1 X163.005 Y86.629 E.0134
G1 X163.431 Y86.767 E.01347
G1 X163.82 Y86.985 E.01342
G1 X164.153 Y87.264 E.01307
G1 X164.429 Y87.605 E.01322
G1 X164.642 Y88.001 E.01353
G1 X164.773 Y88.435 E.01364
G1 X164.82 Y88.871 E.01319
G1 X164.82 Y138.431 E1.49179
G1 X164.7 Y139.129 E.02132
G1 X164.554 Y139.468 E.01111
G1 X164.347 Y139.795 E.01166
G1 X163.972 Y140.183 E.01622
G1 X163.538 Y140.464 E.01558
G1 X163.066 Y140.64 E.01516
G1 X162.533 Y140.711 E.01619
G1 X121.98 Y140.711 E1.22064
G1 X121.591 Y140.673 E.01176
G1 X121.222 Y140.577 E.01146
G1 X120.526 Y140.181 E.02413
G1 X120.174 Y139.819 E.0152
G1 X119.907 Y139.387 E.01529
G1 X119.749 Y138.945 E.01413
G1 X119.681 Y138.422 E.01587
G1 X119.681 Y89.389 E1.4759
G1 X120.058 Y89.389 F9000
G1 F1200
G1 X120.058 Y88.879 E.01535
G1 X120.087 Y88.561 E.0096
G1 X120.173 Y88.234 E.0102
G1 X120.526 Y87.627 E.02115
G1 X120.815 Y87.354 E.01195
G1 X121.188 Y87.128 E.01312
G1 X121.552 Y87.003 E.01159
G1 X121.981 Y86.948 E.01303
G1 X162.551 Y86.951 E1.22116
G1 X162.938 Y87 E.01174
G1 X163.293 Y87.118 E.01126
G1 X163.617 Y87.303 E.01123
G1 X163.894 Y87.538 E.01094
G1 X164.123 Y87.825 E.01105
G1 X164.299 Y88.159 E.01137
G1 X164.407 Y88.524 E.01143
G1 X164.443 Y88.88 E.01078
G1 X164.443 Y138.416 E1.49105
G1 X164.345 Y139.001 E.01787
G1 X164.214 Y139.304 E.00993
G1 X164.041 Y139.574 E.00966
G1 X163.719 Y139.903 E.01382
G1 X163.355 Y140.133 E.013
G1 X162.958 Y140.278 E.01272
G1 X162.521 Y140.334 E.01325
G1 X121.988 Y140.334 E1.22004
G1 X121.671 Y140.305 E.0096
G1 X121.343 Y140.219 E.01019
G1 X120.74 Y139.869 E.02098
G1 X120.462 Y139.576 E.01217
G1 X120.24 Y139.21 E.0129
G1 X120.112 Y138.841 E.01174
G1 X120.058 Y138.411 E.01305
G1 X120.058 Y89.449 E1.47375
G1 X120.435 Y89.449 F9000
G1 F1200
G1 X120.435 Y88.888 E.01688
G1 X120.461 Y88.614 E.0083
G1 X120.53 Y88.356 E.00803
G1 X120.807 Y87.879 E.0166
G1 X121.032 Y87.663 E.00938
G1 X121.334 Y87.476 E.01071
G1 X121.621 Y87.374 E.00916
G1 X121.994 Y87.326 E.0113
G1 X162.54 Y87.328 E1.22045
G1 X162.84 Y87.365 E.00911
G1 X163.126 Y87.457 E.00905
G1 X163.39 Y87.604 E.00909
G1 X163.613 Y87.791 E.00876
G1 X163.8 Y88.022 E.00894
G1 X163.943 Y88.286 E.00904
G1 X164.04 Y88.612 E.01024
G1 X164.066 Y88.888 E.00834
G1 X164.066 Y138.401 E1.49034
G1 X163.988 Y138.876 E.01449
G1 X163.886 Y139.118 E.00792
G1 X163.754 Y139.329 E.00748
G1 X163.495 Y139.599 E.01126
G1 X163.201 Y139.789 E.01053
G1 X162.886 Y139.907 E.01014
G1 X162.508 Y139.957 E.01146
G1 X121.997 Y139.957 E1.21939
G1 X121.723 Y139.931 E.0083
G1 X121.465 Y139.862 E.00803
G1 X120.993 Y139.588 E.01644
G1 X120.771 Y139.359 E.00959
G1 X120.588 Y139.062 E.0105
G1 X120.483 Y138.771 E.00931
G1 X120.435 Y138.398 E.01132
G1 X120.435 Y89.509 E1.47157
G1 X120.812 Y89.509 F9000
G1 F1200
G1 X120.812 Y88.896 E.01846
G1 X120.83 Y88.695 E.00607
G1 X120.888 Y88.477 E.00677
G1 X121.088 Y88.132 E.01201
G1 X121.277 Y87.95 E.00791
G1 X121.51 Y87.81 E.00816
G1 X121.723 Y87.737 E.00679
G1 X122.005 Y87.703 E.00854
G1 X162.529 Y87.705 E1.2198
G1 X162.747 Y87.73 E.00659
G1 X162.961 Y87.797 E.00674
G1 X163.191 Y87.925 E.00794
G1 X163.332 Y88.043 E.00554
G1 X163.495 Y88.244 E.00779
G1 X163.6 Y88.443 E.00676
G1 X163.672 Y88.696 E.00793
G1 X163.689 Y88.896 E.00603
G1 X163.689 Y138.387 E1.4897
G1 X163.632 Y138.751 E.0111
G1 X163.545 Y138.956 E.0067
G1 X163.448 Y139.108 E.00543
G1 X163.243 Y139.318 E.00884
G1 X163.02 Y139.457 E.00791
G1 X162.779 Y139.545 E.00773
G1 X162.498 Y139.58 E.00852
G1 X122.005 Y139.58 E1.21884
G1 X121.804 Y139.562 E.00607
G1 X121.586 Y139.504 E.00678
G1 X121.245 Y139.307 E.01185
G1 X121.058 Y139.113 E.00811
G1 X120.922 Y138.887 E.00795
G1 X120.847 Y138.669 E.00694
G1 X120.812 Y138.387 E.00853
