; generated by PrusaSlicer 2.4.0+linux-x64-GTK3 on 2022-07-23 at 09:05:16 UTC

; 

; external perimeters extrusion width = 0.45mm
; perimeters extrusion width = 0.45mm
; infill extrusion width = 0.45mm
; solid infill extrusion width = 0.45mm
; top infill extrusion width = 0.45mm
; support material extrusion width = 0.38mm
; first layer extrusion width = 0.42mm

M201 X500 Y500 Z100 E5000 ; sets maximum accelerations, mm/sec^2
M203 X500 Y500 Z10 E60 ; sets maximum feedrates, mm/sec
M204 P500 R1000 T500 ; sets acceleration (P, T) and retract acceleration (R), mm/sec^2
M205 X8.00 Y8.00 Z0.40 E5.00 ; sets the jerk limits, mm/sec
M205 S0 T0 ; sets the minimum extruding and travel feed rate, mm/sec
M107
;TYPE:Custom
G90 ; use absolute coordinates
M83 ; extruder relative mode
M140 S50 ; set final bed temp
M104 S150 ; set temporary nozzle temp to prevent oozing during homing and auto bed leveling
G4 S10 ; allow partial nozzle warmup
G28 ; home all axis
G29 ; auto bed levelling
G1 Z50 F240
G1 X2 Y10 F3000
M104 S205 ; set final nozzle temp
M190 S50 ; wait for bed temp to stabilize
M109 S205 ; wait for nozzle temp to stabilize
G1 Z0.28 F240
G92 E0
G1 Y140 E10 F1500 ; prime the nozzle
G1 X2.3 F5000
G92 E0
G1 Y10 E10 F1200 ; prime the nozzle
G92 E0
G21 ; set units to millimeters
G90 ; use absolute coordinates
M83 ; use relative distances for extrusion
; Filament gcode
M107
;LAYER_CHANGE
;Z:0.2
;HEIGHT:0.2
;BEFORE_LAYER_CHANGE
G92 E0
;0.2


G1 E-5 F3600
G1 Z.2 F9000
;AFTER_LAYER_CHANGE
;0.2
G1 X87.91 Y83.574
G1 E5 F2400
M204 S500
;TYPE:Skirt/Brim
;WIDTH:0.42
G1 F1200
G1 X88.167 Y83.304 E.01121
G1 X89.147 Y82.481 E.03852
G1 X89.891 Y81.981 E.02699
G1 X91.632 Y81.13 E.05834
G1 X93.573 Y80.61 E.06046
G1 X137.389 Y76.893 E1.32362
G1 X138.743 Y76.857 E.04076
G1 X140.598 Y77.072 E.05619
G1 X142.564 Y77.659 E.06177
G1 X144.482 Y78.65 E.06497
G1 X146.104 Y79.918 E.06197
G1 X147.352 Y81.306 E.05619
G1 X148.07 Y82.372 E.03867
G1 X148.542 Y83.253 E.03008
G1 X149.258 Y85.183 E.06197
G1 X149.619 Y87.304 E.06477
G1 X149.61 Y89.064 E.05297
G1 X145.978 Y141.254 E1.57473
G1 X145.74 Y142.661 E.04296
G1 X145.37 Y143.867 E.03797
G1 X144.776 Y145.165 E.04295
G1 X144.231 Y146.055 E.03142
G1 X143.553 Y146.939 E.03355
G1 X142.833 Y147.696 E.03142
G1 X141.853 Y148.519 E.03853
G1 X140.983 Y149.096 E.03141
G1 X139.994 Y149.61 E.03355
G1 X139.023 Y149.992 E.03141
G1 X137.786 Y150.323 E.03853
G1 X136.754 Y150.478 E.03142
G1 X92.996 Y154.144 E1.32175
G1 X91.069 Y154.041 E.05807
G1 X89.373 Y153.67 E.05229
G1 X87.753 Y153.042 E.05229
G1 X86.249 Y152.172 E.05229
G1 X85.135 Y151.3 E.04259
G1 X84.2 Y150.365 E.03979
G1 X83.22 Y149.091 E.04838
G1 X82.516 Y147.864 E.04259
G1 X82.001 Y146.646 E.03979
G1 X81.612 Y145.286 E.04259
G1 X81.419 Y144.11 E.03587
G1 X81.352 Y142.697 E.04259
G1 X85.022 Y89.746 E1.59766
G1 X85.177 Y88.713 E.03142
G1 X85.555 Y87.338 E.04295
G1 X86.047 Y86.176 E.03798
G1 X86.769 Y84.945 E.04295
G1 X87.447 Y84.061 E.03355
G1 X87.869 Y83.617 E.0184
G1 E-3.5 F3600
;WIPE_START
G1 F7200
G1 X88.167 Y83.304 E-.20541
G1 X89.147 Y82.481 E-.60793
G1 X89.891 Y81.981 E-.42585
G1 X90.242 Y81.809 E-.18581
;WIPE_END
G1 E-.075 F3600
G1 X90.571 Y86.078 F9000
G1 E5 F2400
G1 F1200
G1 X91.246 Y85.484 E.02707
G1 X92.306 Y84.83 E.03748
G1 X93.083 Y84.503 E.0254
G1 X93.859 Y84.283 E.02427
G1 X95.05 Y84.141 E.03611
G1 X129.643 Y84.137 E1.04123
G1 X135.473 Y81.087 E.19806
G1 X136.378 Y80.78 E.02877
G1 X137.319 Y80.589 E.02888
G1 X138.199 Y80.517 E.02659
G1 X139.111 Y80.551 E.02747
G1 X140.173 Y80.731 E.03242
G1 X140.982 Y80.976 E.02544
G1 X141.741 Y81.3 E.02484
G1 X142.344 Y81.634 E.02074
G1 X142.946 Y82.04 E.02186
G1 X144.031 Y83.031 E.04422
G1 X144.492 Y83.601 E.02207
G1 X144.897 Y84.202 E.02182
G1 X145.473 Y85.384 E.03958
G1 X145.862 Y86.753 E.04283
G1 X145.956 Y87.475 E.02192
G1 X145.986 Y88.162 E.02071
G1 X145.934 Y89.004 E.0254
G1 X145.788 Y89.86 E.02613
G1 X145.334 Y91.208 E.04282
G1 X142.363 Y96.86 E.19219
G1 X142.363 Y140.352 E1.3091
G1 X142.26 Y141.412 E.03206
G1 X141.994 Y142.43 E.03169
G1 X141.568 Y143.394 E.03173
G1 X141.003 Y144.271 E.0314
G1 X140.002 Y145.313 E.04348
G1 X139.193 Y145.896 E.03002
G1 X138.499 Y146.265 E.02366
G1 X137.507 Y146.626 E.03179
G1 X136.59 Y146.809 E.02813
G1 X135.869 Y146.862 E.02177
G1 X101.363 Y146.863 E1.03861
G1 X96.066 Y149.664 E.18037
G1 X95.102 Y150.072 E.0315
G1 X94.157 Y150.329 E.02948
G1 X93.189 Y150.464 E.02944
G1 X92.258 Y150.476 E.02803
G1 X91.08 Y150.326 E.03575
G1 X90.209 Y150.089 E.02716
G1 X89.448 Y149.791 E.02459
G1 X88.625 Y149.346 E.02817
G1 X88 Y148.919 E.02277
G1 X87.172 Y148.182 E.03339
G1 X86.462 Y147.339 E.03315
G1 X85.718 Y146.072 E.04424
G1 X85.403 Y145.267 E.026
G1 X85.131 Y144.199 E.03319
G1 X85.024 Y143.26 E.02844
G1 X85.033 Y142.33 E.02801
G1 X85.263 Y140.942 E.04236
G1 X85.56 Y140.046 E.02838
G1 X85.833 Y139.441 E.01999
G1 X88.637 Y134.137 E.18058
G1 X88.637 Y90.648 E1.30901
G1 X88.735 Y89.618 E.03116
G1 X88.996 Y88.601 E.03159
G1 X89.413 Y87.64 E.03154
G1 X89.98 Y86.758 E.03157
G1 X90.531 Y86.123 E.02531
G1 X90.815 Y86.371 F9000
G1 F1200
G1 X91.482 Y85.779 E.02686
G1 X92.49 Y85.159 E.03561
G1 X93.218 Y84.855 E.02373
G1 X93.947 Y84.65 E.02279
G1 X95.083 Y84.517 E.03444
G1 X129.735 Y84.514 E1.04304
G1 X135.608 Y81.44 E.19953
G1 X136.488 Y81.141 E.02796
G1 X137.382 Y80.961 E.02745
G1 X138.218 Y80.894 E.02524
G1 X139.084 Y80.927 E.02609
G1 X140.075 Y81.095 E.03026
G1 X140.844 Y81.328 E.02417
G1 X141.567 Y81.635 E.02366
G1 X142.14 Y81.951 E.0197
G1 X142.724 Y82.345 E.02119
G1 X143.747 Y83.28 E.04171
G1 X144.184 Y83.818 E.02089
G1 X144.577 Y84.401 E.02116
G1 X145.127 Y85.533 E.03788
G1 X145.49 Y86.815 E.0401
G1 X145.581 Y87.515 E.02125
G1 X145.609 Y88.168 E.01966
G1 X145.558 Y88.97 E.02421
G1 X145.419 Y89.781 E.02477
G1 X144.982 Y91.073 E.04106
G1 X141.986 Y96.767 E.19365
G1 X141.986 Y140.343 E1.31164
G1 X141.891 Y141.332 E.0299
G1 X141.642 Y142.293 E.02988
G1 X141.243 Y143.203 E.02992
G1 X140.696 Y144.051 E.03038
G1 X139.743 Y145.039 E.0413
G1 X139.004 Y145.569 E.02738
G1 X138.357 Y145.915 E.02208
G1 X137.391 Y146.266 E.03094
G1 X136.55 Y146.434 E.02581
G1 X135.862 Y146.485 E.02079
G1 X101.27 Y146.486 E1.04122
G1 X95.911 Y149.321 E.18247
G1 X94.99 Y149.712 E.0301
G1 X94.07 Y149.962 E.02872
G1 X93.171 Y150.087 E.02731
G1 X92.292 Y150.101 E.02647
G1 X91.141 Y149.954 E.03493
G1 X90.319 Y149.728 E.02566
G1 X89.618 Y149.453 E.02267
G1 X88.813 Y149.019 E.02752
G1 X88.223 Y148.615 E.02151
G1 X87.451 Y147.929 E.0311
G1 X86.761 Y147.109 E.03226
G1 X86.064 Y145.92 E.04148
G1 X85.765 Y145.162 E.02452
G1 X85.504 Y144.143 E.03167
G1 X85.402 Y143.252 E.027
G1 X85.41 Y142.348 E.02721
G1 X85.633 Y141.019 E.04058
G1 X85.908 Y140.192 E.02621
G1 X86.169 Y139.612 E.01916
G1 X89.014 Y134.231 E.18322
G1 X89.014 Y90.658 E1.31155
G1 X89.108 Y89.669 E.02989
G1 X89.357 Y88.711 E.0298
G1 X89.753 Y87.806 E.02974
G1 X90.289 Y86.974 E.0298
G1 X90.776 Y86.416 E.02228
G1 X91.059 Y86.665 F9000
G1 F1200
G1 X91.718 Y86.073 E.02664
G1 X92.674 Y85.489 E.03374
G1 X93.351 Y85.208 E.02207
G1 X94.033 Y85.017 E.02132
G1 X95.115 Y84.893 E.03277
G1 X129.828 Y84.891 E1.04487
G1 X135.744 Y81.792 E.20101
G1 X136.575 Y81.509 E.02642
G1 X137.445 Y81.333 E.02674
G1 X138.236 Y81.271 E.02387
G1 X139.057 Y81.304 E.02473
G1 X139.978 Y81.46 E.02812
G1 X140.706 Y81.679 E.0229
G1 X141.394 Y81.97 E.02247
G1 X141.937 Y82.269 E.01864
G1 X142.502 Y82.649 E.02052
G1 X143.463 Y83.528 E.0392
G1 X143.876 Y84.036 E.0197
G1 X144.256 Y84.601 E.02049
G1 X144.78 Y85.683 E.03618
G1 X145.118 Y86.878 E.03737
G1 X145.206 Y87.556 E.02058
G1 X145.232 Y88.173 E.0186
G1 X145.183 Y88.936 E.02301
G1 X145.05 Y89.702 E.0234
G1 X144.63 Y90.938 E.03929
G1 X141.609 Y96.674 E.19512
G1 X141.609 Y140.334 E1.31417
G1 X141.518 Y141.28 E.02862
G1 X141.281 Y142.182 E.02807
G1 X140.904 Y143.036 E.02811
G1 X140.39 Y143.831 E.02848
G1 X139.484 Y144.764 E.03913
G1 X138.815 Y145.243 E.02479
G1 X138.215 Y145.565 E.02049
G1 X137.276 Y145.907 E.03009
G1 X136.511 Y146.058 E.02349
G1 X135.854 Y146.108 E.01981
G1 X101.176 Y146.109 E1.04382
G1 X95.756 Y148.977 E.18458
G1 X94.879 Y149.351 E.0287
G1 X93.982 Y149.595 E.02796
G1 X93.153 Y149.71 E.0252
G1 X92.326 Y149.725 E.02491
G1 X91.202 Y149.582 E.0341
G1 X90.429 Y149.368 E.02415
G1 X89.787 Y149.116 E.02076
G1 X89.001 Y148.692 E.02687
G1 X88.447 Y148.311 E.02024
G1 X87.713 Y147.656 E.02961
G1 X87.06 Y146.879 E.03056
G1 X86.409 Y145.768 E.03876
G1 X86.127 Y145.056 E.02304
G1 X85.877 Y144.087 E.03013
G1 X85.778 Y143.221 E.02624
G1 X85.786 Y142.367 E.0257
G1 X86.002 Y141.096 E.0388
G1 X86.255 Y140.338 E.02406
G1 X86.505 Y139.783 E.01834
G1 X89.391 Y134.324 E.18585
G1 X89.391 Y90.667 E1.31409
G1 X89.482 Y89.721 E.02861
G1 X89.718 Y88.821 E.02799
G1 X90.092 Y87.972 E.02793
G1 X90.598 Y87.191 E.02802
G1 X91.019 Y86.71 E.01925
G1 X91.302 Y86.959 F9000
G1 F1200
G1 X91.395 Y86.853 E.00424
G1 X91.953 Y86.369 E.02223
G1 X92.857 Y85.819 E.03186
G1 X93.484 Y85.561 E.0204
G1 X94.12 Y85.385 E.01986
G1 X95.147 Y85.269 E.03111
G1 X129.921 Y85.268 E1.04672
G1 X135.879 Y82.144 E.2025
G1 X136.684 Y81.869 E.0256
G1 X137.508 Y81.705 E.02527
G1 X138.253 Y81.647 E.02251
G1 X139.029 Y81.68 E.02336
G1 X139.881 Y81.824 E.02601
G1 X140.57 Y82.03 E.02163
G1 X141.221 Y82.305 E.02129
G1 X141.733 Y82.586 E.01758
G1 X142.28 Y82.954 E.01984
G1 X143.18 Y83.777 E.03671
G1 X143.568 Y84.254 E.01851
G1 X143.936 Y84.801 E.01983
G1 X144.422 Y85.802 E.0335
G1 X144.746 Y86.94 E.03563
G1 X144.831 Y87.596 E.0199
G1 X144.854 Y88.178 E.01752
G1 X144.807 Y88.901 E.02182
G1 X144.681 Y89.622 E.02204
G1 X144.278 Y90.802 E.03753
G1 X141.232 Y96.58 E.19661
G1 X141.232 Y140.325 E1.31671
G1 X141.149 Y141.199 E.02644
G1 X140.92 Y142.071 E.02714
G1 X140.566 Y142.869 E.02628
G1 X140.084 Y143.609 E.02658
G1 X139.227 Y144.488 E.03696
G1 X138.625 Y144.917 E.02224
G1 X138.073 Y145.216 E.01889
G1 X137.161 Y145.548 E.02922
G1 X136.471 Y145.683 E.02117
G1 X135.847 Y145.731 E.01883
G1 X101.083 Y145.732 E1.04641
G1 X95.6 Y148.633 E.18671
G1 X94.767 Y148.991 E.02729
G1 X93.895 Y149.228 E.02719
G1 X93.134 Y149.334 E.02311
G1 X92.36 Y149.349 E.02333
G1 X91.263 Y149.209 E.03326
G1 X90.539 Y149.007 E.02263
G1 X89.955 Y148.779 E.01887
G1 X89.189 Y148.365 E.0262
G1 X88.671 Y148.008 E.01896
G1 X87.974 Y147.385 E.02813
G1 X87.359 Y146.649 E.02886
G1 X86.754 Y145.615 E.03607
G1 X86.489 Y144.949 E.02156
G1 X86.25 Y144.03 E.02859
G1 X86.155 Y143.213 E.02477
G1 X86.163 Y142.386 E.02488
G1 X86.371 Y141.175 E.037
G1 X86.603 Y140.484 E.02192
G1 X86.841 Y139.953 E.01751
G1 X89.768 Y134.418 E.18848
G1 X89.768 Y90.675 E1.31664
G1 X89.851 Y89.801 E.02643
G1 X90.079 Y88.932 E.02706
G1 X90.43 Y88.139 E.0261
G1 X90.906 Y87.408 E.02625
G1 X91.262 Y87.004 E.01623
G1 X91.544 Y87.253 F9000
G1 F1200
G1 X91.669 Y87.113 E.00566
G1 X92.187 Y86.665 E.02062
G1 X93.039 Y86.149 E.02997
G1 X93.615 Y85.915 E.01873
G1 X94.205 Y85.752 E.01841
G1 X95.177 Y85.645 E.02945
G1 X130.014 Y85.645 E1.04858
G1 X136.015 Y82.496 E.204
G1 X136.771 Y82.237 E.02404
G1 X137.57 Y82.077 E.02454
G1 X138.27 Y82.024 E.02113
G1 X139.001 Y82.056 E.02201
G1 X139.785 Y82.189 E.02393
G1 X140.433 Y82.382 E.02037
G1 X141.049 Y82.641 E.0201
G1 X141.53 Y82.904 E.0165
G1 X142.057 Y83.259 E.01915
G1 X142.896 Y84.027 E.03423
G1 X143.26 Y84.472 E.01731
G1 X143.616 Y85 E.01916
G1 X144.075 Y85.951 E.03179
G1 X144.374 Y87.003 E.03291
G1 X144.456 Y87.636 E.01922
G1 X144.477 Y88.182 E.01644
G1 X144.432 Y88.865 E.02062
G1 X144.312 Y89.542 E.02067
G1 X143.926 Y90.665 E.03577
G1 X140.855 Y96.487 E.19811
G1 X140.855 Y140.316 E1.31926
G1 X140.78 Y141.12 E.02429
G1 X140.569 Y141.933 E.02527
G1 X140.227 Y142.702 E.02534
G1 X139.779 Y143.387 E.02464
G1 X138.97 Y144.212 E.03479
G1 X138.434 Y144.591 E.01975
G1 X137.93 Y144.866 E.01729
G1 X137.046 Y145.188 E.02833
G1 X136.431 Y145.308 E.01887
G1 X135.84 Y145.354 E.01785
G1 X100.989 Y145.355 E1.04901
G1 X95.43 Y148.297 E.1893
G1 X94.63 Y148.639 E.02619
G1 X93.831 Y148.857 E.02492
G1 X93.094 Y148.959 E.02241
G1 X92.366 Y148.972 E.0219
G1 X91.352 Y148.842 E.03079
G1 X90.65 Y148.646 E.02192
G1 X90.104 Y148.432 E.01766
G1 X89.378 Y148.039 E.02485
G1 X88.896 Y147.705 E.01767
G1 X88.237 Y147.113 E.02665
G1 X87.659 Y146.42 E.02716
G1 X87.099 Y145.462 E.03341
G1 X86.851 Y144.842 E.0201
G1 X86.623 Y143.973 E.02703
G1 X86.531 Y143.181 E.02399
G1 X86.54 Y142.406 E.02334
G1 X86.733 Y141.281 E.03435
G1 X86.958 Y140.613 E.0212
G1 X87.182 Y140.114 E.01649
G1 X90.145 Y134.511 E.19076
G1 X90.145 Y90.684 E1.3192
G1 X90.22 Y89.881 E.02429
G1 X90.43 Y89.07 E.02521
G1 X90.768 Y88.306 E.02516
G1 X91.214 Y87.627 E.02445
G1 X91.504 Y87.298 E.01321
G1 X91.785 Y87.549 F9000
G1 F1200
G1 X91.942 Y87.373 E.00707
G1 X92.421 Y86.961 E.01901
G1 X93.22 Y86.48 E.02808
G1 X93.746 Y86.269 E.01705
G1 X94.29 Y86.12 E.01698
G1 X95.188 Y86.022 E.02719
G1 X130.107 Y86.022 E1.05108
G1 X136.151 Y82.848 E.2055
G1 X136.881 Y82.598 E.02321
G1 X137.632 Y82.449 E.02304
G1 X138.286 Y82.401 E.01976
G1 X138.972 Y82.432 E.02066
G1 X139.689 Y82.554 E.02188
G1 X140.297 Y82.734 E.01912
G1 X140.877 Y82.976 E.01891
G1 X141.326 Y83.222 E.01541
G1 X141.835 Y83.564 E.01846
G1 X142.613 Y84.276 E.03175
G1 X142.953 Y84.69 E.01611
G1 X143.296 Y85.2 E.01849
G1 X143.717 Y86.07 E.02912
G1 X144.001 Y87.066 E.03116
G1 X144.081 Y87.676 E.01853
G1 X144.1 Y88.186 E.01535
G1 X144.056 Y88.829 E.01942
G1 X143.944 Y89.461 E.01931
G1 X143.586 Y90.502 E.03315
G1 X140.478 Y96.394 E.20049
G1 X140.478 Y140.307 E1.3218
G1 X140.406 Y141.069 E.02302
G1 X140.209 Y141.821 E.02342
G1 X139.89 Y142.533 E.02347
G1 X139.475 Y143.163 E.02272
G1 X138.713 Y143.934 E.03261
G1 X138.243 Y144.266 E.01732
G1 X137.787 Y144.517 E.01566
G1 X136.931 Y144.829 E.02743
G1 X136.391 Y144.933 E.01657
G1 X135.832 Y144.977 E.01686
G1 X100.895 Y144.978 E1.0516
G1 X95.261 Y147.96 E.19189
G1 X94.518 Y148.279 E.02434
G1 X93.767 Y148.485 E.02344
G1 X93.076 Y148.582 E.02101
G1 X92.373 Y148.594 E.02114
G1 X91.44 Y148.476 E.02832
G1 X90.761 Y148.286 E.02121
G1 X90.254 Y148.086 E.01643
G1 X89.568 Y147.713 E.0235
G1 X89.121 Y147.402 E.01639
G1 X88.499 Y146.843 E.02516
G1 X87.96 Y146.191 E.02546
G1 X87.443 Y145.308 E.03079
G1 X87.212 Y144.734 E.01864
G1 X86.996 Y143.915 E.02548
G1 X86.908 Y143.174 E.02248
G1 X86.917 Y142.425 E.02252
G1 X87.095 Y141.387 E.0317
G1 X87.312 Y140.743 E.02048
G1 X87.524 Y140.275 E.01546
G1 X90.522 Y134.605 E.19306
G1 X90.522 Y90.693 E1.32175
G1 X90.594 Y89.932 E.02302
G1 X90.79 Y89.181 E.02336
G1 X91.106 Y88.474 E.0233
G1 X91.52 Y87.846 E.02265
G1 X91.746 Y87.593 E.01019
G1 X92.027 Y87.843 F9000
G1 F1200
G1 X92.198 Y87.651 E.00774
G1 X92.654 Y87.258 E.01814
G1 X93.376 Y86.824 E.02533
G1 X93.856 Y86.629 E.0156
G1 X94.374 Y86.488 E.01618
G1 X95.198 Y86.399 E.02492
G1 X130.2 Y86.399 E1.05358
G1 X136.288 Y83.199 E.20702
G1 X136.967 Y82.965 E.02161
G1 X137.693 Y82.821 E.02228
G1 X138.302 Y82.778 E.01836
G1 X138.943 Y82.808 E.01932
G1 X139.593 Y82.919 E.01985
G1 X140.162 Y83.086 E.01786
G1 X140.706 Y83.312 E.01772
G1 X141.123 Y83.539 E.0143
G1 X141.613 Y83.869 E.01777
G1 X142.331 Y84.526 E.0293
G1 X142.645 Y84.908 E.01489
G1 X142.975 Y85.399 E.0178
G1 X143.371 Y86.219 E.02741
G1 X143.629 Y87.128 E.02846
G1 X143.706 Y87.716 E.01784
G1 X143.723 Y88.189 E.01425
G1 X143.683 Y88.773 E.01763
G1 X143.575 Y89.38 E.01856
G1 X143.245 Y90.339 E.03052
G1 X140.101 Y96.3 E.20286
G1 X140.101 Y140.298 E1.32434
G1 X140.032 Y141.017 E.02174
G1 X139.849 Y141.709 E.02155
G1 X139.553 Y142.363 E.02161
G1 X139.171 Y142.939 E.02079
G1 X138.458 Y143.656 E.03044
G1 X138.051 Y143.941 E.01495
G1 X137.644 Y144.168 E.01403
G1 X136.817 Y144.469 E.0265
G1 X136.351 Y144.558 E.01428
G1 X135.825 Y144.6 E.01589
G1 X100.802 Y144.601 E1.05419
G1 X95.091 Y147.623 E.19447
G1 X94.381 Y147.927 E.02325
G1 X93.702 Y148.113 E.0212
G1 X93.057 Y148.205 E.01961
G1 X92.38 Y148.217 E.02038
G1 X91.528 Y148.109 E.02585
G1 X90.872 Y147.926 E.02049
G1 X90.404 Y147.74 E.01518
G1 X89.758 Y147.387 E.02215
G1 X89.346 Y147.1 E.01511
G1 X88.763 Y146.572 E.02368
G1 X88.26 Y145.963 E.02376
G1 X87.788 Y145.154 E.02821
G1 X87.573 Y144.625 E.01719
G1 X87.368 Y143.858 E.0239
