; generated by PrusaSlicer 2.4.0+linux-x64-GTK3 on 2022-07-24 at 16:57:42 UTC

; 

; external perimeters extrusion width = 0.45mm
; perimeters extrusion width = 0.45mm
; infill extrusion width = 0.45mm
; solid infill extrusion width = 0.45mm
; top infill extrusion width = 0.40mm
; first layer extrusion width = 0.42mm

M201 X500 Y500 Z100 E5000 ; sets maximum accelerations, mm/sec^2
M203 X500 Y500 Z10 E60 ; sets maximum feedrates, mm/sec
M204 P500 R1000 T500 ; sets acceleration (P, T) and retract acceleration (R), mm/sec^2
M205 X8.00 Y8.00 Z0.40 E5.00 ; sets the jerk limits, mm/sec
M205 S0 T0 ; sets the minimum extruding and travel feed rate, mm/sec
M107
;TYPE:Custom
G90 ; use absolute coordinates
M83 ; extruder relative mode
M140 S50 ; set final bed temp
M104 S150 ; set temporary nozzle temp to prevent oozing during homing and auto bed leveling
G4 S10 ; allow partial nozzle warmup
G28 ; home all axis
G29 ; auto bed levelling
G1 Z50 F240
G1 X2 Y10 F3000
M104 S205 ; set final nozzle temp
M190 S50 ; wait for bed temp to stabilize
M109 S205 ; wait for nozzle temp to stabilize
G1 Z0.28 F240
G92 E0
G1 Y140 E10 F1500 ; prime the nozzle
G1 X2.3 F5000
G92 E0
G1 Y10 E10 F1200 ; prime the nozzle
G92 E0
G21 ; set units to millimeters
G90 ; use absolute coordinates
M83 ; use relative distances for extrusion
; Filament gcode
M107
;LAYER_CHANGE
;Z:0.2
;HEIGHT:0.2
;BEFORE_LAYER_CHANGE
G92 E0
;0.2


G1 E-5 F3600
G1 Z.2 F9000
;AFTER_LAYER_CHANGE
;0.2
G1 X93.107 Y100.778
G1 E5 F2400
M204 S500
;TYPE:Skirt/Brim
;WIDTH:0.42
G1 F1200
G1 X94.28 Y99.839 E.04522
G1 X95.166 Y99.277 E.03158
G1 X96.203 Y98.747 E.03506
G1 X97.67 Y98.196 E.04717
G1 X99.746 Y97.762 E.06382
G1 X101.325 Y97.681 E.04761
G1 X102.557 Y97.762 E.03717
G1 X103.775 Y97.97 E.03717
G1 X105.876 Y98.646 E.06644
G1 X134.573 Y110.321 E.93253
G1 X135.945 Y111.018 E.04633
G1 X137.653 Y112.238 E.06319
G1 X138.563 Y113.105 E.03781
G1 X139.336 Y114.01 E.03583
G1 X140.04 Y115.024 E.03717
G1 X140.636 Y116.106 E.03717
G1 X141.118 Y117.243 E.03717
G1 X141.471 Y118.395 E.03627
G1 X141.763 Y119.979 E.0485
G1 X141.841 Y121.212 E.03717
G1 X141.791 Y122.446 E.03717
G1 X141.644 Y123.534 E.03305
G1 X141.358 Y124.73 E.03702
G1 X140.972 Y125.838 E.0353
G1 X140.478 Y126.905 E.0354
G1 X139.895 Y127.897 E.03464
G1 X139.168 Y128.895 E.03717
G1 X138.094 Y130.056 E.04761
G1 X136.431 Y131.372 E.06382
G1 X135.054 Y132.151 E.04761
G1 X133.916 Y132.629 E.03717
G1 X131.866 Y133.169 E.06382
G1 X130.44 Y133.328 E.04318
G1 X129.033 Y133.312 E.04235
G1 X126.963 Y132.987 E.06309
G1 X125.536 Y132.54 E.04502
G1 X96.838 Y120.866 E.93253
G1 X94.862 Y119.884 E.06642
G1 X93.573 Y118.968 E.04761
G1 X92.055 Y117.488 E.06382
G1 X91.105 Y116.223 E.04761
G1 X90.107 Y114.346 E.06397
G1 X89.621 Y112.982 E.04359
G1 X89.365 Y111.905 E.03333
G1 X89.209 Y110.774 E.03437
G1 X89.168 Y109.19 E.0477
G1 X89.44 Y107.087 E.06382
G1 X89.883 Y105.568 E.04761
G1 X90.781 Y103.648 E.06382
G1 X91.664 Y102.336 E.04761
G1 X93.066 Y100.822 E.06211
; printing object moyeuxTamyaGrasshopper.STL id:0 copy 1
G1 E-3.5 F3600
;WIPE_START
G1 F7200
G1 X94.28 Y99.839 E-.74183
G1 X95.166 Y99.277 E-.49838
G1 X95.513 Y99.1 E-.18479
;WIPE_END
G1 E-.075 F3600
G1 X122.265 Y117.969 F9000
G1 E5 F2400
;TYPE:External perimeter
G1 F1200
G1 X122.323 Y117.825 E.00468
G1 X122.725 Y117.069 E.02575
G1 X123.203 Y116.36 E.02575
G1 X123.751 Y115.702 E.02577
G1 X124.365 Y115.104 E.0258
G1 X125.034 Y114.575 E.02568
G1 X125.754 Y114.117 E.02568
G1 X126.521 Y113.733 E.02581
G1 X127.322 Y113.432 E.02576
G1 X128.149 Y113.214 E.02575
G1 X128.994 Y113.082 E.02575
G1 X129.849 Y113.038 E.02575
G1 X130.703 Y113.082 E.02575
G1 X131.548 Y113.214 E.02575
G1 X132.375 Y113.432 E.02575
G1 X133.176 Y113.733 E.02576
G1 X133.944 Y114.117 E.02584
G1 X134.663 Y114.575 E.02566
G1 X135.334 Y115.106 E.02576
G1 X135.946 Y115.702 E.02572
G1 X136.494 Y116.36 E.02577
G1 X136.972 Y117.069 E.02575
G1 X137.374 Y117.825 E.02575
G1 X137.696 Y118.617 E.02575
G1 X137.935 Y119.438 E.02575
G1 X138.088 Y120.28 E.02575
G1 X138.155 Y121.133 E.02575
G1 X138.132 Y121.988 E.02575
G1 X138.022 Y122.838 E.02581
G1 X137.826 Y123.671 E.02575
G1 X137.545 Y124.477 E.02569
G1 X137.207 Y125.201 E.02406
G1 X136.742 Y125.985 E.02745
G1 X136.229 Y126.669 E.02573
G1 X135.648 Y127.297 E.02575
G1 X135.005 Y127.862 E.02575
G1 X134.308 Y128.357 E.02575
G1 X133.563 Y128.779 E.02575
G1 X132.779 Y129.121 E.02575
G1 X131.965 Y129.382 E.02575
G1 X131.125 Y129.557 E.0258
G1 X130.274 Y129.645 E.02577
G1 X129.421 Y129.645 E.02568
G1 X128.572 Y129.557 E.0257
G1 X127.733 Y129.382 E.0258
G1 X126.918 Y129.121 E.02575
G1 X126.134 Y128.779 E.02575
G1 X125.389 Y128.357 E.02575
G1 X124.692 Y127.862 E.02575
G1 X124.049 Y127.297 E.02575
G1 X123.468 Y126.669 E.02575
G1 X122.955 Y125.985 E.02575
G1 X122.514 Y125.252 E.02575
G1 X122.11 Y124.364 E.02935
G1 X121.871 Y123.669 E.02213
G1 X121.675 Y122.838 E.0257
G1 X121.565 Y121.988 E.02581
G1 X121.542 Y121.133 E.02575
G1 X121.609 Y120.28 E.02575
G1 X121.762 Y119.438 E.02575
G1 X122.001 Y118.617 E.02575
G1 X122.242 Y118.024 E.01926
G1 X122.418 Y117.944 F9000
G1 E-3.5 F3600
;WIPE_START
G1 F7200
G1 X122.323 Y117.825 E-.10237
G1 X122.725 Y117.069 E-.40634
G1 X123.203 Y116.36 E-.40634
G1 X123.751 Y115.702 E-.40664
G1 X123.907 Y115.551 E-.1033
;WIPE_END
G1 E-.075 F3600
G1 X130.241 Y113.436 F9000
G1 E5 F2400
;TYPE:Perimeter
G1 F1200
G1 X130.664 Y113.458 E.01274
G1 X131.471 Y113.583 E.02458
G1 X132.26 Y113.791 E.02458
G1 X133.025 Y114.079 E.02458
G1 X133.758 Y114.446 E.02467
G1 X134.444 Y114.883 E.02449
G1 X135.085 Y115.389 E.02459
G1 X135.669 Y115.959 E.02455
G1 X136.192 Y116.586 E.0246
G1 X136.648 Y117.264 E.02458
G1 X137.032 Y117.985 E.02458
G1 X137.339 Y118.741 E.02458
G1 X137.568 Y119.525 E.02458
G1 X137.714 Y120.328 E.02458
G1 X137.777 Y121.143 E.02458
G1 X137.756 Y121.959 E.02458
G1 X137.651 Y122.771 E.02464
G1 X137.463 Y123.565 E.02458
G1 X137.195 Y124.335 E.02453
G1 X136.874 Y125.025 E.02291
G1 X136.428 Y125.775 E.02627
G1 X135.939 Y126.427 E.02454
G1 X135.384 Y127.027 E.02458
G1 X134.771 Y127.566 E.02458
G1 X134.105 Y128.039 E.02458
G1 X133.394 Y128.441 E.02458
G1 X132.646 Y128.768 E.02458
G1 X131.868 Y129.016 E.02458
G1 X131.067 Y129.184 E.02463
G1 X130.254 Y129.268 E.0246
G1 X129.44 Y129.268 E.02451
G1 X128.63 Y129.184 E.02453
G1 X127.829 Y129.016 E.02463
G1 X127.051 Y128.768 E.02458
G1 X126.303 Y128.441 E.02458
G1 X125.592 Y128.039 E.02458
G1 X124.926 Y127.566 E.02458
G1 X124.313 Y127.027 E.02458
G1 X123.758 Y126.427 E.02458
G1 X123.268 Y125.774 E.02458
G1 X122.849 Y125.076 E.02453
G1 X122.461 Y124.225 E.02816
G1 X122.233 Y123.564 E.02102
G1 X122.046 Y122.771 E.02455
G1 X121.941 Y121.959 E.02464
G1 X121.92 Y121.143 E.02458
G1 X121.983 Y120.328 E.02458
G1 X122.129 Y119.525 E.02458
G1 X122.358 Y118.741 E.02458
G1 X122.665 Y117.985 E.02458
G1 X123.049 Y117.264 E.02458
G1 X123.505 Y116.586 E.02458
G1 X124.028 Y115.959 E.0246
G1 X124.614 Y115.388 E.02462
G1 X125.253 Y114.883 E.02451
G1 X125.94 Y114.445 E.02451
G1 X126.672 Y114.079 E.02464
G1 X127.437 Y113.791 E.02459
G1 X128.226 Y113.583 E.02458
G1 X129.033 Y113.458 E.02458
G1 X129.849 Y113.416 E.02458
G1 X130.182 Y113.433 E.01004
G1 X130.222 Y113.812 F9000
G1 F1200
G1 X130.625 Y113.833 E.01215
G1 X131.394 Y113.953 E.02341
G1 X132.146 Y114.151 E.02341
G1 X132.874 Y114.425 E.02341
G1 X133.572 Y114.774 E.02349
G1 X134.225 Y115.19 E.02332
G1 X134.835 Y115.673 E.02342
G1 X135.392 Y116.215 E.02338
G1 X135.89 Y116.813 E.02343
G1 X136.324 Y117.458 E.02341
G1 X136.69 Y118.145 E.02341
G1 X136.983 Y118.865 E.02341
G1 X137.2 Y119.612 E.02341
G1 X137.34 Y120.377 E.02341
G1 X137.4 Y121.152 E.02341
G1 X137.38 Y121.93 E.02341
G1 X137.279 Y122.703 E.02347
G1 X137.101 Y123.46 E.02341
G1 X136.846 Y124.193 E.02337
G1 X136.54 Y124.849 E.02177
G1 X136.114 Y125.565 E.02509
G1 X135.649 Y126.186 E.02334
G1 X135.12 Y126.756 E.02341
G1 X134.536 Y127.27 E.02341
G1 X133.903 Y127.72 E.02341
G1 X133.226 Y128.103 E.02341
G1 X132.513 Y128.415 E.02341
G1 X131.772 Y128.651 E.02341
G1 X131.009 Y128.811 E.02346
G1 X130.235 Y128.891 E.02343
G1 X129.46 Y128.89 E.02334
G1 X128.688 Y128.811 E.02336
G1 X127.925 Y128.651 E.02346
G1 X127.184 Y128.415 E.02341
G1 X126.471 Y128.103 E.02341
G1 X125.795 Y127.72 E.02341
G1 X125.161 Y127.27 E.02341
G1 X124.577 Y126.756 E.02341
G1 X124.048 Y126.186 E.02341
G1 X123.581 Y125.564 E.02341
G1 X123.183 Y124.9 E.0233
G1 X122.811 Y124.085 E.02697
G1 X122.596 Y123.459 E.0199
G1 X122.418 Y122.703 E.0234
G1 X122.317 Y121.93 E.02347
G1 X122.297 Y121.152 E.02341
G1 X122.357 Y120.377 E.02341
G1 X122.497 Y119.612 E.02341
G1 X122.714 Y118.865 E.02341
G1 X123.007 Y118.145 E.02341
G1 X123.373 Y117.458 E.02341
G1 X123.807 Y116.813 E.02341
G1 X124.305 Y116.215 E.02343
G1 X124.864 Y115.672 E.02345
G1 X125.472 Y115.19 E.02335
G1 X126.126 Y114.774 E.02334
G1 X126.823 Y114.425 E.02347
G1 X127.551 Y114.151 E.02341
G1 X128.303 Y113.953 E.02341
G1 X129.072 Y113.833 E.02341
G1 X129.849 Y113.793 E.02341
G1 X130.162 Y113.809 E.00945
G1 E-3.5 F3600
;WIPE_START
G1 F7200
G1 X130.625 Y113.833 E-.22025
G1 X131.394 Y113.953 E-.3694
G1 X132.146 Y114.151 E-.36941
G1 X132.874 Y114.425 E-.36948
G1 X133.055 Y114.516 E-.09645
;WIPE_END
G1 E-.075 F3600
G1 X126.829 Y123.888 F9000
G1 E5 F2400
G1 F1200
G1 X127.307 Y124.366 E.02034
G1 X127.307 Y128.057 E.11111
G1 X126.64 Y127.766 E.02191
G1 X125.997 Y127.402 E.02224
G1 X125.395 Y126.974 E.02224
G1 X124.84 Y126.486 E.02224
G1 X124.338 Y125.944 E.02224
G1 X123.895 Y125.353 E.02224
G1 X123.517 Y124.724 E.02207
G1 X123.142 Y123.888 E.02758
G1 X126.769 Y123.888 E.10918
G1 E-3.5 F3600
;WIPE_START
G1 F7200
G1 X127.307 Y124.366 E-.34172
G1 X127.307 Y126.646 E-1.08328
;WIPE_END
G1 E-.075 F3600
G1 X132.39 Y124.765 F9000
G1 E5 F2400
G1 F1200
G1 X132.39 Y124.366 E.01203
G1 X132.868 Y123.888 E.02034
G1 X136.552 Y123.888 E.11091
G1 X136.496 Y124.051 E.0052
G1 X136.206 Y124.672 E.02063
G1 X135.8 Y125.355 E.02392
G1 X135.359 Y125.944 E.02214
G1 X134.857 Y126.486 E.02224
G1 X134.302 Y126.974 E.02224
G1 X133.7 Y127.402 E.02224
G1 X133.057 Y127.766 E.02224
G1 X132.39 Y128.057 E.02191
G1 X132.39 Y124.825 E.09728
G1 E-3.5 F3600
;WIPE_START
G1 F7200
G1 X132.39 Y124.366 E-.21831
G1 X132.868 Y123.888 E-.32098
G1 X134.732 Y123.888 E-.88571
;WIPE_END
G1 E-.075 F3600
G1 X132.722 Y114.771 F9000
G1 E5 F2400
G1 F1200
G1 X133.386 Y115.103 E.02232
G1 X134.006 Y115.498 E.02215
G1 X134.586 Y115.957 E.02225
G1 X135.114 Y116.472 E.02221
G1 X135.588 Y117.04 E.02226
G1 X136.001 Y117.653 E.02224
G1 X136.348 Y118.305 E.02224
G1 X136.552 Y118.806 E.01627
G1 X132.868 Y118.806 E.11089
G1 X132.39 Y118.328 E.02034
G1 X132.39 Y114.646 E.11082
G1 X132.666 Y114.75 E.00889
G1 E-3.5 F3600
;WIPE_START
G1 F7200
G1 X133.386 Y115.103 E-.38065
G1 X134.006 Y115.498 E-.3495
G1 X134.586 Y115.957 E-.35105
G1 X135.104 Y116.462 E-.3438
;WIPE_END
G1 E-.075 F3600
G1 X132.043 Y119.6 F9000
G1 E5 F2400
;TYPE:External perimeter
G1 F1200
G1 X132.266 Y119.937 E.01217
G1 X136.159 Y119.937 E.11716
G1 X136.159 Y122.757 E.08488
G1 X132.266 Y122.757 E.11716
G1 X132.004 Y123.152 E.01428
G1 X131.654 Y123.502 E.01491
G1 X131.259 Y123.764 E.01428
G1 X131.259 Y127.657 E.11716
G1 X128.439 Y127.657 E.08488
G1 X128.439 Y123.764 E.11716
G1 X128.043 Y123.502 E.01428
G1 X127.693 Y123.152 E.01491
G1 X127.431 Y122.757 E.01428
G1 X123.539 Y122.757 E.11716
G1 X123.539 Y119.937 E.08488
G1 X127.431 Y119.937 E.11716
G1 X127.693 Y119.542 E.01428
G1 X128.043 Y119.191 E.01491
G1 X128.439 Y118.929 E.01428
G1 X128.439 Y115.037 E.11716
G1 X131.259 Y115.037 E.08488
G1 X131.259 Y118.929 E.11716
G1 X131.654 Y119.191 E.01428
G1 X132.009 Y119.55 E.01521
G1 X132.438 Y119.538 F9000
G1 E-3.5 F3600
;WIPE_START
G1 F7200
G1 X132.266 Y119.937 E-.22047
G1 X134.802 Y119.937 E-1.20453
;WIPE_END
G1 E-.075 F3600
G1 X128.061 Y114.66 F9000
G1 E5 F2400
;TYPE:Perimeter
G1 F1200
G1 X131.636 Y114.66 E.10758
G1 X131.636 Y118.727 E.12242
G1 X131.894 Y118.898 E.00932
G1 X132.297 Y119.302 E.01718
G1 X132.468 Y119.56 E.00932
G1 X136.536 Y119.56 E.12242
G1 X136.536 Y123.134 E.10758
G1 X132.468 Y123.134 E.12242
G1 X132.297 Y123.392 E.00932
G1 X131.894 Y123.795 E.01718
G1 X131.636 Y123.967 E.00932
G1 X131.636 Y128.034 E.12242
G1 X128.061 Y128.034 E.10758
G1 X128.061 Y123.967 E.12242
G1 X127.803 Y123.795 E.00932
G1 X127.4 Y123.392 E.01718
G1 X127.229 Y123.134 E.00932
G1 X123.161 Y123.134 E.12242
G1 X123.161 Y119.56 E.10758
G1 X127.229 Y119.56 E.12242
G1 X127.4 Y119.302 E.00932
G1 X127.803 Y118.898 E.01718
G1 X128.061 Y118.727 E.00932
G1 X128.061 Y114.72 E.12062
G1 X127.684 Y114.283 F9000
G1 F1200
G1 X132.013 Y114.283 E.13028
G1 X132.013 Y118.525 E.12768
G1 X132.134 Y118.605 E.00437
G1 X132.59 Y119.062 E.01945
G1 X132.671 Y119.183 E.00437
G1 X136.913 Y119.183 E.12768
G1 X136.913 Y123.511 E.13028
G1 X132.671 Y123.511 E.12768
G1 X132.59 Y123.632 E.00437
G1 X132.134 Y124.089 E.01945
G1 X132.013 Y124.169 E.00437
G1 X132.013 Y128.411 E.12768
G1 X127.684 Y128.411 E.13028
G1 X127.684 Y124.169 E.12768
G1 X127.563 Y124.089 E.00437
G1 X127.107 Y123.632 E.01945
G1 X127.026 Y123.511 E.00437
G1 X122.784 Y123.511 E.12768
G1 X122.784 Y119.183 E.13028
G1 X127.026 Y119.183 E.12768
G1 X127.107 Y119.062 E.00437
G1 X127.563 Y118.605 E.01945
G1 X127.684 Y118.525 E.00437
G1 X127.684 Y114.343 E.12588
G1 E-3.5 F3600
;WIPE_START
G1 F7200
G1 X130.684 Y114.301 E-1.425
;WIPE_END
G1 E-.075 F3600
G1 X127.307 Y118.328 F9000
G1 E5 F2400
G1 F1200
G1 X126.829 Y118.806 E.02034
G1 X123.146 Y118.806 E.11089
G1 X123.349 Y118.305 E.01627
G1 X123.696 Y117.653 E.02224
G1 X124.109 Y117.04 E.02224
G1 X124.583 Y116.472 E.02226
G1 X125.113 Y115.955 E.02228
G1 X125.69 Y115.498 E.02218
G1 X126.312 Y115.103 E.02217
G1 X126.975 Y114.771 E.0223
G1 X127.307 Y114.646 E.0107
G1 X127.307 Y118.268 E.10902
G1 E-3.5 F3600
;WIPE_START
G1 F7200
G1 X126.829 Y118.806 E-.34173
G1 X124.549 Y118.806 E-1.08327
;WIPE_END
G1 E-.075 F3600
G1 X127.194 Y115.605 F9000
G1 E5 F2400
;TYPE:Solid infill
;WIDTH:0.439734
G1 F1200
G1 X126.776 Y115.187 E.01874
G1 X126.406 Y115.378 E.01319
G1 X127.024 Y115.997 E.02771
G1 X127.024 Y116.558 E.01778
G1 X126.063 Y115.596 E.04308
G1 X125.732 Y115.826 E.01277
G1 X127.024 Y117.119 E.05792
G1 X127.024 Y117.68 E.01778
G1 X125.418 Y116.074 E.07195
G1 X125.123 Y116.34 E.01259
G1 X127.009 Y118.226 E.08449
G1 X126.728 Y118.507 E.01257
G1 X124.839 Y116.617 E.08465
G1 X124.579 Y116.918 E.0126
G1 X126.183 Y118.523 E.07189
G1 X125.622 Y118.523 E.01778
G1 X124.325 Y117.225 E.05812
G1 X124.099 Y117.561 E.01281
G1 X125.061 Y118.523 E.0431
G1 X124.5 Y118.523 E.01778
G1 X123.882 Y117.905 E.02767
G1 X123.687 Y118.271 E.01314
G1 X124.108 Y118.692 E.01886
G1 E-3.5 F3600
;WIPE_START
G1 F7200
G1 X123.687 Y118.271 E-.28288
G1 X123.882 Y117.905 E-.19706
G1 X124.5 Y118.523 E-.41488
G1 X125.061 Y118.523 E-.26656
G1 X124.669 Y118.13 E-.26361
;WIPE_END
G1 E-.075 F3600
G1 X122.573 Y120.374 F9000
G1 E5 F2400
;TYPE:Gap fill
;WIDTH:0.0942577
G1 F1200
G1 X122.57 Y120.404 E.00012
;WIDTH:0.1234
G1 X122.556 Y120.781 E.00242
;WIDTH:0.152543
G1 X122.541 Y121.159 E.0033
;WIDTH:0.152542
G1 X122.551 Y121.912 E.00659
;WIDTH:0.133146
G1 X122.572 Y122.246 E.00241
G1 E-3.5 F3600
;WIPE_START
G1 F7200
G1 X122.551 Y121.912 E-.159
;WIPE_END
G1 E-1.341 F3600
G1 X126.539 Y124.001 F9000
G1 E5 F2400
;TYPE:Solid infill
;WIDTH:0.424806
G1 F1200
G1 X127.024 Y124.486 E.02092
G1 X127.024 Y125.027 E.01646
G1 X126.169 Y124.171 E.03689
G1 X125.629 Y124.171 E.01646
G1 X127.024 Y125.567 E.06017
G1 X127.024 Y126.107 E.01646
G1 X125.089 Y124.171 E.08346
G1 X124.549 Y124.171 E.01646
G1 X127.024 Y126.647 E.10674
G1 X127.024 Y127.187 E.01646
G1 X124.009 Y124.171 E.13002
G1 X123.579 Y124.171 E.01309
G1 X123.669 Y124.371 E.0067
G1 X126.844 Y127.546 E.13686
G1 X126.149 Y127.163 E.02418
G1 X125.571 Y126.752 E.02163
G1 X125.062 Y126.305 E.02063
G1 X123.901 Y125.143 E.05007
G1 E-3.5 F3600
;WIPE_START
G1 F7200
G1 X125.062 Y126.305 E-.78026
G1 X125.571 Y126.752 E-.32142
G1 X126.125 Y127.146 E-.32332
;WIPE_END
G1 E-.075 F3600
G1 X128.941 Y128.623 F9000
G1 E5 F2400
;TYPE:Gap fill
;WIDTH:0.119366
G1 F1200
G1 X129.207 Y128.637 E.00162
;WIDTH:0.145411
