; generated by PrusaSlicer 2.4.0+linux-x64-GTK3 on 2022-07-21 at 13:12:27 UTC

; 

; external perimeters extrusion width = 0.45mm
; perimeters extrusion width = 0.45mm
; infill extrusion width = 0.45mm
; solid infill extrusion width = 0.45mm
; top infill extrusion width = 0.45mm
; first layer extrusion width = 0.42mm

M201 X500 Y500 Z100 E5000 ; sets maximum accelerations, mm/sec^2
M203 X500 Y500 Z10 E60 ; sets maximum feedrates, mm/sec
M204 P500 R1000 T500 ; sets acceleration (P, T) and retract acceleration (R), mm/sec^2
M205 X8.00 Y8.00 Z0.40 E5.00 ; sets the jerk limits, mm/sec
M205 S0 T0 ; sets the minimum extruding and travel feed rate, mm/sec
M107
;TYPE:Custom
G90 ; use absolute coordinates
M83 ; extruder relative mode
M140 S50 ; set final bed temp
M104 S150 ; set temporary nozzle temp to prevent oozing during homing and auto bed leveling
G4 S10 ; allow partial nozzle warmup
G28 ; home all axis
G29 ; auto bed levelling
G1 Z50 F240
G1 X2 Y10 F3000
M104 S205 ; set final nozzle temp
M190 S50 ; wait for bed temp to stabilize
M109 S205 ; wait for nozzle temp to stabilize
G1 Z0.28 F240
G92 E0
G1 Y140 E10 F1500 ; prime the nozzle
G1 X2.3 F5000
G92 E0
G1 Y10 E10 F1200 ; prime the nozzle
G92 E0
G21 ; set units to millimeters
G90 ; use absolute coordinates
M83 ; use relative distances for extrusion
; Filament gcode
M107
;LAYER_CHANGE
;Z:0.2
;HEIGHT:0.2
;BEFORE_LAYER_CHANGE
G92 E0
;0.2


G1 E-5 F3600
G1 Z.2 F9000
;AFTER_LAYER_CHANGE
;0.2
G1 X84.038 Y84.465
G1 E5 F2400
M204 S500
;TYPE:Skirt/Brim
;WIDTH:0.42
G1 F1200
G1 X84.871 Y83.667 E.03471
G1 X85.989 Y82.801 E.04259
G1 X87.04 Y82.153 E.03715
G1 X88.247 Y81.572 E.04031
G1 X89.43 Y81.151 E.03781
G1 X90.675 Y80.844 E.03861
G1 X91.969 Y80.666 E.03932
G1 X137.119 Y80.624 E1.35902
G1 X139.325 Y80.844 E.06671
G1 X141.447 Y81.451 E.06644
G1 X143.414 Y82.416 E.06594
G1 X145.193 Y83.723 E.06644
G1 X146.694 Y85.305 E.06564
G1 X147.847 Y87.04 E.06271
G1 X148.376 Y88.124 E.0363
G1 X148.745 Y89.093 E.03123
G1 X149.241 Y91.172 E.06431
G1 X149.377 Y92.95 E.0537
G1 X149.359 Y137.659 E1.34575
G1 X149.142 Y139.396 E.05268
G1 X148.655 Y141.166 E.05524
G1 X147.809 Y143.029 E.06159
G1 X146.762 Y144.609 E.05704
G1 X145.867 Y145.634 E.04097
G1 X144.892 Y146.532 E.03991
G1 X143.789 Y147.349 E.0413
G1 X142.599 Y148.037 E.04138
G1 X141.4 Y148.567 E.03948
G1 X140.087 Y148.986 E.04147
G1 X138.73 Y149.255 E.04164
G1 X137.276 Y149.373 E.04391
G1 X92.341 Y149.359 E1.35257
G1 X90.604 Y149.142 E.05268
G1 X88.834 Y148.655 E.05524
G1 X86.971 Y147.809 E.0616
G1 X85.391 Y146.762 E.05704
G1 X84.366 Y145.867 E.04097
G1 X83.468 Y144.892 E.03991
G1 X82.651 Y143.789 E.0413
G1 X81.963 Y142.599 E.04138
G1 X81.433 Y141.4 E.03948
G1 X81.014 Y140.087 E.04147
G1 X80.745 Y138.73 E.04164
G1 X80.627 Y137.276 E.04391
G1 X80.641 Y92.341 E1.35257
G1 X80.858 Y90.604 E.05267
G1 X81.345 Y88.834 E.05525
G1 X82.191 Y86.971 E.06159
G1 X83.238 Y85.391 E.05705
G1 X83.999 Y84.51 E.03504
G1 E-3.5 F3600
;WIPE_START
G1 F7200
G1 X84.871 Y83.667 E-.57605
G1 X85.989 Y82.801 E-.67214
G1 X86.306 Y82.605 E-.17681
;WIPE_END
G1 E-.075 F3600
G1 X86.632 Y87.068 F9000
G1 E5 F2400
G1 F1200
G1 X87.08 Y86.606 E.01938
G1 X87.805 Y86.008 E.02828
G1 X88.585 Y85.489 E.02821
G1 X89.43 Y85.052 E.02863
G1 X90.335 Y84.707 E.02917
G1 X91.223 Y84.47 E.02764
G1 X92.208 Y84.324 E.02999
G1 X92.862 Y84.289 E.01971
G1 X137.141 Y84.29 E1.3328
G1 X137.939 Y84.339 E.02407
G1 X138.727 Y84.461 E.02401
G1 X139.609 Y84.688 E.02741
G1 X140.299 Y84.935 E.02204
G1 X141.097 Y85.311 E.02657
G1 X141.718 Y85.675 E.02166
G1 X142.358 Y86.129 E.02362
G1 X142.954 Y86.639 E.0236
G1 X143.508 Y87.207 E.02388
G1 X144.01 Y87.829 E.02405
G1 X144.49 Y88.55 E.02607
G1 X144.836 Y89.191 E.02196
G1 X145.178 Y89.995 E.02629
G1 X145.397 Y90.672 E.02142
G1 X145.577 Y91.469 E.02457
G1 X145.684 Y92.277 E.02454
G1 X145.711 Y137.168 E1.35124
G1 X145.672 Y137.833 E.02004
G1 X145.546 Y138.699 E.02636
G1 X145.376 Y139.4 E.02169
G1 X145.122 Y140.15 E.02383
G1 X144.827 Y140.827 E.02225
G1 X144.47 Y141.483 E.02245
G1 X144.019 Y142.161 E.02453
G1 X143.567 Y142.727 E.0218
G1 X142.92 Y143.394 E.02799
G1 X142.195 Y143.992 E.02827
G1 X141.415 Y144.511 E.02821
G1 X140.57 Y144.948 E.02863
G1 X139.665 Y145.293 E.02917
G1 X138.777 Y145.53 E.02763
G1 X137.842 Y145.671 E.02847
G1 X137.049 Y145.713 E.02392
G1 X92.831 Y145.711 E1.33095
G1 X92.167 Y145.672 E.02003
G1 X91.301 Y145.546 E.02636
G1 X90.6 Y145.375 E.0217
G1 X89.865 Y145.128 E.02335
G1 X89.173 Y144.826 E.02273
G1 X88.518 Y144.471 E.02243
G1 X87.839 Y144.019 E.02453
G1 X87.273 Y143.567 E.0218
G1 X86.606 Y142.92 E.02799
G1 X86.008 Y142.195 E.02827
G1 X85.489 Y141.415 E.02821
G1 X85.052 Y140.57 E.02863
G1 X84.707 Y139.665 E.02917
G1 X84.47 Y138.777 E.02764
G1 X84.329 Y137.842 E.02847
G1 X84.287 Y137.049 E.02392
G1 X84.289 Y92.831 E1.33095
G1 X84.328 Y92.167 E.02003
G1 X84.454 Y91.301 E.02636
G1 X84.625 Y90.6 E.0217
G1 X84.872 Y89.865 E.02335
G1 X85.174 Y89.173 E.02273
G1 X85.529 Y88.518 E.02243
G1 X85.98 Y87.839 E.02453
G1 X86.433 Y87.273 E.0218
G1 X86.59 Y87.111 E.0068
G1 X86.86 Y87.374 F9000
G1 F1200
G1 X87.343 Y86.877 E.02087
G1 X88.037 Y86.305 E.02705
G1 X88.785 Y85.809 E.02702
G1 X89.593 Y85.392 E.02737
G1 X90.46 Y85.063 E.02791
G1 X91.309 Y84.838 E.02644
G1 X92.237 Y84.7 E.02824
G1 X92.867 Y84.666 E.01899
G1 X137.135 Y84.667 E1.33247
G1 X137.907 Y84.714 E.02328
G1 X138.66 Y84.832 E.02294
G1 X139.506 Y85.051 E.02632
G1 X140.162 Y85.287 E.02098
G1 X140.928 Y85.649 E.0255
G1 X141.52 Y85.996 E.02065
G1 X142.132 Y86.431 E.02261
G1 X142.702 Y86.92 E.02258
G1 X143.231 Y87.464 E.02285
G1 X143.711 Y88.058 E.02299
G1 X144.171 Y88.751 E.02502
G1 X144.5 Y89.362 E.02091
G1 X144.827 Y90.134 E.02524
G1 X145.035 Y90.78 E.02041
G1 X145.204 Y91.527 E.02304
G1 X145.309 Y92.314 E.02391
G1 X145.334 Y137.152 E1.34964
G1 X145.298 Y137.787 E.01914
G1 X145.178 Y138.619 E.02531
G1 X145.015 Y139.287 E.02068
G1 X144.773 Y140.006 E.02284
G1 X144.484 Y140.669 E.02175
G1 X144.143 Y141.295 E.02145
G1 X143.71 Y141.945 E.02352
G1 X143.279 Y142.484 E.02078
G1 X142.657 Y143.123 E.02685
G1 X141.963 Y143.694 E.02704
G1 X141.215 Y144.191 E.02703
G1 X140.407 Y144.608 E.02737
G1 X139.54 Y144.937 E.02791
G1 X138.691 Y145.162 E.02644
G1 X137.795 Y145.297 E.02726
G1 X137.044 Y145.336 E.02265
G1 X92.847 Y145.334 E1.33032
G1 X92.213 Y145.298 E.01913
G1 X91.381 Y145.178 E.02531
G1 X90.713 Y145.015 E.02069
G1 X89.993 Y144.773 E.02285
G1 X89.331 Y144.484 E.02174
G1 X88.706 Y144.144 E.02144
G1 X88.055 Y143.71 E.02353
G1 X87.516 Y143.279 E.02079
G1 X86.877 Y142.657 E.02685
G1 X86.305 Y141.963 E.02705
G1 X85.809 Y141.215 E.02702
G1 X85.392 Y140.407 E.02737
G1 X85.063 Y139.54 E.02791
G1 X84.838 Y138.691 E.02644
G1 X84.703 Y137.795 E.02726
G1 X84.664 Y137.044 E.02265
G1 X84.666 Y92.847 E1.33032
G1 X84.702 Y92.213 E.01912
G1 X84.822 Y91.381 E.02531
G1 X84.985 Y90.713 E.02069
G1 X85.227 Y89.993 E.02285
G1 X85.516 Y89.331 E.02174
G1 X85.856 Y88.706 E.02143
G1 X86.29 Y88.055 E.02353
G1 X86.818 Y87.417 E.02494
G1 X87.087 Y87.679 F9000
G1 F1200
G1 X87.606 Y87.148 E.02236
G1 X88.269 Y86.603 E.02582
G1 X88.984 Y86.129 E.02583
G1 X89.756 Y85.732 E.02611
G1 X90.584 Y85.419 E.02665
G1 X91.395 Y85.205 E.02525
G1 X92.266 Y85.076 E.02652
G1 X92.872 Y85.043 E.01826
G1 X137.129 Y85.044 E1.33215
G1 X137.858 Y85.088 E.02196
G1 X138.593 Y85.203 E.02239
G1 X139.403 Y85.413 E.02521
G1 X140.026 Y85.638 E.01992
G1 X140.759 Y85.986 E.02443
G1 X141.322 Y86.316 E.01965
G1 X141.906 Y86.733 E.0216
G1 X142.449 Y87.2 E.02155
G1 X142.955 Y87.72 E.02183
G1 X143.411 Y88.288 E.02192
G1 X143.851 Y88.952 E.02398
G1 X144.164 Y89.533 E.01986
G1 X144.477 Y90.273 E.02419
G1 X144.674 Y90.887 E.0194
G1 X144.834 Y91.601 E.02203
G1 X144.933 Y92.351 E.02277
G1 X144.957 Y137.137 E1.34806
G1 X144.924 Y137.742 E.01824
G1 X144.809 Y138.54 E.02426
G1 X144.655 Y139.175 E.01967
G1 X144.419 Y139.878 E.02234
G1 X144.142 Y140.51 E.02076
G1 X143.817 Y141.106 E.02046
G1 X143.401 Y141.729 E.02252
G1 X142.991 Y142.241 E.01976
G1 X142.394 Y142.852 E.02571
G1 X141.731 Y143.397 E.02582
G1 X141.016 Y143.871 E.02584
G1 X140.244 Y144.268 E.02611
G1 X139.416 Y144.581 E.02666
G1 X138.605 Y144.795 E.02525
G1 X137.749 Y144.923 E.02606
G1 X137.039 Y144.959 E.02139
G1 X92.863 Y144.957 E1.32971
G1 X92.258 Y144.924 E.01823
G1 X91.46 Y144.809 E.02426
G1 X90.825 Y144.655 E.01967
G1 X90.121 Y144.418 E.02235
G1 X89.49 Y144.142 E.02075
G1 X88.894 Y143.817 E.02044
G1 X88.272 Y143.401 E.02252
G1 X87.759 Y142.991 E.01977
G1 X87.148 Y142.394 E.02571
G1 X86.603 Y141.731 E.02582
G1 X86.129 Y141.016 E.02584
G1 X85.732 Y140.244 E.02611
G1 X85.419 Y139.416 E.02665
G1 X85.205 Y138.605 E.02525
G1 X85.077 Y137.749 E.02605
G1 X85.041 Y137.039 E.02139
G1 X85.043 Y92.863 E1.32971
G1 X85.076 Y92.258 E.01823
G1 X85.191 Y91.46 E.02426
G1 X85.345 Y90.825 E.01967
G1 X85.582 Y90.121 E.02235
G1 X85.858 Y89.49 E.02075
G1 X86.183 Y88.894 E.02044
G1 X86.599 Y88.272 E.02252
G1 X87.045 Y87.722 E.02131
G1 X87.314 Y87.985 F9000
G1 F1200
G1 X87.868 Y87.419 E.02384
G1 X88.5 Y86.901 E.02459
G1 X89.183 Y86.449 E.02465
G1 X89.918 Y86.073 E.02484
G1 X90.707 Y85.775 E.0254
G1 X91.48 Y85.572 E.02406
G1 X92.296 Y85.452 E.0248
G1 X92.877 Y85.42 E.01754
G1 X137.123 Y85.421 E1.33181
G1 X137.825 Y85.464 E.02117
G1 X138.525 Y85.574 E.02131
G1 X139.299 Y85.776 E.0241
G1 X139.888 Y85.989 E.01886
G1 X140.59 Y86.323 E.02336
G1 X141.123 Y86.637 E.01865
G1 X141.667 Y87.025 E.0201
G1 X142.197 Y87.48 E.02104
G1 X142.678 Y87.976 E.02079
G1 X143.112 Y88.517 E.02086
G1 X143.532 Y89.152 E.02294
G1 X143.827 Y89.703 E.01882
G1 X144.126 Y90.412 E.02315
G1 X144.312 Y90.994 E.01839
G1 X144.465 Y91.675 E.02102
G1 X144.558 Y92.388 E.02163
G1 X144.58 Y137.122 E1.3465
G1 X144.549 Y137.697 E.01734
G1 X144.44 Y138.46 E.02321
G1 X144.295 Y139.063 E.01865
G1 X144.07 Y139.735 E.02135
G1 X143.807 Y140.337 E.01977
G1 X143.498 Y140.904 E.01944
G1 X143.092 Y141.512 E.022
G1 X142.702 Y141.997 E.01873
G1 X142.132 Y142.581 E.02457
G1 X141.5 Y143.099 E.02459
G1 X140.817 Y143.551 E.02466
G1 X140.082 Y143.927 E.02485
G1 X139.293 Y144.225 E.0254
G1 X138.52 Y144.428 E.02406
G1 X137.703 Y144.548 E.02485
G1 X137.035 Y144.582 E.02014
G1 X92.878 Y144.58 E1.32912
G1 X92.303 Y144.549 E.01733
G1 X91.54 Y144.44 E.02321
G1 X90.937 Y144.295 E.01866
G1 X90.264 Y144.069 E.02135
G1 X89.663 Y143.807 E.01976
G1 X89.096 Y143.498 E.01942
G1 X88.488 Y143.092 E.02201
G1 X88.003 Y142.702 E.01874
G1 X87.419 Y142.132 E.02457
G1 X86.901 Y141.5 E.02459
G1 X86.449 Y140.817 E.02466
G1 X86.073 Y140.082 E.02484
G1 X85.775 Y139.293 E.0254
G1 X85.572 Y138.519 E.02406
G1 X85.452 Y137.703 E.02485
G1 X85.418 Y137.035 E.02014
G1 X85.42 Y92.878 E1.32912
G1 X85.451 Y92.303 E.01733
G1 X85.56 Y91.54 E.02321
G1 X85.705 Y90.937 E.01866
G1 X85.931 Y90.264 E.02135
G1 X86.193 Y89.663 E.01976
G1 X86.502 Y89.096 E.01942
G1 X86.908 Y88.488 E.02201
G1 X87.275 Y88.031 E.01766
G1 X87.569 Y88.267 F9000
G1 F1200
G1 X88.13 Y87.69 E.02423
G1 X88.731 Y87.199 E.02336
G1 X89.382 Y86.77 E.02347
G1 X90.08 Y86.414 E.02358
G1 X90.83 Y86.132 E.02414
G1 X91.566 Y85.94 E.02287
G1 X92.341 Y85.826 E.0236
G1 X92.892 Y85.797 E.01661
G1 X137.117 Y85.798 E1.33118
G1 X137.793 Y85.84 E.02037
G1 X138.456 Y85.945 E.02022
G1 X139.195 Y86.138 E.02299
G1 X139.751 Y86.341 E.0178
G1 X140.42 Y86.659 E.0223
G1 X140.924 Y86.957 E.01764
G1 X141.441 Y87.326 E.0191
G1 X141.944 Y87.76 E.02001
G1 X142.401 Y88.232 E.01975
G1 X142.812 Y88.745 E.0198
G1 X143.212 Y89.352 E.0219
G1 X143.49 Y89.873 E.01776
G1 X143.775 Y90.55 E.0221
G1 X143.95 Y91.1 E.01737
G1 X144.095 Y91.749 E.02001
G1 X144.182 Y92.424 E.0205
G1 X144.203 Y137.107 E1.34496
G1 X144.175 Y137.652 E.01644
G1 X144.071 Y138.381 E.02216
G1 X143.935 Y138.951 E.01763
G1 X143.721 Y139.592 E.02034
G1 X143.465 Y140.179 E.01927
G1 X143.18 Y140.702 E.01793
G1 X142.783 Y141.296 E.02149
G1 X142.415 Y141.753 E.01769
G1 X141.87 Y142.31 E.02343
G1 X141.269 Y142.801 E.02335
G1 X140.618 Y143.23 E.02347
G1 X139.92 Y143.586 E.02358
G1 X139.17 Y143.868 E.02414
G1 X138.434 Y144.06 E.02287
G1 X137.657 Y144.174 E.02364
G1 X137.03 Y144.205 E.01891
G1 X92.893 Y144.203 E1.32853
G1 X92.348 Y144.175 E.01643
G1 X91.619 Y144.071 E.02216
G1 X91.049 Y143.935 E.01763
G1 X90.393 Y143.715 E.02084
G1 X89.822 Y143.465 E.01876
G1 X89.298 Y143.18 E.01793
G1 X88.704 Y142.784 E.02149
G1 X88.247 Y142.415 E.0177
G1 X87.69 Y141.87 E.02343
G1 X87.199 Y141.269 E.02336
G1 X86.77 Y140.618 E.02347
G1 X86.414 Y139.92 E.02358
G1 X86.132 Y139.17 E.02414
G1 X85.94 Y138.434 E.02287
G1 X85.826 Y137.657 E.02364
G1 X85.795 Y137.03 E.01891
G1 X85.797 Y92.893 E1.32853
G1 X85.825 Y92.348 E.01643
G1 X85.929 Y91.619 E.02216
G1 X86.065 Y91.049 E.01763
G1 X86.285 Y90.393 E.02084
G1 X86.535 Y89.822 E.01876
G1 X86.82 Y89.298 E.01793
G1 X87.216 Y88.704 E.0215
G1 X87.531 Y88.314 E.0151
G1 X87.824 Y88.551 F9000
G1 F1200
G1 X88.392 Y87.962 E.02461
G1 X88.962 Y87.498 E.02213
G1 X89.58 Y87.091 E.02229
G1 X90.241 Y86.755 E.02231
G1 X90.953 Y86.489 E.02288
G1 X91.65 Y86.307 E.02168
G1 X92.387 Y86.201 E.0224
G1 X92.907 Y86.173 E.01568
G1 X137.112 Y86.175 E1.33057
G1 X137.743 Y86.214 E.01903
G1 X138.388 Y86.316 E.01966
G1 X139.09 Y86.501 E.02187
G1 X139.613 Y86.692 E.01674
G1 X140.249 Y86.996 E.02123
G1 X140.725 Y87.278 E.01664
G1 X141.214 Y87.628 E.01811
G1 X141.691 Y88.04 E.01898
G1 X142.123 Y88.487 E.01871
G1 X142.511 Y88.974 E.01873
G1 X142.892 Y89.552 E.02086
G1 X143.153 Y90.042 E.01671
G1 X143.424 Y90.688 E.02106
G1 X143.588 Y91.206 E.01636
G1 X143.725 Y91.822 E.019
G1 X143.807 Y92.46 E.01937
G1 X143.827 Y137.092 E1.34344
G1 X143.8 Y137.608 E.01555
G1 X143.702 Y138.303 E.02112
G1 X143.575 Y138.84 E.0166
G1 X143.366 Y139.464 E.01982
G1 X143.123 Y140.02 E.01825
G1 X142.853 Y140.514 E.01694
G1 X142.475 Y141.079 E.02047
G1 X142.127 Y141.509 E.01665
G1 X141.608 Y142.038 E.0223
G1 X141.039 Y142.502 E.02212
G1 X140.42 Y142.909 E.02229
G1 X139.759 Y143.245 E.02231
G1 X139.047 Y143.511 E.02288
G1 X138.35 Y143.693 E.02168
G1 X137.612 Y143.8 E.02243
G1 X137.025 Y143.828 E.01769
G1 X92.907 Y143.827 E1.32796
G1 X92.392 Y143.8 E.01554
G1 X91.697 Y143.702 E.02112
G1 X91.16 Y143.575 E.0166
G1 X90.536 Y143.366 E.01982
G1 X89.98 Y143.123 E.01826
G1 X89.501 Y142.862 E.01643
G1 X88.921 Y142.475 E.02098
G1 X88.491 Y142.127 E.01665
G1 X87.962 Y141.608 E.0223
G1 X87.498 Y141.039 E.02212
G1 X87.091 Y140.42 E.02229
G1 X86.755 Y139.759 E.02231
G1 X86.489 Y139.047 E.02288
G1 X86.307 Y138.35 E.02168
G1 X86.2 Y137.612 E.02243
G1 X86.172 Y137.025 E.01769
G1 X86.173 Y92.907 E1.32796
G1 X86.2 Y92.392 E.01554
G1 X86.298 Y91.697 E.02111
G1 X86.425 Y91.16 E.0166
G1 X86.634 Y90.536 E.01982
G1 X86.877 Y89.98 E.01826
G1 X87.138 Y89.501 E.01643
G1 X87.525 Y88.921 E.02098
G1 X87.787 Y88.597 E.01252
G1 X88.08 Y88.835 F9000
G1 F1200
G1 X88.638 Y88.248 E.02439
G1 X89.192 Y87.796 E.02151
G1 X89.778 Y87.412 E.02109
G1 X90.402 Y87.096 E.02104
G1 X91.075 Y86.846 E.02162
G1 X91.734 Y86.675 E.0205
G1 X92.432 Y86.575 E.0212
G1 X92.921 Y86.55 E.01476
G1 X137.106 Y86.552 E1.32996
G1 X137.71 Y86.59 E.01823
G1 X138.319 Y86.687 E.01856
G1 X138.985 Y86.863 E.02075
G1 X139.474 Y87.042 E.01567
G1 X140.078 Y87.332 E.02017
G1 X140.525 Y87.597 E.01564
G1 X140.987 Y87.929 E.01711
G1 X141.438 Y88.319 E.01795
G1 X141.845 Y88.742 E.01768
G1 X142.211 Y89.202 E.01767
G1 X142.572 Y89.752 E.01982
G1 X142.816 Y90.211 E.01566
G1 X143.072 Y90.825 E.02002
G1 X143.226 Y91.311 E.01534
G1 X143.355 Y91.894 E.01799
G1 X143.431 Y92.496 E.01825
G1 X143.45 Y137.078 E1.34194
G1 X143.425 Y137.565 E.01465
G1 X143.333 Y138.225 E.02007
G1 X143.214 Y138.729 E.01558
G1 X143.017 Y139.321 E.01879
G1 X142.78 Y139.861 E.01775
G1 X142.535 Y140.311 E.01543
G1 X142.166 Y140.862 E.01995
G1 X141.84 Y141.265 E.01561
G1 X141.362 Y141.752 E.02055
G1 X140.808 Y142.204 E.02151
G1 X140.222 Y142.588 E.02109
G1 X139.598 Y142.904 E.02105
G1 X138.925 Y143.154 E.02162
G1 X138.266 Y143.325 E.02049
G1 X137.568 Y143.425 E.02122
G1 X137.021 Y143.451 E.01648
G1 X92.921 Y143.45 E1.32741
G1 X92.435 Y143.425 E.01465
G1 X91.775 Y143.333 E.02007
G1 X91.271 Y143.214 E.01558
G1 X90.679 Y143.017 E.01879
G1 X90.139 Y142.78 E.01775
