; generated by PrusaSlicer 2.5.0+linux-x64-GTK3 on 2023-06-25 at 16:20:59 UTC

; 

; external perimeters extrusion width = 0.45mm
; perimeters extrusion width = 0.45mm
; infill extrusion width = 0.45mm
; solid infill extrusion width = 0.45mm
; top infill extrusion width = 0.45mm
; first layer extrusion width = 0.42mm

; external perimeters extrusion width = 0.45mm
; perimeters extrusion width = 0.45mm
; infill extrusion width = 0.45mm
; solid infill extrusion width = 0.45mm
; top infill extrusion width = 0.45mm
; first layer extrusion width = 0.42mm

M73 P0 R32
M107
M190 S60 ; set bed temperature and wait for it to be reached
M104 S205 ; set temperature
;TYPE:Custom
START_PRINT BED_TEMP=60 EXTRUDER_TEMP=205
M109 S205 ; set temperature and wait for it to be reached
G21 ; set units to millimeters
G90 ; use absolute coordinates
M83 ; use relative distances for extrusion
; Filament gcode
M107
;LAYER_CHANGE
;Z:0.2
;HEIGHT:0.2
;BEFORE_LAYER_CHANGE
G92 E0
;0.2


G1 E-2.5 F2400
G1 Z.2 F9000
;AFTER_LAYER_CHANGE
;0.2
G1 X71.143 Y73.412
G1 E2.5 F2400
M204 S500
;TYPE:Skirt/Brim
;WIDTH:0.42
G1 F900
G1 X72.902 Y71.708 E.07681
G1 X74.81 Y70.185 E.07655
G1 X75.907 Y69.431 E.04171
G1 X78.329 Y68.033 E.08771
G1 X80.572 Y67.02 E.07716
G1 X81.807 Y66.567 E.04124
G1 X84.499 Y65.809 E.08771
G1 X86.924 Y65.381 E.07718
G1 X88.238 Y65.245 E.04143
G1 X91.028 Y65.176 E.08752
G1 X93.518 Y65.363 E.07828
G1 X96.072 Y65.807 E.0813
G1 X98.639 Y66.521 E.08354
G1 X101.045 Y67.458 E.08095
G1 X102.4 Y68.11 E.04713
G1 X104.666 Y69.428 E.08222
G1 X106.797 Y70.97 E.08244
G1 X108.764 Y72.716 E.08248
G1 X110.546 Y74.649 E.08243
G1 X112.037 Y76.617 E.07741
G1 X132.286 Y105.177 E1.09773
G1 X132.93 Y106.239 E.03892
G1 X133.384 Y107.305 E.03633
G1 X140.584 Y128.152 E.69152
G1 X141.322 Y130.623 E.08089
G1 X141.816 Y133.156 E.08089
G1 X142.06 Y135.724 E.08089
G1 X142.051 Y138.308 E.08102
G1 X141.789 Y140.885 E.08123
G1 X141.329 Y143.205 E.07415
G1 X140.969 Y144.528 E.04297
G1 X140.515 Y145.901 E.04537
G1 X139.611 Y148.086 E.07414
G1 X138.285 Y150.572 E.08832
G1 X136.972 Y152.538 E.07415
G1 X136.121 Y153.639 E.04362
G1 X135.187 Y154.717 E.04473
G1 X133.44 Y156.46 E.07738
G1 X132.364 Y157.384 E.04448
G1 X130.464 Y158.793 E.07414
G1 X128.049 Y160.242 E.08832
G1 X125.911 Y161.253 E.07414
G1 X124.492 Y161.801 E.04772
G1 X122.103 Y162.52 E.0782
G1 X119.617 Y163.016 E.0795
G1 X99.361 Y165.817 E.64114
G1 X98.526 Y165.822 E.02618
G1 X97.52 Y165.715 E.03172
G1 X95.843 Y165.253 E.05456
G1 X94.358 Y164.493 E.0523
G1 X93.549 Y163.899 E.03145
G1 X92.933 Y163.335 E.02618
G1 X91.98 Y162.176 E.04705
G1 X91.181 Y160.712 E.0523
G1 X65.475 Y100.484 E2.05321
G1 X64.754 Y98.147 E.0767
G1 X64.453 Y96.851 E.04171
G1 X64.048 Y94.214 E.08365
G1 X63.913 Y91.458 E.08651
G1 X64.036 Y89 E.07716
G1 X64.2 Y87.659 E.04237
G1 X64.749 Y84.953 E.08658
G1 X65.47 Y82.615 E.0767
G1 X65.964 Y81.343 E.04278
G1 X67.165 Y78.854 E.08665
G1 X68.448 Y76.754 E.07716
G1 X69.212 Y75.684 E.04124
M73 P1 R32
G1 X71.099 Y73.454 E.09159
; printing object MonsterBeetleParts-BlackFootMotorMount1.stl id:0 copy 0
G1 E-1.75 F2400
;WIPE_START
G1 F7200
G1 X72.715 Y71.888 E-.7125
;WIPE_END
G1 E-.0375 F2400
G1 X117.057 Y114.619 F9000
G1 E2.5 F2400
;TYPE:Perimeter
;WIDTH:0.419999
G1 F900
G1 X117.216 Y114.582 E.00512
G1 X117.421 Y114.395 E.00871
G1 X121.851 Y107.688 E.25201
G1 X122.407 Y107.004 E.02762
G1 X123.063 Y106.462 E.02668
G1 X123.813 Y106.06 E.02669
G1 X124.349 Y105.897 E.01758
G1 X125 Y105.756 E.02086
G1 X125.503 Y105.729 E.0158
G1 X126.111 Y105.777 E.01911
G1 X126.734 Y105.92 E.02006
G1 X127.329 Y106.153 E.02003
G1 X127.884 Y106.471 E.02003
G1 X128.294 Y106.796 E.01642
G1 X128.679 Y107.165 E.01673
G1 X129.072 Y107.678 E.02026
G1 X129.332 Y108.146 E.01677
G1 X129.496 Y108.542 E.01344
G1 X129.704 Y109.244 E.02296
G1 X129.766 Y109.786 E.0171
G1 X129.77 Y110.314 E.01655
G1 X128.848 Y118.541 E.25957
G1 X128.89 Y118.825 E.00902
G1 X129.059 Y119.047 E.00876
G1 X129.959 Y119.759 E.03599
G1 X130.78 Y120.474 E.03412
G1 X131.604 Y121.27 E.03594
G1 X132.311 Y122.021 E.03232
G1 X133.019 Y122.848 E.03414
G1 X133.685 Y123.709 E.03413
G1 X134.308 Y124.601 E.03413
G1 X134.887 Y125.523 E.03412
G1 X135.42 Y126.471 E.03411
G1 X135.931 Y127.497 E.03594
G1 X136.346 Y128.441 E.03232
G1 X136.735 Y129.457 E.03413
G1 X137.075 Y130.492 E.03413
G1 X137.363 Y131.541 E.03413
G1 X137.6 Y132.603 E.03413
G1 X137.785 Y133.676 E.03412
G1 X137.918 Y134.756 E.03412
G1 X137.997 Y135.842 E.03413
G1 X138.024 Y136.93 E.03413
G1 X137.998 Y137.968 E.03258
G1 X137.916 Y139.12 E.03619
G1 X137.782 Y140.207 E.03435
G1 X137.594 Y141.287 E.03437
G1 X137.354 Y142.357 E.03437
G1 X137.061 Y143.413 E.03437
G1 X136.717 Y144.454 E.03437
G1 X136.322 Y145.476 E.03437
G1 X135.877 Y146.479 E.03438
G1 X135.41 Y147.406 E.03257
G1 X134.843 Y148.411 E.03619
G1 X134.256 Y149.337 E.03435
G1 X133.625 Y150.233 E.03437
G1 X132.95 Y151.096 E.03437
G1 X132.233 Y151.926 E.03437
G1 X131.476 Y152.719 E.03437
G1 X130.682 Y153.475 E.03437
G1 X129.851 Y154.19 E.03437
G1 X128.986 Y154.863 E.03437
G1 X128.09 Y155.494 E.03437
G1 X127.163 Y156.079 E.03437
G1 X126.209 Y156.619 E.03437
G1 X125.229 Y157.111 E.03437
G1 X124.226 Y157.554 E.03437
G1 X123.203 Y157.947 E.03437
G1 X122.162 Y158.29 E.03437
G1 X121.105 Y158.581 E.03437
G1 X120.035 Y158.819 E.03437
G1 X118.955 Y159.005 E.03437
G1 X117.866 Y159.138 E.03437
G1 X116.773 Y159.217 E.03437
G1 X115.677 Y159.242 E.03439
G1 X114.638 Y159.217 E.03257
G1 X113.545 Y159.137 E.03438
G1 X112.456 Y159.004 E.03437
G1 X111.376 Y158.817 E.03437
G1 X110.306 Y158.578 E.03437
G1 X109.25 Y158.286 E.03437
G1 X108.21 Y157.944 E.03431
G1 X106.817 Y157.4 E.04691
G1 X106.583 Y157.387 E.00733
G1 X106.342 Y157.484 E.00816
G1 X101.529 Y160.875 E.1846
G1 X101.025 Y161.204 E.01888
G1 X100.434 Y161.482 E.02048
G1 X99.927 Y161.636 E.01661
G1 X99.405 Y161.735 E.01665
G1 X98.535 Y161.748 E.02727
G1 X97.692 Y161.591 E.02691
G1 X96.888 Y161.267 E.02716
G1 X96.454 Y160.999 E.016
G1 X96.051 Y160.689 E.01594
G1 X95.679 Y160.317 E.01646
G1 X95.235 Y159.715 E.02346
G1 X94.912 Y159.098 E.02186
G1 X94.734 Y158.552 E.01797
G1 X94.629 Y158.063 E.0157
G1 X94.594 Y157.523 E.01696
G1 X94.612 Y156.968 E.01743
G1 X95.704 Y147.01 E.31409
G1 X95.658 Y146.718 E.00925
G1 X95.178 Y145.662 E.03639
G1 X94.772 Y144.638 E.03455
G1 X94.417 Y143.594 E.03455
G1 X94.114 Y142.535 E.03455
G1 X93.863 Y141.462 E.03455
G1 X93.666 Y140.378 E.03455
G1 X93.523 Y139.285 E.03455
G1 X93.434 Y138.186 E.03455
G1 X93.399 Y137.085 E.03455
G1 X93.418 Y135.983 E.03456
G1 X93.488 Y134.941 E.03275
G1 X93.621 Y133.788 E.03637
G1 X93.802 Y132.702 E.03453
G1 X94.038 Y131.626 E.03456
G1 X94.311 Y130.617 E.03275
G1 X94.667 Y129.513 E.03636
G1 X95.059 Y128.484 E.03453
G1 X95.501 Y127.474 E.03456
G1 X95.966 Y126.539 E.03275
G1 X96.532 Y125.527 E.03636
G1 X97.118 Y124.594 E.03454
G1 X97.75 Y123.691 E.03456
G1 X98.39 Y122.866 E.03275
G1 X99.144 Y121.984 E.03636
G1 X99.901 Y121.185 E.03454
G1 X100.698 Y120.423 E.03455
G1 X101.532 Y119.702 E.03455
G1 X102.4 Y119.023 E.03456
G1 X103.252 Y118.42 E.03275
G1 X104.231 Y117.797 E.03636
G1 X105.189 Y117.254 E.03454
G1 X106.173 Y116.759 E.03455
G1 X107.181 Y116.312 E.03455
G1 X108.209 Y115.916 E.03455
G1 X109.256 Y115.571 E.03456
G1 X110.263 Y115.293 E.03275
M73 P1 R31
G1 X111.394 Y115.039 E.03636
G1 X112.48 Y114.853 E.03454
G1 X113.574 Y114.72 E.03455
G1 X114.674 Y114.642 E.03456
G1 X115.718 Y114.618 E.03275
G1 X116.935 Y114.648 E.03816
G1 X116.999 Y114.633 E.00206
G1 X116.969 Y114.271 F9000
;TYPE:External perimeter
G1 F900
G1 X117.106 Y114.187 E.00503
G1 X121.547 Y107.465 E.2526
G1 X122.138 Y106.738 E.02938
G1 X122.852 Y106.148 E.02903
G1 X123.667 Y105.71 E.02903
G1 X124.466 Y105.468 E.02617
G1 X124.945 Y105.383 E.01523
G1 X125.51 Y105.352 E.01775
G1 X126.168 Y105.404 E.02069
G1 X126.846 Y105.558 E.0218
G1 X127.493 Y105.812 E.02179
G1 X128.096 Y106.158 E.02179
G1 X128.58 Y106.541 E.01937
G1 X128.964 Y106.917 E.01686
G1 X129.389 Y107.471 E.02187
G1 X129.725 Y108.079 E.02179
G1 X129.942 Y108.657 E.01936
G1 X130.076 Y109.178 E.01688
G1 X130.149 Y109.82 E.02023
G1 X130.147 Y110.336 E.01619
G1 X129.222 Y118.622 E.26141
G1 X129.293 Y118.752 E.00464
G1 X130.2 Y119.469 E.03627
G1 X131.035 Y120.196 E.0347
G1 X131.873 Y121.005 E.03652
G1 X132.592 Y121.769 E.03289
G1 X133.311 Y122.61 E.03471
G1 X133.989 Y123.485 E.0347
G1 X134.622 Y124.393 E.0347
G1 X135.211 Y125.33 E.0347
G1 X135.754 Y126.294 E.0347
G1 X136.272 Y127.337 E.03652
G1 X136.695 Y128.297 E.03289
G1 X137.091 Y129.331 E.03471
G1 X137.436 Y130.383 E.0347
G1 X137.729 Y131.45 E.0347
G1 X137.97 Y132.53 E.0347
G1 X138.158 Y133.621 E.0347
G1 X138.293 Y134.719 E.0347
G1 X138.374 Y135.823 E.03471
G1 X138.401 Y136.93 E.0347
G1 X138.375 Y137.987 E.03314
G1 X138.291 Y139.156 E.03677
G1 X138.155 Y140.262 E.03494
G1 X137.964 Y141.361 E.03495
G1 X137.72 Y142.448 E.03495
G1 X137.422 Y143.523 E.03495
G1 X137.072 Y144.581 E.03495
G1 X136.67 Y145.621 E.03495
G1 X136.218 Y146.64 E.03496
G1 X135.743 Y147.584 E.03314
G1 X135.167 Y148.605 E.03677
G1 X134.57 Y149.546 E.03494
G1 X133.927 Y150.457 E.03495
G1 X133.241 Y151.336 E.03495
G1 X132.512 Y152.179 E.03495
G1 X131.743 Y152.986 E.03495
G1 X130.935 Y153.754 E.03495
G1 X130.09 Y154.482 E.03495
G1 X129.211 Y155.167 E.03495
G1 X128.299 Y155.808 E.03495
G1 X127.357 Y156.403 E.03495
G1 X126.386 Y156.952 E.03495
G1 X125.39 Y157.452 E.03495
G1 X124.37 Y157.902 E.03495
G1 X123.33 Y158.302 E.03495
G1 X122.271 Y158.651 E.03495
G1 X121.196 Y158.947 E.03495
G1 X120.108 Y159.189 E.03495
G1 X119.009 Y159.379 E.03495
G1 X117.903 Y159.513 E.03495
G1 X116.791 Y159.594 E.03495
G1 X115.676 Y159.619 E.03496
G1 X114.62 Y159.593 E.03314
G1 X113.508 Y159.512 E.03496
G1 X112.401 Y159.377 E.03495
G1 X111.303 Y159.187 E.03495
G1 X110.215 Y158.944 E.03495
G1 X109.141 Y158.647 E.03495
G1 X108.082 Y158.299 E.03493
G1 X106.717 Y157.764 E.04597
G1 X106.559 Y157.792 E.00504
G1 X101.631 Y161.265 E.18902
G1 X101.207 Y161.535 E.01578
G1 X100.569 Y161.835 E.02208
G1 X99.962 Y162.019 E.0199
G1 X99.441 Y162.111 E.0166
G1 X98.503 Y162.126 E.02939
G1 X97.585 Y161.955 E.02928
G1 X96.717 Y161.605 E.02936
G1 X96.231 Y161.304 E.01792
M73 P2 R31
G1 X95.815 Y160.983 E.01648
G1 X95.432 Y160.612 E.01672
G1 X95.075 Y160.16 E.01808
G1 X94.794 Y159.716 E.01646
G1 X94.561 Y159.237 E.01671
G1 X94.367 Y158.642 E.01962
G1 X94.255 Y158.111 E.017
G1 X94.214 Y157.487 E.01961
G1 X94.236 Y156.936 E.01729
G1 X95.258 Y147.615 E.294
G1 X95.314 Y146.872 E.02338
G1 X94.831 Y145.81 E.03658
G1 X94.418 Y144.768 E.03513
G1 X94.057 Y143.707 E.03514
G1 X93.749 Y142.63 E.03514
G1 X93.494 Y141.538 E.03514
G1 X93.294 Y140.436 E.03513
G1 X93.148 Y139.325 E.03514
G1 X93.057 Y138.208 E.03514
G1 X93.022 Y137.088 E.03514
G1 X93.042 Y135.967 E.03514
G1 X93.112 Y134.907 E.03332
G1 X93.247 Y133.736 E.03695
G1 X93.432 Y132.631 E.03513
G1 X93.672 Y131.536 E.03514
G1 X93.949 Y130.51 E.03333
G1 X94.311 Y129.388 E.03695
G1 X94.709 Y128.341 E.03513
G1 X95.159 Y127.315 E.03514
G1 X95.633 Y126.363 E.03332
G1 X96.208 Y125.334 E.03695
G1 X96.804 Y124.386 E.03513
G1 X97.446 Y123.468 E.03514
G1 X98.097 Y122.627 E.03332
G1 X98.863 Y121.732 E.03695
G1 X99.634 Y120.919 E.03513
G1 X100.444 Y120.144 E.03514
G1 X101.292 Y119.411 E.03514
G1 X102.174 Y118.72 E.03514
G1 X103.042 Y118.107 E.03332
G1 X104.037 Y117.474 E.03695
G1 X105.011 Y116.921 E.03513
G1 X106.012 Y116.418 E.03514
G1 X107.037 Y115.964 E.03513
G1 X108.083 Y115.561 E.03514
G1 X109.147 Y115.21 E.03514
G1 X110.171 Y114.927 E.03332
G1 X111.321 Y114.669 E.03695
G1 X112.426 Y114.479 E.03514
G1 X113.538 Y114.345 E.03513
G1 X114.656 Y114.265 E.03514
G1 X115.719 Y114.24 E.03333
G1 X116.909 Y114.269 E.03735
G1 X117.094 Y114.372 F9000
G1 E-1.75 F2400
;WIPE_START
G1 F7200
G1 X117.106 Y114.187 E-.0676
G1 X118.229 Y112.488 E-.6449
;WIPE_END
G1 E-.0375 F2400
G1 X108.326 Y128.547 F9000
G1 E2.5 F2400
;TYPE:Perimeter
G1 F900
G1 X108.373 Y128.633 E.00305
G1 X108.575 Y129.211 E.01921
G1 X108.674 Y129.841 E.01999
G1 X108.652 Y130.49 E.02036
G1 X108.522 Y131.065 E.01849
G1 X108.213 Y131.779 E.02441
G1 X107.825 Y132.319 E.02084
G1 X107.426 Y132.695 E.01719
G1 X106.794 Y133.117 E.02382
G1 X106.104 Y133.376 E.0231
G1 X105.55 Y133.466 E.01759
G1 X104.987 Y133.467 E.01765
G1 X104.7 Y133.441 E.00906
G1 X104.098 Y133.287 E.01947
G1 X103.371 Y132.929 E.02541
G1 X102.951 Y132.608 E.01657
G1 X102.52 Y132.141 E.01993
G1 X102.141 Y131.52 E.02282
G1 X101.908 Y130.861 E.0219
G1 X101.815 Y130.228 E.02008
G1 X101.841 Y129.593 E.01992
G1 X102.013 Y128.892 E.02263
G1 X102.288 Y128.303 E.02036
G1 X102.698 Y127.747 E.02166
G1 X103.244 Y127.26 E.02296
G1 X103.799 Y126.935 E.02018
G1 X104.398 Y126.722 E.01993
G1 X105.092 Y126.62 E.022
G1 X105.813 Y126.664 E.02264
G1 X106.435 Y126.828 E.02016
G1 X107.008 Y127.103 E.01994
G1 X107.522 Y127.478 E.01994
G1 X107.957 Y127.942 E.01993
G1 X108.297 Y128.495 E.02037
G1 X108.22 Y129.336 F9000
;TYPE:External perimeter
G1 F900
G1 X108.301 Y129.893 E.01764
G1 X108.275 Y130.471 E.01817
G1 X108.156 Y130.975 E.01624
G1 X107.872 Y131.619 E.02205
G1 X107.522 Y132.094 E.01848
G1 X107.088 Y132.492 E.01849
G1 X106.598 Y132.794 E.01805
G1 X105.977 Y133.021 E.02072
G1 X105.405 Y133.106 E.01812
G1 X104.831 Y133.082 E.01803
G1 X104.234 Y132.933 E.01928
G1 X103.633 Y132.651 E.02081
G1 X103.181 Y132.308 E.0178
G1 X102.8 Y131.889 E.01774
G1 X102.466 Y131.329 E.02046
G1 X102.265 Y130.742 E.01946
G1 X102.189 Y130.179 E.0178
G1 X102.217 Y129.614 E.01774
G1 X102.378 Y128.988 E.02028
G1 X102.626 Y128.47 E.01801
G1 X102.998 Y127.976 E.01937
G1 X103.49 Y127.545 E.02051
G1 X103.984 Y127.263 E.01783
G1 X104.519 Y127.079 E.01774
G1 X105.141 Y126.994 E.01969
G1 X105.784 Y127.039 E.0202
G1 X106.332 Y127.191 E.01782
G1 X106.841 Y127.44 E.01776
G1 X107.294 Y127.779 E.01776
G1 X107.678 Y128.195 E.01774
G1 X108 Y128.722 E.01937
G1 X108.199 Y129.279 E.01854
G1 X108.604 Y129.446 F9000
G1 E-1.75 F2400
;WIPE_START
G1 F7200
G1 X108.301 Y129.893 E-.19686
G1 X108.275 Y130.471 E-.18348
G1 X108.156 Y130.975 E-.16403
G1 X107.941 Y131.461 E-.16813
;WIPE_END
G1 E-.0375 F2400
G1 X110.839 Y143.092 F9000
G1 E2.5 F2400
;TYPE:Perimeter
G1 F900
G1 X110.886 Y143.497 E.01277
G1 X110.81 Y143.999 E.01591
G1 X110.604 Y144.466 E.01601
G1 X110.42 Y144.767 E.01106
G1 X110.061 Y145.126 E.01592
G1 X109.52 Y145.433 E.01951
G1 X109.297 Y145.515 E.00744
G1 X108.796 Y145.595 E.01592
G1 X108.117 Y145.515 E.02142
G1 X107.496 Y145.23 E.02142
G1 X106.994 Y144.767 E.02142
G1 X106.66 Y144.171 E.02142
G1 X106.526 Y143.501 E.02142
G1 X106.605 Y142.823 E.02142
G1 X106.89 Y142.202 E.02142
G1 X107.353 Y141.7 E.02142
G1 X107.792 Y141.445 E.01591
G1 X108.121 Y141.31 E.01115
G1 X108.623 Y141.234 E.01592
G1 X109.115 Y141.298 E.01556
G1 X108.833 Y140.869 E.01611
G1 X108.415 Y140.049 E.02885
G1 X108.049 Y139.008 E.03461
G1 X107.836 Y137.923 E.03465
G1 X107.782 Y136.741 E.0371
G1 X107.876 Y135.803 E.02955
G1 X108.15 Y134.627 E.03788
G1 X108.526 Y133.681 E.0319
G1 X109.068 Y132.727 E.03441
G1 X109.654 Y131.968 E.03007
G1 X110.142 Y131.466 E.02196
G1 X110.529 Y131.096 E.01676
G1 X111.35 Y130.503 E.03177
G1 X112.465 Y129.912 E.03955
G1 X113.425 Y129.579 E.03188
G1 X114.202 Y129.406 E.02497
G1 X115.303 Y129.303 E.03467
G1 X116.405 Y129.359 E.03458
G1 X117.473 Y129.569 E.03412
G1 X118.517 Y129.934 E.03469
G1 X119.483 Y130.437 E.03416
G1 X120.068 Y130.854 E.02251
G1 X120.627 Y131.3 E.02245
G1 X121.221 Y131.897 E.0264
G1 X121.888 Y132.769 E.03442
G1 X122.388 Y133.655 E.0319
G1 X122.784 Y134.654 E.03367
G1 X123.035 Y135.684 E.03326
G1 X123.145 Y136.787 E.03474
G1 X123.106 Y137.674 E.02785
G1 X123.037 Y138.232 E.01762
G1 X122.884 Y138.983 E.02404
G1 X122.488 Y140.101 E.03717
G1 X122.01 Y141.009 E.03218
G1 X121.364 Y141.908 E.03473
G1 X120.763 Y142.533 E.02719
G1 X120.234 Y142.99 E.0219
G1 X119.719 Y143.384 E.02035
G1 X119.272 Y143.641 E.01617
G1 X118.755 Y143.93 E.01857
G1 X117.881 Y144.27 E.02938
G1 X116.985 Y144.503 E.02904
G1 X116.562 Y144.592 E.01356
G1 X115.538 Y144.67 E.03218
G1 X114.743 Y144.622 E.02498
G1 X114.352 Y144.59 E.01231
G1 X113.348 Y144.374 E.03218
G1 X112.308 Y143.993 E.03475
